%
(Header)
(Generated by gcodetools from Inkscape.)
(Using default header. To add your own header create file "header" in the output dir.)
M3
(Header end.)
G21 (All units in mm)

(Start cutting path id: path45048-4)
(Change tool to Cylindrical cutter)

G00 Z0.000000
G00 X23.644467 Y30.169740

G01 Z-1.000000 F100.0(Penetrate)
G01 X34.088755 Y28.324160 Z-1.000000 F200.000000
G01 X44.512061 Y26.520530 Z-1.000000
G01 X54.956351 Y24.674960 Z-1.000000
G01 X65.421610 Y22.850340 Z-1.000000
G01 X75.886861 Y21.067690 Z-1.000000
G01 X86.373097 Y19.368920 Z-1.000000
G01 X96.880310 Y17.795990 Z-1.000000
G01 X107.408490 Y16.411800 Z-1.000000
G01 X117.957630 Y15.216370 Z-1.000000
G01 X128.506780 Y14.293580 Z-1.000000
G01 X139.076890 Y13.622470 Z-1.000000
G01 X149.647020 Y13.265940 Z-1.000000
G01 X160.217150 Y13.265940 Z-1.000000
G01 X170.787270 Y13.664420 Z-1.000000
G01 X181.357390 Y14.440390 Z-1.000000
G01 X191.906540 Y15.635820 Z-1.000000
G01 X202.455690 Y17.292640 Z-1.000000
G01 X212.983870 Y19.557680 Z-1.000000
G01 X218.226980 Y20.983790 Z-1.000000
G01 X223.449130 Y22.745480 Z-1.000000
G01 X228.629320 Y25.010510 Z-1.000000
G01 X231.187970 Y26.562470 Z-1.000000
G01 X232.173670 Y27.401370 Z-1.000000
G01 X232.656040 Y27.925690 Z-1.000000
G01 X233.369100 Y30.169740 Z-1.000000
G01 X231.984920 Y31.994340 Z-1.000000
G01 X231.418660 Y32.350870 Z-1.000000
G01 X230.307120 Y32.875180 Z-1.000000
G01 X227.622640 Y33.777000 Z-1.000000
G01 X222.316610 Y34.951460 Z-1.000000
G01 X217.052520 Y35.811340 Z-1.000000
G01 X211.809410 Y36.461490 Z-1.000000
G01 X201.344140 Y37.405230 Z-1.000000
G01 X190.920830 Y38.034420 Z-1.000000
G01 X180.518490 Y38.390940 Z-1.000000
G01 X170.116160 Y38.516750 Z-1.000000
G01 X159.734780 Y38.432850 Z-1.000000
G01 X149.311460 Y38.097290 Z-1.000000
G01 X138.909120 Y37.531030 Z-1.000000
G01 X128.506780 Y36.797000 Z-1.000000
G01 X118.083460 Y35.937130 Z-1.000000
G01 X107.660150 Y34.951420 Z-1.000000
G01 X97.215867 Y33.944750 Z-1.000000
G01 X86.750607 Y32.833200 Z-1.000000
G01 X76.264363 Y31.763610 Z-1.000000
G01 X65.757158 Y30.819840 Z-1.000000
G01 X55.249962 Y30.022890 Z-1.000000
G01 X44.721780 Y29.477610 Z-1.000000
G01 X34.172630 Y29.477610 Z-1.000000
G01 X23.644467 Y30.169700 Z-1.000000
G00 Z0.000000

(End cutting path id: path45048-4)


(Start cutting path id: path45048)
(Change tool to Cylindrical cutter)

G00 Z0.000000
G00 X17.454864 Y67.039620

G01 Z-1.000000 F100.0(Penetrate)
G01 X27.899155 Y65.194040 Z-1.000000 F200.000000
G01 X38.322460 Y63.390410 Z-1.000000
G01 X48.766750 Y61.544840 Z-1.000000
G01 X59.232009 Y59.720220 Z-1.000000
G01 X69.697260 Y57.937570 Z-1.000000
G01 X80.183496 Y56.238800 Z-1.000000
G01 X90.690706 Y54.665870 Z-1.000000
G01 X101.218880 Y53.281680 Z-1.000000
G01 X111.768020 Y52.086250 Z-1.000000
G01 X122.317170 Y51.163460 Z-1.000000
G01 X132.887290 Y50.492350 Z-1.000000
G01 X143.457420 Y50.135820 Z-1.000000
G01 X154.027540 Y50.135820 Z-1.000000
G01 X164.597660 Y50.534300 Z-1.000000
G01 X175.167770 Y51.310270 Z-1.000000
G01 X185.716920 Y52.505700 Z-1.000000
G01 X196.266070 Y54.162520 Z-1.000000
G01 X206.794260 Y56.427560 Z-1.000000
G01 X212.037370 Y57.853670 Z-1.000000
G01 X217.259520 Y59.615360 Z-1.000000
G01 X222.439720 Y61.880390 Z-1.000000
G01 X224.998350 Y63.432350 Z-1.000000
G01 X225.984050 Y64.271250 Z-1.000000
G01 X226.466420 Y64.795570 Z-1.000000
G01 X227.179490 Y67.039620 Z-1.000000
G00 Z0.000000

(End cutting path id: path45048)


(Start cutting path id: path45048)
(Change tool to Cylindrical cutter)

G00 Z0.000000
G00 X227.179490 Y67.039620

G01 Z-1.000000 F100.0(Penetrate)
G01 X225.795300 Y68.864220 Z-1.000000 F200.000000
G01 X225.229050 Y69.220750 Z-1.000000
G01 X224.117510 Y69.745060 Z-1.000000
G01 X221.433040 Y70.646880 Z-1.000000
G01 X216.127000 Y71.821330 Z-1.000000
G01 X210.862910 Y72.681220 Z-1.000000
G01 X205.619800 Y73.331370 Z-1.000000
G01 X195.154540 Y74.275110 Z-1.000000
G01 X184.731220 Y74.904300 Z-1.000000
G01 X174.328880 Y75.260820 Z-1.000000
G01 X163.926540 Y75.386630 Z-1.000000
G01 X153.545170 Y75.302730 Z-1.000000
G01 X143.121850 Y74.967170 Z-1.000000
G01 X132.719520 Y74.400910 Z-1.000000
G01 X122.317170 Y73.666880 Z-1.000000
G01 X111.893860 Y72.807010 Z-1.000000
G01 X101.470540 Y71.821300 Z-1.000000
G01 X91.026262 Y70.814630 Z-1.000000
G01 X80.560998 Y69.703080 Z-1.000000
G01 X70.074762 Y68.633490 Z-1.000000
G01 X59.567557 Y67.689720 Z-1.000000
G01 X49.060361 Y66.892770 Z-1.000000
G01 X38.532179 Y66.347490 Z-1.000000
G01 X27.983029 Y66.347490 Z-1.000000
G01 X17.454864 Y67.039580 Z-1.000000
G00 Z0.000000

(End cutting path id: path45048)


(Footer)
M5
G00 X0.0000 Y0.0000
M2
(Using default footer. To add your own footer create file "footer" in the output dir.)
(end)
%