%
(Header)
(Generated by gcodetools from Inkscape.)
(Using default header. To add your own header create file "header" in the output dir.)
M3
(Header end.)
G21 (All units in mm)

(Start cutting path id: path4680)
(Change tool to Cylindrical cutter)

G00 Z5.000000
G00 X19.602421 Y28.388025

G01 Z-1.000000 F100.0(Penetrate)
G01 X24.313761 Y28.446921 Z-1.000000 F400.000000
G01 X29.024069 Y28.505844 Z-1.000000
G01 X29.667440 Y30.693313 Z-1.000000
G02 X30.316120 Y32.879288 Z-1.000000 I404.402058 J-118.815449
G02 X30.962967 Y35.014488 Z-1.000000 I358.268021 J-107.369851
G01 X31.616157 Y37.147162 Z-1.000000
G01 X39.328349 Y37.147162 Z-1.000000
G01 X47.040540 Y37.147162 Z-1.000000
G01 X48.287492 Y32.839930 Z-1.000000
G03 X49.598163 Y28.581289 Z-1.000000 I127.276769 J36.840634
G03 X49.732882 Y28.409721 Z-1.000000 I0.302164 J0.098588
G03 X49.948316 Y28.346947 Z-1.000000 I0.220233 J0.354761
G03 X54.896908 Y28.349766 Z-1.000000 I2.357468 J205.116933
G01 X59.862494 Y28.412313 Z-1.000000
G01 X59.718834 Y29.006065 Z-1.000000
G03 X59.677465 Y29.158261 Z-1.000000 I-2.823392 J-0.685704
G03 X58.981929 Y31.459149 Z-1.000000 I-1134.652935 J-341.738883
G01 X63.757349 Y31.459149 Z-1.000000
G01 X63.757349 Y28.396280 Z-1.000000
G01 X68.458870 Y28.396280 Z-1.000000
G01 X73.160392 Y28.396280 Z-1.000000
G01 X73.217235 Y37.530093 Z-1.000000
G01 X73.274080 Y46.663907 Z-1.000000
G01 X74.093151 Y46.731587 Z-1.000000
G02 X76.281879 Y46.539514 Z-1.000000 I0.535353 J-6.466152
G02 X78.283077 Y45.627269 Z-1.000000 I-1.655924 J-6.283751
G02 X78.968875 Y45.087192 Z-1.000000 I-3.547554 J-5.210196
G02 X79.589973 Y44.442333 Z-1.000000 I-4.438897 J-4.896870
G02 X80.076167 Y43.692976 Z-1.000000 I-2.779721 J-2.335930
G02 X83.573193 Y36.243345 Z-1.000000 I-277.595542 J-134.855246
G03 X87.007010 Y28.757296 Z-1.000000 I832.261372 J377.223983
G03 X87.162120 Y28.511003 Z-1.000000 I1.038465 J0.482016
G03 X87.398213 Y28.395813 Z-1.000000 I0.245351 J0.203329
G03 X92.718370 Y28.349263 Z-1.000000 I3.806015 J130.944163
G01 X98.089102 Y28.411282 Z-1.000000
G01 X97.903066 Y28.895998 Z-1.000000
G03 X97.808588 Y29.113390 Z-1.000000 I-2.530307 J-0.970435
G03 X96.442174 Y31.896320 Z-1.000000 I-515.381335 J-251.324439
G01 X102.043382 Y31.896320 Z-1.000000
G01 X102.043382 Y28.395777 Z-1.000000
G01 X109.864611 Y28.395777 Z-1.000000
G03 X117.675368 Y28.528188 Z-1.000000 I-0.000000 J230.438942
G03 X119.764263 Y28.730634 Z-1.000000 I-0.567532 J16.734149
G03 X129.003607 Y32.258077 Z-1.000000 I-3.847245 J23.940904
G03 X134.597466 Y38.240129 Z-1.000000 I-8.973641 J13.997770
G01 X142.330846 Y38.240129 Z-1.000000
G03 X142.388060 Y38.010705 Z-1.000000 I15.723377 J3.799261
G03 X142.453319 Y37.768827 Z-1.000000 I10.262093 J2.638983
G03 X146.705379 Y31.278527 Z-1.000000 I12.438729 J3.511121
G03 X154.677897 Y27.762206 Z-1.000000 I10.325152 J12.613946
G03 X160.703097 Y27.552153 Z-1.000000 I3.963704 J27.176694
G03 X165.767658 Y28.596781 Z-1.000000 I-1.517100 J20.154513
G03 X168.382508 Y29.784487 Z-1.000000 I-4.948512 J14.366895
G03 X170.637645 Y31.378531 Z-1.000000 I-7.298346 J12.717398
G01 X183.684392 Y31.378531 Z-1.000000
G01 X183.636852 Y28.395248 Z-1.000000
G01 X198.633350 Y28.395248 Z-1.000000
G01 X213.629851 Y28.395248 Z-1.000000
G01 X213.590576 Y30.881908 Z-1.000000
G01 X221.495522 Y30.881908 Z-1.000000
G01 X221.495522 Y28.404561 Z-1.000000
G01 X225.707151 Y28.345638 Z-1.000000
G01 X229.918781 Y28.285181 Z-1.000000
G01 X229.974590 Y43.435170 Z-1.000000
G02 X230.112831 Y58.503424 Z-1.000000 I1378.481100 J-5.111938
G02 X230.196281 Y58.585661 Z-1.000000 I0.083450 J-0.001222
G02 X230.314660 Y58.512773 Z-1.000000 I-0.000000 J-0.132575
G02 X231.768279 Y55.468023 Z-1.000000 I-69.793654 J-35.190127
G03 X233.185642 Y52.355437 Z-1.000000 I448.374208 J202.294908
G03 X234.407395 Y49.725215 Z-1.000000 I323.872452 J148.841726
G02 X235.635202 Y47.097725 Z-1.000000 I-743.699617 J-349.126161
G02 X239.979147 Y37.747131 Z-1.000000 I-9787.513094 J-4552.606315
G01 X244.318935 Y28.394719 Z-1.000000
G01 X249.971819 Y28.394719 Z-1.000000
G01 X255.624702 Y28.394719 Z-1.000000
G01 X255.624702 Y33.666250 Z-1.000000
G01 X263.780796 Y33.666250 Z-1.000000
G03 X264.279268 Y33.105463 Z-1.000000 I11.973591 J10.141140
G03 X265.010685 Y32.344366 Z-1.000000 I25.790050 J24.052323
G03 X268.829537 Y29.553405 Z-1.000000 I10.602658 J10.499407
G03 X273.858219 Y27.828352 Z-1.000000 I8.569484 J16.788748
G03 X278.605788 Y27.493221 Z-1.000000 I3.781122 J19.769219
G03 X283.289160 Y28.281556 Z-1.000000 I-0.962604 J20.024408
G03 X292.653315 Y35.512255 Z-1.000000 I-4.582807 J15.613888
G03 X296.967906 Y51.038818 Z-1.000000 I-25.875531 J15.553169
G03 X296.514858 Y57.673619 Z-1.000000 I-48.160983 J0.044260
G03 X295.396943 Y62.414870 Z-1.000000 I-25.628684 J-3.540436
G03 X291.938460 Y68.683181 Z-1.000000 I-19.116081 J-6.458873
G03 X287.347312 Y72.318144 Z-1.000000 I-10.477183 J-8.516314
G03 X284.421325 Y73.418426 Z-1.000000 I-7.464485 J-15.409674
G03 X280.784402 Y74.122179 Z-1.000000 I-6.371658 J-23.178552
G03 X279.546985 Y74.225983 Z-1.000000 I-2.329493 J-20.341836
G03 X278.324095 Y74.254471 Z-1.000000 I-1.084961 J-20.312446
G01 X278.324095 Y74.254471 Z-1.000000
G03 X270.029039 Y72.430276 Z-1.000000 I0.138237 J-20.400506
G03 X264.070184 Y67.713283 Z-1.000000 I6.516855 J-14.354906
G03 X261.313770 Y62.879231 Z-1.000000 I15.830434 J-12.229527
G03 X259.644612 Y56.538236 Z-1.000000 I25.176874 J-10.017564
G01 X269.505506 Y56.538236 Z-1.000000
G02 X270.899037 Y61.383729 Z-1.000000 I17.075779 J-2.287745
G02 X272.908921 Y64.124872 Z-1.000000 I7.570640 J-3.443587
G02 X275.077737 Y65.381412 Z-1.000000 I4.073214 J-4.530477
G02 X278.268294 Y65.888055 Z-1.000000 I3.160637 J-9.604429
G02 X280.199378 Y65.706978 Z-1.000000 I-0.032098 J-10.729812
G02 X281.604002 Y65.267422 Z-1.000000 I-1.131475 J-6.079740
G02 X284.728890 Y62.215899 Z-1.000000 I-2.604485 J-5.792872
G02 X286.925117 Y54.146138 Z-1.000000 I-21.005165 J-10.050402
G02 X286.817334 Y45.679425 Z-1.000000 I-43.164056 J-3.684555
G02 X285.420299 Y40.595026 Z-1.000000 I-16.701943 J1.855045
G02 X283.765251 Y38.096427 Z-1.000000 I-8.602155 J3.900540
G02 X281.702189 Y36.558067 Z-1.000000 I-5.125645 J4.721350
G02 X280.439026 Y36.126742 Z-1.000000 I-2.334591 J4.771713
G02 X278.499275 Y35.899201 Z-1.000000 I-2.284695 J11.094873
G02 X274.671166 Y36.508718 Z-1.000000 I-0.315253 J10.346134
G02 X272.266592 Y38.147631 Z-1.000000 I1.980346 J5.488942
G02 X270.244181 Y42.048800 Z-1.000000 I6.882131 J6.042581
G02 X269.191313 Y50.929810 Z-1.000000 I36.929532 J8.881010
G02 X269.233926 Y53.178269 Z-1.000000 I59.729313 J-0.007342
G02 X269.344269 Y55.007066 Z-1.000000 I40.710851 J-1.538627
G01 X259.467363 Y55.007066 Z-1.000000
G03 X259.327282 Y52.989214 Z-1.000000 I42.070105 J-3.934329
G03 X259.274092 Y50.710709 Z-1.000000 I51.673208 J-2.346129
G03 X260.046786 Y42.349050 Z-1.000000 I44.992937 J-0.058775
G03 X261.900807 Y36.729120 Z-1.000000 I21.920688 J4.115873
G01 X255.624702 Y36.729120 Z-1.000000
G01 X255.624702 Y50.928778 Z-1.000000
G01 X255.624702 Y73.462785 Z-1.000000
G01 X251.249262 Y73.462785 Z-1.000000
G01 X246.873818 Y73.462785 Z-1.000000
G01 X246.859874 Y58.421857 Z-1.000000
G02 X246.694135 Y44.069243 Z-1.000000 I-675.433428 J0.622445
G02 X246.541030 Y44.037203 Z-1.000000 I-0.080277 J0.001780
G03 X239.703183 Y58.711419 Z-1.000000 I-6164.311139 J-2863.496975
G03 X236.826380 Y64.820938 Z-1.000000 I-1083.311970 J-506.369586
G02 X235.584308 Y67.447786 Z-1.000000 I1077.737882 J511.201769
G02 X234.171760 Y70.453149 Z-1.000000 I1370.454296 J645.960612
G01 X232.762544 Y73.460218 Z-1.000000
G01 X230.903227 Y73.460218 Z-1.000000
G01 X230.903227 Y85.852217 Z-1.000000
G03 X234.758215 Y86.001188 Z-1.000000 I-5.040494 J180.387596
G03 X236.372659 Y86.142650 Z-1.000000 I-1.049044 J21.255546
G03 X255.660619 Y91.235941 Z-1.000000 I-9.433970 J74.793589
G03 X271.697642 Y100.698860 Z-1.000000 I-25.027994 J60.736121
G03 X274.182165 Y102.780803 Z-1.000000 I-45.707364 J57.069121
G03 X276.514408 Y104.917721 Z-1.000000 I-47.201430 J53.857062
G01 X259.093226 Y120.358116 Z-1.000000
G02 X248.445725 Y113.352561 Z-1.000000 I-30.042833 J34.066898
G02 X235.934951 Y109.454373 Z-1.000000 I-20.174315 J42.722062
G02 X233.847640 Y109.198956 Z-1.000000 I-4.146003 J25.225286
G02 X229.152934 Y108.907135 Z-1.000000 I-10.216826 J126.454967
G02 X224.449307 Y108.722011 Z-1.000000 I-24.426508 J560.780213
G02 X224.011646 Y108.726266 Z-1.000000 I-0.171444 J4.876259
G02 X217.118858 Y109.420557 Z-1.000000 I4.088681 J75.153918
G02 X212.197381 Y110.468785 Z-1.000000 I5.791300 J39.267788
G02 X201.906527 Y115.010551 Z-1.000000 I10.700436 J38.174858
G02 X191.001775 Y123.826116 Z-1.000000 I30.533209 J48.921540
G01 X175.444068 Y106.614256 Z-1.000000
G03 X176.570612 Y105.518753 Z-1.000000 I68.375132 J69.185538
G03 X177.702845 Y104.454700 Z-1.000000 I59.759091 J62.453819
G03 X196.910323 Y91.680329 Z-1.000000 I49.567018 J53.701394
G03 X218.294683 Y85.916272 Z-1.000000 I27.986955 J61.280711
G03 X219.910539 Y85.817277 Z-1.000000 I2.147173 J21.810456
G03 X223.683502 Y85.765380 Z-1.000000 I4.359617 J179.773961
G01 X223.683502 Y73.464319 Z-1.000000
G01 X221.495522 Y73.464319 Z-1.000000
G01 X221.495522 Y50.934943 Z-1.000000
G01 X221.495522 Y33.945783 Z-1.000000
G01 X213.542002 Y33.945783 Z-1.000000
G01 X213.510479 Y35.944128 Z-1.000000
G01 X208.478228 Y35.987017 Z-1.000000
G01 X203.446494 Y36.029906 Z-1.000000
G01 X203.446494 Y50.973175 Z-1.000000
G01 X203.446494 Y65.916445 Z-1.000000
G01 X208.533005 Y65.975368 Z-1.000000
G01 X213.619517 Y66.033761 Z-1.000000
G01 X213.619517 Y69.749278 Z-1.000000
G01 X213.619517 Y73.464319 Z-1.000000
G01 X198.633350 Y73.464319 Z-1.000000
G01 X183.647186 Y73.464319 Z-1.000000
G01 X183.647186 Y69.749278 Z-1.000000
G01 X183.647186 Y66.033761 Z-1.000000
G01 X188.733697 Y65.975368 Z-1.000000
G01 X193.820209 Y65.916445 Z-1.000000
G01 X193.876536 Y50.985055 Z-1.000000
G01 X193.932863 Y36.053665 Z-1.000000
G01 X189.282502 Y36.029853 Z-1.000000
G03 X184.632001 Y35.993556 Z-1.000000 I4.065952 J-818.886082
G03 X184.193924 Y35.975587 Z-1.000000 I0.076893 J-7.223597
G03 X183.994172 Y35.819678 Z-1.000000 I0.016420 J-0.226954
G03 X183.747439 Y34.442855 Z-1.000000 I4.754340 J-1.562517
G01 X173.331537 Y34.442855 Z-1.000000
G03 X174.263417 Y36.077905 Z-1.000000 I-12.384195 J8.141328
G03 X175.004302 Y37.875718 Z-1.000000 I-13.745967 J6.716326
G03 X175.570871 Y40.848185 Z-1.000000 I-10.336086 J3.510348
G03 X175.989772 Y57.840409 Z-1.000000 I-344.426051 J16.992224
G01 X175.989772 Y73.463737 Z-1.000000
G01 X171.294452 Y73.463737 Z-1.000000
G01 X166.598614 Y73.463737 Z-1.000000
G01 X166.536085 Y57.110212 Z-1.000000
G01 X166.473040 Y40.756184 Z-1.000000
G01 X165.973845 Y39.521612 Z-1.000000
G02 X164.570936 Y37.192623 Z-1.000000 I-8.014805 J3.240835
G02 X162.933722 Y35.912536 Z-1.000000 I-3.864080 J3.255079
G02 X161.612179 Y35.492536 Z-1.000000 I-2.062069 J4.199222
G02 X159.034735 Y35.287247 Z-1.000000 I-2.577444 J16.077484
G02 X156.451954 Y35.477612 Z-1.000000 I-0.000000 J17.616105
G02 X155.206029 Y35.854672 Z-1.000000 I0.652708 J4.403750
G02 X153.335585 Y37.091552 Z-1.000000 I3.340536 J7.084357
G02 X152.234118 Y38.503072 Z-1.000000 I3.322142 J3.727926
G02 X151.705725 Y40.440258 Z-1.000000 I4.147950 J2.172062
G02 X151.271902 Y57.656947 Z-1.000000 I344.157178 J17.285826
G01 X151.268806 Y73.463737 Z-1.000000
G01 X146.555916 Y73.463737 Z-1.000000
G01 X141.843541 Y73.463737 Z-1.000000
G01 X141.912788 Y56.453410 Z-1.000000
G03 X141.978335 Y44.563389 Z-1.000000 I4015.601627 J16.191801
G03 X142.040947 Y41.303422 Z-1.000000 I133.511150 J0.933683
G01 X135.967931 Y41.303422 Z-1.000000
G03 X136.906215 Y44.967963 Z-1.000000 I-18.304023 J6.639028
G03 X137.418488 Y50.601039 Z-1.000000 I-44.623097 J6.897864
G03 X137.374497 Y54.746295 Z-1.000000 I-53.657183 J1.503427
G03 X137.082592 Y57.409429 Z-1.000000 I-22.335126 J-1.100580
G03 X133.711156 Y66.033893 Z-1.000000 I-22.579798 J-3.855586
G03 X128.297081 Y70.931595 Z-1.000000 I-11.940207 J-7.757786
G03 X123.176783 Y72.564672 Z-1.000000 I-7.393197 J-14.336857
G03 X110.521423 Y73.461673 Z-1.000000 I-12.668626 J-89.012782
G01 X102.043903 Y73.464319 Z-1.000000
G01 X102.043903 Y58.376349 Z-1.000000
G01 X111.451082 Y58.376349 Z-1.000000
G01 X111.451082 Y65.868397 Z-1.000000
G01 X115.006420 Y65.745921 Z-1.000000
G02 X120.114266 Y65.097984 Z-1.000000 I-0.969872 J-28.102901
G02 X122.596654 Y64.065420 Z-1.000000 I-1.656359 J-7.482293
G02 X125.159873 Y61.494621 Z-1.000000 I-4.566263 J-7.116029
G02 X126.926106 Y57.275127 Z-1.000000 I-11.324746 J-7.219820
G02 X127.163176 Y55.618646 Z-1.000000 I-9.817861 J-2.250308
G02 X127.293527 Y51.039850 Z-1.000000 I-74.902467 J-4.423607
G02 X127.115922 Y46.468661 Z-1.000000 I-62.109392 J0.124102
G02 X126.817587 Y44.759621 Z-1.000000 I-8.917134 J0.676043
G02 X123.946991 Y39.516876 Z-1.000000 I-12.583447 J3.482649
G02 X119.561698 Y36.682580 Z-1.000000 I-7.412147 J6.658592
G02 X118.099606 Y36.364657 Z-1.000000 I-2.406759 J7.547460
G02 X114.787829 Y36.109492 Z-1.000000 I-4.646439 J38.686698
G01 X111.451082 Y35.995298 Z-1.000000
G01 X111.451082 Y50.931847 Z-1.000000
G01 X111.451082 Y56.845179 Z-1.000000
G01 X102.043903 Y56.845179 Z-1.000000
G01 X102.043903 Y50.930286 Z-1.000000
G01 X102.043903 Y34.959693 Z-1.000000
G01 X94.917209 Y34.959693 Z-1.000000
G02 X94.203884 Y36.394944 Z-1.000000 I1207.500801 J601.026620
G03 X93.403088 Y38.001898 Z-1.000000 I-484.680544 J-240.528715
G03 X88.850890 Y46.450951 Z-1.000000 I-142.046114 J-71.081043
G03 X87.494405 Y48.217275 Z-1.000000 I-7.407409 J-4.284640
G01 X85.900187 Y49.812025 Z-1.000000
G01 X86.588001 Y49.958260 Z-1.000000
G03 X89.008230 Y50.877633 Z-1.000000 I-1.757357 J8.271488
G03 X91.503980 Y52.751360 Z-1.000000 I-6.073496 J10.688718
G03 X93.722052 Y56.016639 Z-1.000000 I-6.828981 J7.024856
G03 X94.648490 Y60.337996 Z-1.000000 I-11.234074 J4.668412
G01 X84.812398 Y60.337996 Z-1.000000
G03 X84.814818 Y60.229609 Z-1.000000 I109.377727 J2.388160
G02 X84.816023 Y60.118868 Z-1.000000 I-4.634631 J-0.105788
G02 X84.701546 Y58.718817 Z-1.000000 I-8.822458 J0.016670
G02 X84.433102 Y57.763468 Z-1.000000 I-4.356680 J0.708798
G02 X83.181844 Y56.035440 Z-1.000000 I-4.154215 J1.691019
G02 X80.754772 Y54.640671 Z-1.000000 I-4.995323 J5.883396
G02 X79.372487 Y54.309228 Z-1.000000 I-2.280116 J6.461105
G02 X76.282695 Y54.049988 Z-1.000000 I-4.259588 J32.225934
G01 X73.165056 Y53.938387 Z-1.000000
G01 X73.165056 Y59.872383 Z-1.000000
G01 X73.165056 Y65.807410 Z-1.000000
G01 X75.844994 Y65.803177 Z-1.000000
G02 X82.483283 Y64.396651 Z-1.000000 I-0.020977 J-16.467420
G02 X84.620170 Y61.869061 Z-1.000000 I-1.530189 J-3.460744
G01 X94.645397 Y61.869061 Z-1.000000
G03 X94.253147 Y64.592955 Z-1.000000 I-12.506708 J-0.410818
G03 X93.346769 Y66.958665 Z-1.000000 I-10.906543 J-2.822154
G03 X90.349384 Y70.406294 Z-1.000000 I-8.632729 J-4.478550
G03 X85.306949 Y72.675120 Z-1.000000 I-8.257348 J-11.614059
G03 X83.125843 Y73.077438 Z-1.000000 I-5.543846 J-23.941733
G03 X80.165661 Y73.350019 Z-1.000000 I-4.477290 J-32.412673
G01 X80.165661 Y85.842268 Z-1.000000
G03 X81.810055 Y85.808832 Z-1.000000 I1.750393 J45.631285
G03 X88.260773 Y85.825335 Z-1.000000 I1.534317 J660.989932
G03 X95.577686 Y86.032122 Z-1.000000 I-1.301916 J175.620300
G03 X98.543352 Y86.330716 Z-1.000000 I-1.427698 J29.057026
G03 X116.216441 Y91.589137 Z-1.000000 I-10.151730 J66.447122
G03 X132.414151 Y101.732879 Z-1.000000 I-29.894956 J65.741075
G03 X139.899660 Y108.757213 Z-1.000000 I-53.364979 J64.369242
G03 X147.022046 Y117.233731 Z-1.000000 I-70.789647 J66.711475
G02 X147.882600 Y118.383941 Z-1.000000 I1195.444715 J-893.499151
G02 X149.282373 Y120.252680 Z-1.000000 I11732.496077 J-8786.830782
G01 X130.678339 Y134.031677 Z-1.000000
G02 X125.357830 Y127.389163 Z-1.000000 I-91.713060 J68.008109
G02 X120.613838 Y122.354874 Z-1.000000 I-60.733387 J52.478890
G02 X107.658435 Y113.137247 Z-1.000000 I-36.250641 J37.237145
G02 X94.276946 Y109.148435 Z-1.000000 I-17.963075 J35.821507
G02 X85.279173 Y108.737764 Z-1.000000 I-7.471336 J64.920892
G02 X76.774656 Y109.557216 Z-1.000000 I1.373798 J58.798641
G02 X66.515442 Y112.544208 Z-1.000000 I7.849529 J46.072041
G02 X57.084901 Y117.832668 Z-1.000000 I18.544374 J44.121520
G02 X52.374466 Y121.793348 Z-1.000000 I24.045388 J33.378572
G02 X48.158831 Y126.558230 Z-1.000000 I30.712155 J31.419267
G02 X45.558130 Y130.411906 Z-1.000000 I31.774487 J24.247801
G02 X43.361707 Y134.622862 Z-1.000000 I37.362967 J22.166716
G01 X63.101071 Y147.768817 Z-1.000000
G01 X63.101071 Y145.441330 Z-1.000000
G01 X86.400941 Y145.441330 Z-1.000000
G01 X109.700810 Y145.441330 Z-1.000000
G01 X109.700810 Y151.113335 Z-1.000000
G01 X133.333991 Y166.852921 Z-1.000000
G02 X136.761474 Y162.064359 Z-1.000000 I-115.667744 J-86.411783
G02 X141.380012 Y155.134261 Z-1.000000 I-264.559756 J-181.318933
G01 X142.966996 Y152.685331 Z-1.000000
G01 X141.238937 Y149.883949 Z-1.000000
G02 X136.109995 Y141.829309 Z-1.000000 I-285.176193 J175.930946
G02 X132.080321 Y135.956626 Z-1.000000 I-147.946552 J97.198002
G01 X150.689004 Y122.174005 Z-1.000000
G03 X152.239601 Y124.379856 Z-1.000000 I-165.202215 J117.776328
G03 X153.937902 Y126.867263 Z-1.000000 I-176.951462 J122.638800
G01 X156.568233 Y130.778651 Z-1.000000
G01 X158.579995 Y127.772641 Z-1.000000
G03 X166.991830 Y116.137376 Z-1.000000 I164.468969 J110.046199
G03 X173.770798 Y108.313357 Z-1.000000 I78.987754 J61.588633
G01 X189.367263 Y125.568106 Z-1.000000
G02 X186.280303 Y129.139611 Z-1.000000 I66.875095 J60.921998
G02 X182.897373 Y133.457558 Z-1.000000 I96.038305 J78.726164
G01 X205.962634 Y148.818895 Z-1.000000
G01 X205.962634 Y147.191602 Z-1.000000
G01 X212.197394 Y147.191602 Z-1.000000
G01 X218.432674 Y147.191602 Z-1.000000
G01 X218.432674 Y140.847291 Z-1.000000
G01 X218.432674 Y134.502979 Z-1.000000
G01 X224.996097 Y134.502979 Z-1.000000
G01 X231.559520 Y134.502979 Z-1.000000
G01 X231.559520 Y140.847291 Z-1.000000
G01 X231.559520 Y147.191602 Z-1.000000
G01 X237.903834 Y147.191602 Z-1.000000
G01 X244.248151 Y147.191602 Z-1.000000
G01 X244.248151 Y150.545910 Z-1.000000
G01 X270.222805 Y167.844606 Z-1.000000
G02 X273.493222 Y153.500972 Z-1.000000 I-37.672283 J-16.134114
G02 X271.468701 Y138.878420 Z-1.000000 I-40.900704 J-1.788643
G02 X268.568126 Y132.086993 Z-1.000000 I-41.403049 J13.667855
G02 X264.842238 Y126.407867 Z-1.000000 I-32.574665 J17.309387
G02 X262.891534 Y124.111436 Z-1.000000 I-37.580595 J29.946112
G02 X260.846104 Y121.985912 Z-1.000000 I-35.667868 J32.276909
G01 X278.207321 Y106.600286 Z-1.000000
G03 X290.088036 Y123.542383 Z-1.000000 I-46.224701 J45.052009
G03 X296.229997 Y143.909631 Z-1.000000 I-60.970765 J29.496095
G03 X296.760484 Y151.699617 Z-1.000000 I-57.593802 J7.835112
G03 X296.242432 Y159.443054 Z-1.000000 I-57.463653 J0.044613
G03 X289.608282 Y180.835845 Z-1.000000 I-67.042099 J-9.065467
G03 X276.497398 Y198.603966 Z-1.000000 I-58.718452 J-29.606398
G03 X252.752075 Y213.434950 Z-1.000000 I-46.990337 J-48.810081
G03 X224.380681 Y217.639496 Z-1.000000 I-24.395395 J-66.790623
G03 X207.880653 Y215.107084 Z-1.000000 I4.851604 J-86.630310
G03 X194.148419 Y209.963997 Z-1.000000 I16.477318 J-64.899383
G03 X185.252974 Y204.686112 Z-1.000000 I34.633956 J-68.507925
G03 X176.605822 Y197.856725 Z-1.000000 I47.684473 J-69.265625
G01 X192.077229 Y180.637634 Z-1.000000
G02 X208.936068 Y190.977461 Z-1.000000 I35.906055 J-39.630078
G02 X228.059012 Y194.525144 Z-1.000000 I19.268808 J-50.551248
G02 X232.534763 Y194.414102 Z-1.000000 I0.228260 J-81.056411
G02 X235.128863 Y194.154624 Z-1.000000 I-1.445601 J-27.549137
G02 X254.356364 Y186.798338 Z-1.000000 I-6.953371 J-46.980473
G02 X267.768212 Y172.678411 Z-1.000000 I-23.827154 J-36.061885
G01 X244.248204 Y157.014761 Z-1.000000
G01 X244.248204 Y160.099855 Z-1.000000
G01 X237.903887 Y160.099855 Z-1.000000
G01 X231.559573 Y160.099855 Z-1.000000
G01 X231.559573 Y166.444167 Z-1.000000
G01 X231.559573 Y172.788478 Z-1.000000
G01 X224.996150 Y172.788478 Z-1.000000
G01 X218.432726 Y172.788478 Z-1.000000
G01 X218.432726 Y166.444167 Z-1.000000
G01 X218.432726 Y160.099855 Z-1.000000
G01 X212.197447 Y160.099855 Z-1.000000
G01 X205.962687 Y160.099855 Z-1.000000
G01 X205.962687 Y155.287243 Z-1.000000
G01 X179.747749 Y137.828871 Z-1.000000
G02 X178.216801 Y140.064189 Z-1.000000 I158.161151 J109.964984
G02 X176.606854 Y142.488025 Z-1.000000 I168.039630 J113.360982
G02 X170.470130 Y152.297067 Z-1.000000 I241.096265 J157.658552
G02 X170.404650 Y152.859982 Z-1.000000 I0.592214 J0.354154
G02 X171.538600 Y155.202617 Z-1.000000 I8.674526 J-2.753135
G02 X180.175112 Y167.319064 Z-1.000000 I246.841987 J-166.810847
G02 X185.455659 Y173.852520 Z-1.000000 I94.614245 J-71.069563
G02 X190.340382 Y179.007747 Z-1.000000 I62.046423 J-53.898919
G01 X174.858641 Y196.238218 Z-1.000000
G03 X167.082482 Y187.989828 Z-1.000000 I70.885568 J-74.616950
G03 X158.506669 Y176.890552 Z-1.000000 I124.694768 J-105.207608
G02 X156.662881 Y174.381156 Z-1.000000 I-67.571084 J47.716040
G02 X156.550715 Y174.331025 Z-1.000000 I-0.102183 J0.078083
G02 X156.438842 Y174.392795 Z-1.000000 I0.012119 J0.154143
G02 X154.025288 Y177.721528 Z-1.000000 I127.460419 J94.956654
G03 X127.650054 Y204.464931 Z-1.000000 I-93.963517 J-66.292184
G03 X101.206807 Y216.092821 Z-1.000000 I-39.974181 J-55.024647
G03 X92.743775 Y217.369067 Z-1.000000 I-16.829188 J-82.899452
G03 X84.606788 Y217.751118 Z-1.000000 I-7.728461 J-77.759551
G03 X69.249742 Y216.051919 Z-1.000000 I0.385467 J-73.730431
G03 X55.334672 Y211.321537 Z-1.000000 I13.973348 J-63.936263
G03 X51.144027 Y209.204612 Z-1.000000 I36.315722 J-77.096605
G03 X47.432830 Y207.047379 Z-1.000000 I32.674867 J-60.483111
G01 X63.232897 Y189.462406 Z-1.000000
G02 X70.141082 Y192.336399 Z-1.000000 I20.896005 J-40.487935
G02 X77.759144 Y194.099332 Z-1.000000 I14.199383 J-44.017765
G02 X81.475084 Y194.485515 Z-1.000000 I6.777933 J-47.147920
G02 X85.385033 Y194.597492 Z-1.000000 I3.522764 J-54.687082
G02 X95.516834 Y193.648185 Z-1.000000 I-0.416363 J-58.985979
G02 X104.690832 Y191.043188 Z-1.000000 I-8.814757 J-48.499355
G02 X115.485104 Y185.123167 Z-1.000000 I-17.585418 J-44.865258
G02 X126.588719 Y175.086014 Z-1.000000 I-41.949428 J-57.566888
G02 X128.340420 Y173.089196 Z-1.000000 I-94.666603 J-84.812655
G02 X130.006599 Y171.105384 Z-1.000000 I-88.868857 J-76.331449
G01 X109.700863 Y157.582186 Z-1.000000
G01 X109.700863 Y159.880754 Z-1.000000
G01 X86.400993 Y159.880754 Z-1.000000
G01 X63.101124 Y159.880754 Z-1.000000
G01 X63.101124 Y154.237694 Z-1.000000
G01 X41.404256 Y139.787396 Z-1.000000
G02 X40.577995 Y142.870087 Z-1.000000 I41.318153 J12.726693
G02 X39.998141 Y145.962215 Z-1.000000 I38.745081 J8.866125
G02 X39.590785 Y153.042401 Z-1.000000 I39.777340 J5.840390
G02 X40.431190 Y160.005293 Z-1.000000 I39.313829 J-1.212927
G02 X47.843140 Y176.406215 Z-1.000000 I41.247166 J-8.765258
G02 X61.091426 Y188.282631 Z-1.000000 I35.853123 J-26.667071
G01 X45.413832 Y205.731696 Z-1.000000
G03 X40.746501 Y202.248610 Z-1.000000 I35.212865 J-52.053845
G03 X36.284156 Y198.244300 Z-1.000000 I43.354410 J-52.802064
G03 X25.199130 Y184.070620 Z-1.000000 I47.903510 J-48.886188
G03 X18.601515 Y168.194465 Z-1.000000 I53.841867 J-31.683890
G03 X17.442469 Y161.619200 Z-1.000000 I39.752413 J-10.397085
G03 X16.991277 Y150.954691 Z-1.000000 I104.517802 J-9.763724
G03 X17.287687 Y141.856074 Z-1.000000 I189.795997 J1.628939
G03 X17.661003 Y139.120778 Z-1.000000 I17.442101 J0.987396
G03 X25.265373 Y119.448277 Z-1.000000 I67.117689 J14.638243
G03 X38.268531 Y103.375676 Z-1.000000 I57.187116 J32.969637
G03 X43.022805 Y99.493874 Z-1.000000 I42.264665 J46.911715
G03 X48.771248 Y95.620078 Z-1.000000 I47.777200 J64.695995
G03 X59.923498 Y90.224877 Z-1.000000 I32.655834 J53.278019
G03 X72.946000 Y86.743095 Z-1.000000 I25.793643 J70.378782
G01 X72.946000 Y73.458128 Z-1.000000
G01 X72.234932 Y73.460774 Z-1.000000
G01 X63.757415 Y73.464478 Z-1.000000
G01 X63.757415 Y50.930471 Z-1.000000
G01 X63.757415 Y34.522680 Z-1.000000
G01 X58.049752 Y34.522680 Z-1.000000
G03 X56.228871 Y40.482304 Z-1.000000 I-5596.636231 J-1706.716466
G03 X53.327559 Y49.946036 Z-1.000000 I-11423.939533 J-3497.081550
G02 X47.097902 Y70.296809 Z-1.000000 I12196.631473 J3744.688444
G02 X46.633394 Y71.878036 Z-1.000000 I75.089544 J22.917479
G01 X46.184843 Y73.464478 Z-1.000000
G01 X39.798154 Y73.464478 Z-1.000000
G01 X33.410945 Y73.464478 Z-1.000000
G01 X31.493751 Y67.174433 Z-1.000000
G02 X29.588235 Y60.935610 Z-1.000000 I-5954.462618 J1815.255392
G02 X25.587134 Y47.867602 Z-1.000000 I-41137.178123 J12587.985165
G01 X34.822746 Y47.867602 Z-1.000000
G02 X35.100642 Y48.835338 Z-1.000000 I340.982773 J-97.393092
G02 X35.423744 Y49.946036 Z-1.000000 I273.495459 J-78.957600
G03 X36.831599 Y54.760104 Z-1.000000 I-3961.285140 J1161.074596
G03 X38.088697 Y59.079850 Z-1.000000 I-3024.059882 J882.380294
G02 X39.381400 Y63.217144 Z-1.000000 I102.224913 J-29.669730
G02 X39.480860 Y63.236163 Z-1.000000 I0.055076 J-0.018448
G02 X41.507120 Y59.454831 Z-1.000000 I-7.878340 J-6.655238
G02 X44.797331 Y44.914296 Z-1.000000 I-119.638383 J-34.714124
G02 X44.706693 Y44.801816 Z-1.000000 I-0.095635 J-0.015695
G02 X39.418850 Y44.636801 Z-1.000000 I-6.690732 J129.595899
G02 X34.142489 Y44.714644 Z-1.000000 I-1.114065 J103.346671
G02 X34.008843 Y44.855903 Z-1.000000 I0.005609 J0.139158
G02 X34.026045 Y44.981213 Z-1.000000 I0.530193 J-0.008947
G02 X34.451192 Y46.555030 Z-1.000000 I100.233921 J-26.232592
G01 X25.184509 Y46.555030 Z-1.000000
G02 X21.212400 Y33.598519 Z-1.000000 I-41954.628891 J12855.033331
G02 X20.332609 Y30.744113 Z-1.000000 I-1055.306158 J323.706056
G00 Z5.000000

(End cutting path id: path4680)


(Start cutting path id: path4680)
(Change tool to Cylindrical cutter)

G00 Z5.000000
G00 X20.332609 Y30.744113

G01 Z-1.000000 F100.0(Penetrate)
G01 X19.602421 Y28.388183 Z-1.000000 F400.000000
G00 Z5.000000

(End cutting path id: path4680)


(Footer)
M5
G00 X0.0000 Y0.0000
M2
(Using default footer. To add your own footer create file "footer" in the output dir.)
(end)
%