%
(Header)
(Generated by gcodetools from Inkscape.)
(Using default header. To add your own header create file "header" in the output dir.)
M3
(Header end.)
G21 (All units in mm)

(Start cutting path id: rect43328)
(Change tool to Cylindrical cutter)

G00 Z0.000000
G00 X10.078454 Y9.921960

G01 Z-0.400000 F100.0(Penetrate)
G01 X22.634794 Y9.921960 Z-0.400000 F300.000000
G02 X21.750697 Y10.725578 Z-0.400000 I1.322402 J2.342962
G03 X21.101037 Y11.530653 Z-0.400000 I-6.080323 J-4.241885
G02 X20.488249 Y12.517324 Z-0.400000 I4.101595 J3.230988
G02 X20.141406 Y13.597182 Z-0.400000 I3.846163 J1.830994
G02 X19.939658 Y14.827305 Z-0.400000 I5.334638 J1.506521
G02 X19.988444 Y15.998593 Z-0.400000 I6.406306 J0.319827
G02 X20.795221 Y18.137116 Z-0.400000 I5.018907 J-0.671985
G02 X22.717993 Y20.089289 Z-0.400000 I6.052912 J-4.038756
G01 X23.650236 Y20.731645 Z-0.400000
G01 X23.099882 Y21.514520 Z-0.400000
G02 X21.938553 Y25.448849 Z-0.400000 I5.248534 J3.687818
G02 X23.499857 Y31.917011 Z-0.400000 I16.865934 J-0.648632
G02 X27.307231 Y37.768478 Z-0.400000 I22.429044 J-10.429499
G02 X31.965489 Y41.599094 Z-0.400000 I13.891912 J-12.145728
G03 X33.788351 Y43.196687 Z-0.400000 I-3.120939 J5.399748
G03 X34.504870 Y44.901226 Z-0.400000 I-2.875889 J2.211775
G02 X34.692970 Y45.897144 Z-0.400000 I10.811045 J-1.526171
G02 X34.872805 Y46.451499 Z-0.400000 I3.521853 J-0.836155
G02 X35.152875 Y46.961316 Z-0.400000 I2.489926 J-1.036014
G02 X36.624638 Y48.956257 Z-0.400000 I40.290381 J-28.183769
G03 X39.741181 Y53.515411 Z-0.400000 I-35.653785 J27.716959
G03 X42.602568 Y58.964438 Z-0.400000 I-48.148867 J28.759676
G03 X46.325574 Y69.501533 Z-0.400000 I-57.164775 J26.123935
G03 X48.394461 Y81.588377 Z-0.400000 I-73.333684 J18.772903
G03 X48.569558 Y83.942671 Z-0.400000 I-82.777240 J7.340084
G03 X49.053337 Y92.555673 Z-0.400000 I-1097.634047 J65.972504
G03 X49.299601 Y105.155291 Z-0.400000 I-192.822907 J10.071016
G03 X48.842495 Y108.675095 Z-0.400000 I-15.325720 J-0.200719
G03 X48.382292 Y109.454366 Z-0.400000 I-1.543826 J-0.386193
G03 X47.203320 Y110.199545 Z-0.400000 I-2.576424 J-2.771012
G02 X45.227281 Y111.293110 Z-0.400000 I3.282414 J8.263325
G02 X44.215388 Y112.390110 Z-0.400000 I2.301742 J3.138364
G02 X43.913405 Y113.017467 Z-0.400000 I2.877917 J1.771666
G02 X43.692423 Y113.842752 Z-0.400000 I4.801992 J1.728030
G03 X43.016303 Y114.989450 Z-0.400000 I-1.885020 J-0.338775
G03 X41.482740 Y115.641072 Z-0.400000 I-1.894235 J-2.327600
G02 X39.779483 Y116.226771 Z-0.400000 I0.516400 J4.271180
G02 X38.619863 Y117.365017 Z-0.400000 I1.807682 J3.001445
G02 X38.339318 Y118.222580 Z-0.400000 I1.579642 J0.991440
G02 X38.483439 Y119.260492 Z-0.400000 I2.508996 J0.180571
G02 X39.365937 Y120.530607 Z-0.400000 I2.832676 J-1.026548
G02 X40.750484 Y121.185442 Z-0.400000 I1.912209 J-2.251950
G03 X41.540017 Y121.743462 Z-0.400000 I-0.205102 J1.127754
G03 X42.506966 Y124.252439 Z-0.400000 I-7.688021 J4.403746
G02 X42.871959 Y125.668011 Z-0.400000 I19.373738 J-4.240510
G02 X43.059902 Y126.110211 Z-0.400000 I2.047879 J-0.609350
G02 X43.560890 Y126.618196 Z-0.400000 I1.190101 J-0.672672
G02 X46.108297 Y127.889957 Z-0.400000 I10.999517 J-18.845454
G03 X47.433548 Y128.492158 Z-0.400000 I-9.481697 J22.625501
G03 X47.636884 Y128.646480 Z-0.400000 I-0.293113 J0.597330
G03 X47.932463 Y129.307454 Z-0.400000 I-0.820409 J0.763453
G03 X47.858060 Y131.051516 Z-0.400000 I-6.495856 J0.596499
G03 X47.390404 Y131.962453 Z-0.400000 I-1.719748 J-0.307373
G03 X46.326371 Y132.625575 Z-0.400000 I-1.876661 J-1.826029
G02 X44.917352 Y133.774078 Z-0.400000 I0.784443 J2.400945
G02 X44.867544 Y135.179942 Z-0.400000 I1.314167 J0.750374
G02 X45.327471 Y135.769608 Z-0.400000 I1.581979 J-0.759711
G02 X46.285030 Y136.358687 Z-0.400000 I2.536660 J-3.050584
G03 X47.236571 Y137.093272 Z-0.400000 I-0.980137 J2.253195
G03 X47.398140 Y137.775663 Z-0.400000 I-0.655859 J0.515611
G03 X47.237612 Y138.179559 Z-0.400000 I-1.210544 J-0.247283
G03 X45.638558 Y140.613214 Z-0.400000 I-47.216434 J-29.281794
G02 X42.597194 Y145.304484 Z-0.400000 I71.014583 J49.370455
G02 X41.057959 Y148.205512 Z-0.400000 I25.556957 J15.418937
G02 X39.827966 Y151.372789 Z-0.400000 I24.759517 J11.437677
G02 X39.399146 Y153.418094 Z-0.400000 I9.834248 J3.129461
G02 X40.263157 Y159.409325 Z-0.400000 I12.240567 J1.292673
G02 X46.376497 Y170.312163 Z-0.400000 I48.510280 J-20.034917
G03 X52.059594 Y178.740789 Z-0.400000 I-110.543763 J80.665655
G03 X54.382728 Y183.194064 Z-0.400000 I-28.368744 J17.631671
G03 X56.001738 Y187.323399 Z-0.400000 I-63.855438 J27.418201
G03 X56.142826 Y188.141053 Z-0.400000 I-2.298755 J0.817653
G03 X56.098072 Y188.273483 Z-0.400000 I-0.218315 J-0.000000
G03 X55.194046 Y189.382835 Z-0.400000 I-17.786026 J-13.571059
G02 X53.936411 Y191.104097 Z-0.400000 I9.527804 J8.281537
G02 X53.431363 Y192.281885 Z-0.400000 I3.885257 J2.363219
G02 X53.315930 Y194.106488 Z-0.400000 I4.427532 J1.196059
G02 X54.001870 Y196.404112 Z-0.400000 I7.810837 J-1.080671
G02 X55.746211 Y198.509656 Z-0.400000 I5.010605 J-2.375719
G02 X58.659984 Y199.799772 Z-0.400000 I4.439093 J-6.090365
G02 X59.249328 Y199.889241 Z-0.400000 I1.218106 J-6.038036
G02 X59.859393 Y199.921210 Z-0.400000 I0.625102 J-6.091839
G01 X59.859393 Y199.921739 Z-0.400000
G01 X59.859393 Y205.018585 Z-0.400000
G01 X10.078454 Y205.018575 Z-0.400000
G01 X10.078454 Y9.921960 Z-0.400000


(End cutting path id: rect43328)


(Start cutting path id: rect43328)
(Change tool to Cylindrical cutter)


G00 X10.078454 Y9.921960

G01 Z-0.800000 F100.0(Penetrate)
G01 X22.634794 Y9.921960 Z-0.800000 F300.000000
G02 X21.750697 Y10.725578 Z-0.800000 I1.322402 J2.342962
G03 X21.101037 Y11.530653 Z-0.800000 I-6.080323 J-4.241885
G02 X20.488249 Y12.517324 Z-0.800000 I4.101595 J3.230988
G02 X20.141406 Y13.597182 Z-0.800000 I3.846163 J1.830994
G02 X19.939658 Y14.827305 Z-0.800000 I5.334638 J1.506521
G02 X19.988444 Y15.998593 Z-0.800000 I6.406306 J0.319827
G02 X20.795221 Y18.137116 Z-0.800000 I5.018907 J-0.671985
G02 X22.717993 Y20.089289 Z-0.800000 I6.052912 J-4.038756
G01 X23.650236 Y20.731645 Z-0.800000
G01 X23.099882 Y21.514520 Z-0.800000
G02 X21.938553 Y25.448849 Z-0.800000 I5.248534 J3.687818
G02 X23.499857 Y31.917011 Z-0.800000 I16.865934 J-0.648632
G02 X27.307231 Y37.768478 Z-0.800000 I22.429044 J-10.429499
G02 X31.965489 Y41.599094 Z-0.800000 I13.891912 J-12.145728
G03 X33.788351 Y43.196687 Z-0.800000 I-3.120939 J5.399748
G03 X34.504870 Y44.901226 Z-0.800000 I-2.875889 J2.211775
G02 X34.692970 Y45.897144 Z-0.800000 I10.811045 J-1.526171
G02 X34.872805 Y46.451499 Z-0.800000 I3.521853 J-0.836155
G02 X35.152875 Y46.961316 Z-0.800000 I2.489926 J-1.036014
G02 X36.624638 Y48.956257 Z-0.800000 I40.290381 J-28.183769
G03 X39.741181 Y53.515411 Z-0.800000 I-35.653785 J27.716959
G03 X42.602568 Y58.964438 Z-0.800000 I-48.148867 J28.759676
G03 X46.325574 Y69.501533 Z-0.800000 I-57.164775 J26.123935
G03 X48.394461 Y81.588377 Z-0.800000 I-73.333684 J18.772903
G03 X48.569558 Y83.942671 Z-0.800000 I-82.777240 J7.340084
G03 X49.053337 Y92.555673 Z-0.800000 I-1097.634047 J65.972504
G03 X49.299601 Y105.155291 Z-0.800000 I-192.822907 J10.071016
G03 X48.842495 Y108.675095 Z-0.800000 I-15.325720 J-0.200719
G03 X48.382292 Y109.454366 Z-0.800000 I-1.543826 J-0.386193
G03 X47.203320 Y110.199545 Z-0.800000 I-2.576424 J-2.771012
G02 X45.227281 Y111.293110 Z-0.800000 I3.282414 J8.263325
G02 X44.215388 Y112.390110 Z-0.800000 I2.301742 J3.138364
G02 X43.913405 Y113.017467 Z-0.800000 I2.877917 J1.771666
G02 X43.692423 Y113.842752 Z-0.800000 I4.801992 J1.728030
G03 X43.016303 Y114.989450 Z-0.800000 I-1.885020 J-0.338775
G03 X41.482740 Y115.641072 Z-0.800000 I-1.894235 J-2.327600
G02 X39.779483 Y116.226771 Z-0.800000 I0.516400 J4.271180
G02 X38.619863 Y117.365017 Z-0.800000 I1.807682 J3.001445
G02 X38.339318 Y118.222580 Z-0.800000 I1.579642 J0.991440
G02 X38.483439 Y119.260492 Z-0.800000 I2.508996 J0.180571
G02 X39.365937 Y120.530607 Z-0.800000 I2.832676 J-1.026548
G02 X40.750484 Y121.185442 Z-0.800000 I1.912209 J-2.251950
G03 X41.540017 Y121.743462 Z-0.800000 I-0.205102 J1.127754
G03 X42.506966 Y124.252439 Z-0.800000 I-7.688021 J4.403746
G02 X42.871959 Y125.668011 Z-0.800000 I19.373738 J-4.240510
G02 X43.059902 Y126.110211 Z-0.800000 I2.047879 J-0.609350
G02 X43.560890 Y126.618196 Z-0.800000 I1.190101 J-0.672672
G02 X46.108297 Y127.889957 Z-0.800000 I10.999517 J-18.845454
G03 X47.433548 Y128.492158 Z-0.800000 I-9.481697 J22.625501
G03 X47.636884 Y128.646480 Z-0.800000 I-0.293113 J0.597330
G03 X47.932463 Y129.307454 Z-0.800000 I-0.820409 J0.763453
G03 X47.858060 Y131.051516 Z-0.800000 I-6.495856 J0.596499
G03 X47.390404 Y131.962453 Z-0.800000 I-1.719748 J-0.307373
G03 X46.326371 Y132.625575 Z-0.800000 I-1.876661 J-1.826029
G02 X44.917352 Y133.774078 Z-0.800000 I0.784443 J2.400945
G02 X44.867544 Y135.179942 Z-0.800000 I1.314167 J0.750374
G02 X45.327471 Y135.769608 Z-0.800000 I1.581979 J-0.759711
G02 X46.285030 Y136.358687 Z-0.800000 I2.536660 J-3.050584
G03 X47.236571 Y137.093272 Z-0.800000 I-0.980137 J2.253195
G03 X47.398140 Y137.775663 Z-0.800000 I-0.655859 J0.515611
G03 X47.237612 Y138.179559 Z-0.800000 I-1.210544 J-0.247283
G03 X45.638558 Y140.613214 Z-0.800000 I-47.216434 J-29.281794
G02 X42.597194 Y145.304484 Z-0.800000 I71.014583 J49.370455
G02 X41.057959 Y148.205512 Z-0.800000 I25.556957 J15.418937
G02 X39.827966 Y151.372789 Z-0.800000 I24.759517 J11.437677
G02 X39.399146 Y153.418094 Z-0.800000 I9.834248 J3.129461
G02 X40.263157 Y159.409325 Z-0.800000 I12.240567 J1.292673
G02 X46.376497 Y170.312163 Z-0.800000 I48.510280 J-20.034917
G03 X52.059594 Y178.740789 Z-0.800000 I-110.543763 J80.665655
G03 X54.382728 Y183.194064 Z-0.800000 I-28.368744 J17.631671
G03 X56.001738 Y187.323399 Z-0.800000 I-63.855438 J27.418201
G03 X56.142826 Y188.141053 Z-0.800000 I-2.298755 J0.817653
G03 X56.098072 Y188.273483 Z-0.800000 I-0.218315 J-0.000000
G03 X55.194046 Y189.382835 Z-0.800000 I-17.786026 J-13.571059
G02 X53.936411 Y191.104097 Z-0.800000 I9.527804 J8.281537
G02 X53.431363 Y192.281885 Z-0.800000 I3.885257 J2.363219
G02 X53.315930 Y194.106488 Z-0.800000 I4.427532 J1.196059
G02 X54.001870 Y196.404112 Z-0.800000 I7.810837 J-1.080671
G02 X55.746211 Y198.509656 Z-0.800000 I5.010605 J-2.375719
G02 X58.659984 Y199.799772 Z-0.800000 I4.439093 J-6.090365
G02 X59.249328 Y199.889241 Z-0.800000 I1.218106 J-6.038036
G02 X59.859393 Y199.921210 Z-0.800000 I0.625102 J-6.091839
G01 X59.859393 Y199.921739 Z-0.800000
G01 X59.859393 Y205.018585 Z-0.800000
G01 X10.078454 Y205.018575 Z-0.800000
G01 X10.078454 Y9.921960 Z-0.800000


(End cutting path id: rect43328)


(Start cutting path id: rect43328)
(Change tool to Cylindrical cutter)


G00 X10.078454 Y9.921960

G01 Z-1.200000 F100.0(Penetrate)
G01 X22.634794 Y9.921960 Z-1.200000 F300.000000
G02 X21.750697 Y10.725578 Z-1.200000 I1.322402 J2.342962
G03 X21.101037 Y11.530653 Z-1.200000 I-6.080323 J-4.241885
G02 X20.488249 Y12.517324 Z-1.200000 I4.101595 J3.230988
G02 X20.141406 Y13.597182 Z-1.200000 I3.846163 J1.830994
G02 X19.939658 Y14.827305 Z-1.200000 I5.334638 J1.506521
G02 X19.988444 Y15.998593 Z-1.200000 I6.406306 J0.319827
G02 X20.795221 Y18.137116 Z-1.200000 I5.018907 J-0.671985
G02 X22.717993 Y20.089289 Z-1.200000 I6.052912 J-4.038756
G01 X23.650236 Y20.731645 Z-1.200000
G01 X23.099882 Y21.514520 Z-1.200000
G02 X21.938553 Y25.448849 Z-1.200000 I5.248534 J3.687818
G02 X23.499857 Y31.917011 Z-1.200000 I16.865934 J-0.648632
G02 X27.307231 Y37.768478 Z-1.200000 I22.429044 J-10.429499
G02 X31.965489 Y41.599094 Z-1.200000 I13.891912 J-12.145728
G03 X33.788351 Y43.196687 Z-1.200000 I-3.120939 J5.399748
G03 X34.504870 Y44.901226 Z-1.200000 I-2.875889 J2.211775
G02 X34.692970 Y45.897144 Z-1.200000 I10.811045 J-1.526171
G02 X34.872805 Y46.451499 Z-1.200000 I3.521853 J-0.836155
G02 X35.152875 Y46.961316 Z-1.200000 I2.489926 J-1.036014
G02 X36.624638 Y48.956257 Z-1.200000 I40.290381 J-28.183769
G03 X39.741181 Y53.515411 Z-1.200000 I-35.653785 J27.716959
G03 X42.602568 Y58.964438 Z-1.200000 I-48.148867 J28.759676
G03 X46.325574 Y69.501533 Z-1.200000 I-57.164775 J26.123935
G03 X48.394461 Y81.588377 Z-1.200000 I-73.333684 J18.772903
G03 X48.569558 Y83.942671 Z-1.200000 I-82.777240 J7.340084
G03 X49.053337 Y92.555673 Z-1.200000 I-1097.634047 J65.972504
G03 X49.299601 Y105.155291 Z-1.200000 I-192.822907 J10.071016
G03 X48.842495 Y108.675095 Z-1.200000 I-15.325720 J-0.200719
G03 X48.382292 Y109.454366 Z-1.200000 I-1.543826 J-0.386193
G03 X47.203320 Y110.199545 Z-1.200000 I-2.576424 J-2.771012
G02 X45.227281 Y111.293110 Z-1.200000 I3.282414 J8.263325
G02 X44.215388 Y112.390110 Z-1.200000 I2.301742 J3.138364
G02 X43.913405 Y113.017467 Z-1.200000 I2.877917 J1.771666
G02 X43.692423 Y113.842752 Z-1.200000 I4.801992 J1.728030
G03 X43.016303 Y114.989450 Z-1.200000 I-1.885020 J-0.338775
G03 X41.482740 Y115.641072 Z-1.200000 I-1.894235 J-2.327600
G02 X39.779483 Y116.226771 Z-1.200000 I0.516400 J4.271180
G02 X38.619863 Y117.365017 Z-1.200000 I1.807682 J3.001445
G02 X38.339318 Y118.222580 Z-1.200000 I1.579642 J0.991440
G02 X38.483439 Y119.260492 Z-1.200000 I2.508996 J0.180571
G02 X39.365937 Y120.530607 Z-1.200000 I2.832676 J-1.026548
G02 X40.750484 Y121.185442 Z-1.200000 I1.912209 J-2.251950
G03 X41.540017 Y121.743462 Z-1.200000 I-0.205102 J1.127754
G03 X42.506966 Y124.252439 Z-1.200000 I-7.688021 J4.403746
G02 X42.871959 Y125.668011 Z-1.200000 I19.373738 J-4.240510
G02 X43.059902 Y126.110211 Z-1.200000 I2.047879 J-0.609350
G02 X43.560890 Y126.618196 Z-1.200000 I1.190101 J-0.672672
G02 X46.108297 Y127.889957 Z-1.200000 I10.999517 J-18.845454
G03 X47.433548 Y128.492158 Z-1.200000 I-9.481697 J22.625501
G03 X47.636884 Y128.646480 Z-1.200000 I-0.293113 J0.597330
G03 X47.932463 Y129.307454 Z-1.200000 I-0.820409 J0.763453
G03 X47.858060 Y131.051516 Z-1.200000 I-6.495856 J0.596499
G03 X47.390404 Y131.962453 Z-1.200000 I-1.719748 J-0.307373
G03 X46.326371 Y132.625575 Z-1.200000 I-1.876661 J-1.826029
G02 X44.917352 Y133.774078 Z-1.200000 I0.784443 J2.400945
G02 X44.867544 Y135.179942 Z-1.200000 I1.314167 J0.750374
G02 X45.327471 Y135.769608 Z-1.200000 I1.581979 J-0.759711
G02 X46.285030 Y136.358687 Z-1.200000 I2.536660 J-3.050584
G03 X47.236571 Y137.093272 Z-1.200000 I-0.980137 J2.253195
G03 X47.398140 Y137.775663 Z-1.200000 I-0.655859 J0.515611
G03 X47.237612 Y138.179559 Z-1.200000 I-1.210544 J-0.247283
G03 X45.638558 Y140.613214 Z-1.200000 I-47.216434 J-29.281794
G02 X42.597194 Y145.304484 Z-1.200000 I71.014583 J49.370455
G02 X41.057959 Y148.205512 Z-1.200000 I25.556957 J15.418937
G02 X39.827966 Y151.372789 Z-1.200000 I24.759517 J11.437677
G02 X39.399146 Y153.418094 Z-1.200000 I9.834248 J3.129461
G02 X40.263157 Y159.409325 Z-1.200000 I12.240567 J1.292673
G02 X46.376497 Y170.312163 Z-1.200000 I48.510280 J-20.034917
G03 X52.059594 Y178.740789 Z-1.200000 I-110.543763 J80.665655
G03 X54.382728 Y183.194064 Z-1.200000 I-28.368744 J17.631671
G03 X56.001738 Y187.323399 Z-1.200000 I-63.855438 J27.418201
G03 X56.142826 Y188.141053 Z-1.200000 I-2.298755 J0.817653
G03 X56.098072 Y188.273483 Z-1.200000 I-0.218315 J-0.000000
G03 X55.194046 Y189.382835 Z-1.200000 I-17.786026 J-13.571059
G02 X53.936411 Y191.104097 Z-1.200000 I9.527804 J8.281537
G02 X53.431363 Y192.281885 Z-1.200000 I3.885257 J2.363219
G02 X53.315930 Y194.106488 Z-1.200000 I4.427532 J1.196059
G02 X54.001870 Y196.404112 Z-1.200000 I7.810837 J-1.080671
G02 X55.746211 Y198.509656 Z-1.200000 I5.010605 J-2.375719
G02 X58.659984 Y199.799772 Z-1.200000 I4.439093 J-6.090365
G02 X59.249328 Y199.889241 Z-1.200000 I1.218106 J-6.038036
G02 X59.859393 Y199.921210 Z-1.200000 I0.625102 J-6.091839
G01 X59.859393 Y199.921739 Z-1.200000
G01 X59.859393 Y205.018585 Z-1.200000
G01 X10.078454 Y205.018575 Z-1.200000
G01 X10.078454 Y9.921960 Z-1.200000


(End cutting path id: rect43328)


(Start cutting path id: rect43328)
(Change tool to Cylindrical cutter)


G00 X10.078454 Y9.921960

G01 Z-1.600000 F100.0(Penetrate)
G01 X22.634794 Y9.921960 Z-1.600000 F300.000000
G02 X21.750697 Y10.725578 Z-1.600000 I1.322402 J2.342962
G03 X21.101037 Y11.530653 Z-1.600000 I-6.080323 J-4.241885
G02 X20.488249 Y12.517324 Z-1.600000 I4.101595 J3.230988
G02 X20.141406 Y13.597182 Z-1.600000 I3.846163 J1.830994
G02 X19.939658 Y14.827305 Z-1.600000 I5.334638 J1.506521
G02 X19.988444 Y15.998593 Z-1.600000 I6.406306 J0.319827
G02 X20.795221 Y18.137116 Z-1.600000 I5.018907 J-0.671985
G02 X22.717993 Y20.089289 Z-1.600000 I6.052912 J-4.038756
G01 X23.650236 Y20.731645 Z-1.600000
G01 X23.099882 Y21.514520 Z-1.600000
G02 X21.938553 Y25.448849 Z-1.600000 I5.248534 J3.687818
G02 X23.499857 Y31.917011 Z-1.600000 I16.865934 J-0.648632
G02 X27.307231 Y37.768478 Z-1.600000 I22.429044 J-10.429499
G02 X31.965489 Y41.599094 Z-1.600000 I13.891912 J-12.145728
G03 X33.788351 Y43.196687 Z-1.600000 I-3.120939 J5.399748
G03 X34.504870 Y44.901226 Z-1.600000 I-2.875889 J2.211775
G02 X34.692970 Y45.897144 Z-1.600000 I10.811045 J-1.526171
G02 X34.872805 Y46.451499 Z-1.600000 I3.521853 J-0.836155
G02 X35.152875 Y46.961316 Z-1.600000 I2.489926 J-1.036014
G02 X36.624638 Y48.956257 Z-1.600000 I40.290381 J-28.183769
G03 X39.741181 Y53.515411 Z-1.600000 I-35.653785 J27.716959
G03 X42.602568 Y58.964438 Z-1.600000 I-48.148867 J28.759676
G03 X46.325574 Y69.501533 Z-1.600000 I-57.164775 J26.123935
G03 X48.394461 Y81.588377 Z-1.600000 I-73.333684 J18.772903
G03 X48.569558 Y83.942671 Z-1.600000 I-82.777240 J7.340084
G03 X49.053337 Y92.555673 Z-1.600000 I-1097.634047 J65.972504
G03 X49.299601 Y105.155291 Z-1.600000 I-192.822907 J10.071016
G03 X48.842495 Y108.675095 Z-1.600000 I-15.325720 J-0.200719
G03 X48.382292 Y109.454366 Z-1.600000 I-1.543826 J-0.386193
G03 X47.203320 Y110.199545 Z-1.600000 I-2.576424 J-2.771012
G02 X45.227281 Y111.293110 Z-1.600000 I3.282414 J8.263325
G02 X44.215388 Y112.390110 Z-1.600000 I2.301742 J3.138364
G02 X43.913405 Y113.017467 Z-1.600000 I2.877917 J1.771666
G02 X43.692423 Y113.842752 Z-1.600000 I4.801992 J1.728030
G03 X43.016303 Y114.989450 Z-1.600000 I-1.885020 J-0.338775
G03 X41.482740 Y115.641072 Z-1.600000 I-1.894235 J-2.327600
G02 X39.779483 Y116.226771 Z-1.600000 I0.516400 J4.271180
G02 X38.619863 Y117.365017 Z-1.600000 I1.807682 J3.001445
G02 X38.339318 Y118.222580 Z-1.600000 I1.579642 J0.991440
G02 X38.483439 Y119.260492 Z-1.600000 I2.508996 J0.180571
G02 X39.365937 Y120.530607 Z-1.600000 I2.832676 J-1.026548
G02 X40.750484 Y121.185442 Z-1.600000 I1.912209 J-2.251950
G03 X41.540017 Y121.743462 Z-1.600000 I-0.205102 J1.127754
G03 X42.506966 Y124.252439 Z-1.600000 I-7.688021 J4.403746
G02 X42.871959 Y125.668011 Z-1.600000 I19.373738 J-4.240510
G02 X43.059902 Y126.110211 Z-1.600000 I2.047879 J-0.609350
G02 X43.560890 Y126.618196 Z-1.600000 I1.190101 J-0.672672
G02 X46.108297 Y127.889957 Z-1.600000 I10.999517 J-18.845454
G03 X47.433548 Y128.492158 Z-1.600000 I-9.481697 J22.625501
G03 X47.636884 Y128.646480 Z-1.600000 I-0.293113 J0.597330
G03 X47.932463 Y129.307454 Z-1.600000 I-0.820409 J0.763453
G03 X47.858060 Y131.051516 Z-1.600000 I-6.495856 J0.596499
G03 X47.390404 Y131.962453 Z-1.600000 I-1.719748 J-0.307373
G03 X46.326371 Y132.625575 Z-1.600000 I-1.876661 J-1.826029
G02 X44.917352 Y133.774078 Z-1.600000 I0.784443 J2.400945
G02 X44.867544 Y135.179942 Z-1.600000 I1.314167 J0.750374
G02 X45.327471 Y135.769608 Z-1.600000 I1.581979 J-0.759711
G02 X46.285030 Y136.358687 Z-1.600000 I2.536660 J-3.050584
G03 X47.236571 Y137.093272 Z-1.600000 I-0.980137 J2.253195
G03 X47.398140 Y137.775663 Z-1.600000 I-0.655859 J0.515611
G03 X47.237612 Y138.179559 Z-1.600000 I-1.210544 J-0.247283
G03 X45.638558 Y140.613214 Z-1.600000 I-47.216434 J-29.281794
G02 X42.597194 Y145.304484 Z-1.600000 I71.014583 J49.370455
G02 X41.057959 Y148.205512 Z-1.600000 I25.556957 J15.418937
G02 X39.827966 Y151.372789 Z-1.600000 I24.759517 J11.437677
G02 X39.399146 Y153.418094 Z-1.600000 I9.834248 J3.129461
G02 X40.263157 Y159.409325 Z-1.600000 I12.240567 J1.292673
G02 X46.376497 Y170.312163 Z-1.600000 I48.510280 J-20.034917
G03 X52.059594 Y178.740789 Z-1.600000 I-110.543763 J80.665655
G03 X54.382728 Y183.194064 Z-1.600000 I-28.368744 J17.631671
G03 X56.001738 Y187.323399 Z-1.600000 I-63.855438 J27.418201
G03 X56.142826 Y188.141053 Z-1.600000 I-2.298755 J0.817653
G03 X56.098072 Y188.273483 Z-1.600000 I-0.218315 J-0.000000
G03 X55.194046 Y189.382835 Z-1.600000 I-17.786026 J-13.571059
G02 X53.936411 Y191.104097 Z-1.600000 I9.527804 J8.281537
G02 X53.431363 Y192.281885 Z-1.600000 I3.885257 J2.363219
G02 X53.315930 Y194.106488 Z-1.600000 I4.427532 J1.196059
G02 X54.001870 Y196.404112 Z-1.600000 I7.810837 J-1.080671
G02 X55.746211 Y198.509656 Z-1.600000 I5.010605 J-2.375719
G02 X58.659984 Y199.799772 Z-1.600000 I4.439093 J-6.090365
G02 X59.249328 Y199.889241 Z-1.600000 I1.218106 J-6.038036
G02 X59.859393 Y199.921210 Z-1.600000 I0.625102 J-6.091839
G01 X59.859393 Y199.921739 Z-1.600000
G01 X59.859393 Y205.018585 Z-1.600000
G01 X10.078454 Y205.018575 Z-1.600000
G01 X10.078454 Y9.921960 Z-1.600000


(End cutting path id: rect43328)


(Start cutting path id: rect43328)
(Change tool to Cylindrical cutter)


G00 X10.078454 Y9.921960

G01 Z-2.000000 F100.0(Penetrate)
G01 X22.634794 Y9.921960 Z-2.000000 F300.000000
G02 X21.750697 Y10.725578 Z-2.000000 I1.322402 J2.342962
G03 X21.101037 Y11.530653 Z-2.000000 I-6.080323 J-4.241885
G02 X20.488249 Y12.517324 Z-2.000000 I4.101595 J3.230988
G02 X20.141406 Y13.597182 Z-2.000000 I3.846163 J1.830994
G02 X19.939658 Y14.827305 Z-2.000000 I5.334638 J1.506521
G02 X19.988444 Y15.998593 Z-2.000000 I6.406306 J0.319827
G02 X20.795221 Y18.137116 Z-2.000000 I5.018907 J-0.671985
G02 X22.717993 Y20.089289 Z-2.000000 I6.052912 J-4.038756
G01 X23.650236 Y20.731645 Z-2.000000
G01 X23.099882 Y21.514520 Z-2.000000
G02 X21.938553 Y25.448849 Z-2.000000 I5.248534 J3.687818
G02 X23.499857 Y31.917011 Z-2.000000 I16.865934 J-0.648632
G02 X27.307231 Y37.768478 Z-2.000000 I22.429044 J-10.429499
G02 X31.965489 Y41.599094 Z-2.000000 I13.891912 J-12.145728
G03 X33.788351 Y43.196687 Z-2.000000 I-3.120939 J5.399748
G03 X34.504870 Y44.901226 Z-2.000000 I-2.875889 J2.211775
G02 X34.692970 Y45.897144 Z-2.000000 I10.811045 J-1.526171
G02 X34.872805 Y46.451499 Z-2.000000 I3.521853 J-0.836155
G02 X35.152875 Y46.961316 Z-2.000000 I2.489926 J-1.036014
G02 X36.624638 Y48.956257 Z-2.000000 I40.290381 J-28.183769
G03 X39.741181 Y53.515411 Z-2.000000 I-35.653785 J27.716959
G03 X42.602568 Y58.964438 Z-2.000000 I-48.148867 J28.759676
G03 X46.325574 Y69.501533 Z-2.000000 I-57.164775 J26.123935
G03 X48.394461 Y81.588377 Z-2.000000 I-73.333684 J18.772903
G03 X48.569558 Y83.942671 Z-2.000000 I-82.777240 J7.340084
G03 X49.053337 Y92.555673 Z-2.000000 I-1097.634047 J65.972504
G03 X49.299601 Y105.155291 Z-2.000000 I-192.822907 J10.071016
G03 X48.842495 Y108.675095 Z-2.000000 I-15.325720 J-0.200719
G03 X48.382292 Y109.454366 Z-2.000000 I-1.543826 J-0.386193
G03 X47.203320 Y110.199545 Z-2.000000 I-2.576424 J-2.771012
G02 X45.227281 Y111.293110 Z-2.000000 I3.282414 J8.263325
G02 X44.215388 Y112.390110 Z-2.000000 I2.301742 J3.138364
G02 X43.913405 Y113.017467 Z-2.000000 I2.877917 J1.771666
G02 X43.692423 Y113.842752 Z-2.000000 I4.801992 J1.728030
G03 X43.016303 Y114.989450 Z-2.000000 I-1.885020 J-0.338775
G03 X41.482740 Y115.641072 Z-2.000000 I-1.894235 J-2.327600
G02 X39.779483 Y116.226771 Z-2.000000 I0.516400 J4.271180
G02 X38.619863 Y117.365017 Z-2.000000 I1.807682 J3.001445
G02 X38.339318 Y118.222580 Z-2.000000 I1.579642 J0.991440
G02 X38.483439 Y119.260492 Z-2.000000 I2.508996 J0.180571
G02 X39.365937 Y120.530607 Z-2.000000 I2.832676 J-1.026548
G02 X40.750484 Y121.185442 Z-2.000000 I1.912209 J-2.251950
G03 X41.540017 Y121.743462 Z-2.000000 I-0.205102 J1.127754
G03 X42.506966 Y124.252439 Z-2.000000 I-7.688021 J4.403746
G02 X42.871959 Y125.668011 Z-2.000000 I19.373738 J-4.240510
G02 X43.059902 Y126.110211 Z-2.000000 I2.047879 J-0.609350
G02 X43.560890 Y126.618196 Z-2.000000 I1.190101 J-0.672672
G02 X46.108297 Y127.889957 Z-2.000000 I10.999517 J-18.845454
G03 X47.433548 Y128.492158 Z-2.000000 I-9.481697 J22.625501
G03 X47.636884 Y128.646480 Z-2.000000 I-0.293113 J0.597330
G03 X47.932463 Y129.307454 Z-2.000000 I-0.820409 J0.763453
G03 X47.858060 Y131.051516 Z-2.000000 I-6.495856 J0.596499
G03 X47.390404 Y131.962453 Z-2.000000 I-1.719748 J-0.307373
G03 X46.326371 Y132.625575 Z-2.000000 I-1.876661 J-1.826029
G02 X44.917352 Y133.774078 Z-2.000000 I0.784443 J2.400945
G02 X44.867544 Y135.179942 Z-2.000000 I1.314167 J0.750374
G02 X45.327471 Y135.769608 Z-2.000000 I1.581979 J-0.759711
G02 X46.285030 Y136.358687 Z-2.000000 I2.536660 J-3.050584
G03 X47.236571 Y137.093272 Z-2.000000 I-0.980137 J2.253195
G03 X47.398140 Y137.775663 Z-2.000000 I-0.655859 J0.515611
G03 X47.237612 Y138.179559 Z-2.000000 I-1.210544 J-0.247283
G03 X45.638558 Y140.613214 Z-2.000000 I-47.216434 J-29.281794
G02 X42.597194 Y145.304484 Z-2.000000 I71.014583 J49.370455
G02 X41.057959 Y148.205512 Z-2.000000 I25.556957 J15.418937
G02 X39.827966 Y151.372789 Z-2.000000 I24.759517 J11.437677
G02 X39.399146 Y153.418094 Z-2.000000 I9.834248 J3.129461
G02 X40.263157 Y159.409325 Z-2.000000 I12.240567 J1.292673
G02 X46.376497 Y170.312163 Z-2.000000 I48.510280 J-20.034917
G03 X52.059594 Y178.740789 Z-2.000000 I-110.543763 J80.665655
G03 X54.382728 Y183.194064 Z-2.000000 I-28.368744 J17.631671
G03 X56.001738 Y187.323399 Z-2.000000 I-63.855438 J27.418201
G03 X56.142826 Y188.141053 Z-2.000000 I-2.298755 J0.817653
G03 X56.098072 Y188.273483 Z-2.000000 I-0.218315 J-0.000000
G03 X55.194046 Y189.382835 Z-2.000000 I-17.786026 J-13.571059
G02 X53.936411 Y191.104097 Z-2.000000 I9.527804 J8.281537
G02 X53.431363 Y192.281885 Z-2.000000 I3.885257 J2.363219
G02 X53.315930 Y194.106488 Z-2.000000 I4.427532 J1.196059
G02 X54.001870 Y196.404112 Z-2.000000 I7.810837 J-1.080671
G02 X55.746211 Y198.509656 Z-2.000000 I5.010605 J-2.375719
G02 X58.659984 Y199.799772 Z-2.000000 I4.439093 J-6.090365
G02 X59.249328 Y199.889241 Z-2.000000 I1.218106 J-6.038036
G02 X59.859393 Y199.921210 Z-2.000000 I0.625102 J-6.091839
G01 X59.859393 Y199.921739 Z-2.000000
G01 X59.859393 Y205.018585 Z-2.000000
G01 X10.078454 Y205.018575 Z-2.000000
G01 X10.078454 Y9.921960 Z-2.000000

(End cutting path id: rect43328)


(Start cutting path id: rect43328)
(Change tool to Cylindrical cutter)

G00 X10.078454 Y9.921960

G01 Z-2.400000 F100.0(Penetrate)
G01 X22.634794 Y9.921960 Z-2.400000 F300.000000
G02 X21.750697 Y10.725578 Z-2.400000 I1.322402 J2.342962
G03 X21.101037 Y11.530653 Z-2.400000 I-6.080323 J-4.241885
G02 X20.488249 Y12.517324 Z-2.400000 I4.101595 J3.230988
G02 X20.141406 Y13.597182 Z-2.400000 I3.846163 J1.830994
G02 X19.939658 Y14.827305 Z-2.400000 I5.334638 J1.506521
G02 X19.988444 Y15.998593 Z-2.400000 I6.406306 J0.319827
G02 X20.795221 Y18.137116 Z-2.400000 I5.018907 J-0.671985
G02 X22.717993 Y20.089289 Z-2.400000 I6.052912 J-4.038756
G01 X23.650236 Y20.731645 Z-2.400000
G01 X23.099882 Y21.514520 Z-2.400000
G02 X21.938553 Y25.448849 Z-2.400000 I5.248534 J3.687818
G02 X23.499857 Y31.917011 Z-2.400000 I16.865934 J-0.648632
G02 X27.307231 Y37.768478 Z-2.400000 I22.429044 J-10.429499
G02 X31.965489 Y41.599094 Z-2.400000 I13.891912 J-12.145728
G03 X33.788351 Y43.196687 Z-2.400000 I-3.120939 J5.399748
G03 X34.504870 Y44.901226 Z-2.400000 I-2.875889 J2.211775
G02 X34.692970 Y45.897144 Z-2.400000 I10.811045 J-1.526171
G02 X34.872805 Y46.451499 Z-2.400000 I3.521853 J-0.836155
G02 X35.152875 Y46.961316 Z-2.400000 I2.489926 J-1.036014
G02 X36.624638 Y48.956257 Z-2.400000 I40.290381 J-28.183769
G03 X39.741181 Y53.515411 Z-2.400000 I-35.653785 J27.716959
G03 X42.602568 Y58.964438 Z-2.400000 I-48.148867 J28.759676
G03 X46.325574 Y69.501533 Z-2.400000 I-57.164775 J26.123935
G03 X48.394461 Y81.588377 Z-2.400000 I-73.333684 J18.772903
G03 X48.569558 Y83.942671 Z-2.400000 I-82.777240 J7.340084
G03 X49.053337 Y92.555673 Z-2.400000 I-1097.634047 J65.972504
G03 X49.299601 Y105.155291 Z-2.400000 I-192.822907 J10.071016
G03 X48.842495 Y108.675095 Z-2.400000 I-15.325720 J-0.200719
G03 X48.382292 Y109.454366 Z-2.400000 I-1.543826 J-0.386193
G03 X47.203320 Y110.199545 Z-2.400000 I-2.576424 J-2.771012
G02 X45.227281 Y111.293110 Z-2.400000 I3.282414 J8.263325
G02 X44.215388 Y112.390110 Z-2.400000 I2.301742 J3.138364
G02 X43.913405 Y113.017467 Z-2.400000 I2.877917 J1.771666
G02 X43.692423 Y113.842752 Z-2.400000 I4.801992 J1.728030
G03 X43.016303 Y114.989450 Z-2.400000 I-1.885020 J-0.338775
G03 X41.482740 Y115.641072 Z-2.400000 I-1.894235 J-2.327600
G02 X39.779483 Y116.226771 Z-2.400000 I0.516400 J4.271180
G02 X38.619863 Y117.365017 Z-2.400000 I1.807682 J3.001445
G02 X38.339318 Y118.222580 Z-2.400000 I1.579642 J0.991440
G02 X38.483439 Y119.260492 Z-2.400000 I2.508996 J0.180571
G02 X39.365937 Y120.530607 Z-2.400000 I2.832676 J-1.026548
G02 X40.750484 Y121.185442 Z-2.400000 I1.912209 J-2.251950
G03 X41.540017 Y121.743462 Z-2.400000 I-0.205102 J1.127754
G03 X42.506966 Y124.252439 Z-2.400000 I-7.688021 J4.403746
G02 X42.871959 Y125.668011 Z-2.400000 I19.373738 J-4.240510
G02 X43.059902 Y126.110211 Z-2.400000 I2.047879 J-0.609350
G02 X43.560890 Y126.618196 Z-2.400000 I1.190101 J-0.672672
G02 X46.108297 Y127.889957 Z-2.400000 I10.999517 J-18.845454
G03 X47.433548 Y128.492158 Z-2.400000 I-9.481697 J22.625501
G03 X47.636884 Y128.646480 Z-2.400000 I-0.293113 J0.597330
G03 X47.932463 Y129.307454 Z-2.400000 I-0.820409 J0.763453
G03 X47.858060 Y131.051516 Z-2.400000 I-6.495856 J0.596499
G03 X47.390404 Y131.962453 Z-2.400000 I-1.719748 J-0.307373
G03 X46.326371 Y132.625575 Z-2.400000 I-1.876661 J-1.826029
G02 X44.917352 Y133.774078 Z-2.400000 I0.784443 J2.400945
G02 X44.867544 Y135.179942 Z-2.400000 I1.314167 J0.750374
G02 X45.327471 Y135.769608 Z-2.400000 I1.581979 J-0.759711
G02 X46.285030 Y136.358687 Z-2.400000 I2.536660 J-3.050584
G03 X47.236571 Y137.093272 Z-2.400000 I-0.980137 J2.253195
G03 X47.398140 Y137.775663 Z-2.400000 I-0.655859 J0.515611
G03 X47.237612 Y138.179559 Z-2.400000 I-1.210544 J-0.247283
G03 X45.638558 Y140.613214 Z-2.400000 I-47.216434 J-29.281794
G02 X42.597194 Y145.304484 Z-2.400000 I71.014583 J49.370455
G02 X41.057959 Y148.205512 Z-2.400000 I25.556957 J15.418937
G02 X39.827966 Y151.372789 Z-2.400000 I24.759517 J11.437677
G02 X39.399146 Y153.418094 Z-2.400000 I9.834248 J3.129461
G02 X40.263157 Y159.409325 Z-2.400000 I12.240567 J1.292673
G02 X46.376497 Y170.312163 Z-2.400000 I48.510280 J-20.034917
G03 X52.059594 Y178.740789 Z-2.400000 I-110.543763 J80.665655
G03 X54.382728 Y183.194064 Z-2.400000 I-28.368744 J17.631671
G03 X56.001738 Y187.323399 Z-2.400000 I-63.855438 J27.418201
G03 X56.142826 Y188.141053 Z-2.400000 I-2.298755 J0.817653
G03 X56.098072 Y188.273483 Z-2.400000 I-0.218315 J-0.000000
G03 X55.194046 Y189.382835 Z-2.400000 I-17.786026 J-13.571059
G02 X53.936411 Y191.104097 Z-2.400000 I9.527804 J8.281537
G02 X53.431363 Y192.281885 Z-2.400000 I3.885257 J2.363219
G02 X53.315930 Y194.106488 Z-2.400000 I4.427532 J1.196059
G02 X54.001870 Y196.404112 Z-2.400000 I7.810837 J-1.080671
G02 X55.746211 Y198.509656 Z-2.400000 I5.010605 J-2.375719
G02 X58.659984 Y199.799772 Z-2.400000 I4.439093 J-6.090365
G02 X59.249328 Y199.889241 Z-2.400000 I1.218106 J-6.038036
G02 X59.859393 Y199.921210 Z-2.400000 I0.625102 J-6.091839
G01 X59.859393 Y199.921739 Z-2.400000
G01 X59.859393 Y205.018585 Z-2.400000
G01 X10.078454 Y205.018575 Z-2.400000
G01 X10.078454 Y9.921960 Z-2.400000


(End cutting path id: rect43328)


(Start cutting path id: rect43328)
(Change tool to Cylindrical cutter)


G00 X10.078454 Y9.921960

G01 Z-2.800000 F100.0(Penetrate)
G01 X22.634794 Y9.921960 Z-2.800000 F300.000000
G02 X21.750697 Y10.725578 Z-2.800000 I1.322402 J2.342962
G03 X21.101037 Y11.530653 Z-2.800000 I-6.080323 J-4.241885
G02 X20.488249 Y12.517324 Z-2.800000 I4.101595 J3.230988
G02 X20.141406 Y13.597182 Z-2.800000 I3.846163 J1.830994
G02 X19.939658 Y14.827305 Z-2.800000 I5.334638 J1.506521
G02 X19.988444 Y15.998593 Z-2.800000 I6.406306 J0.319827
G02 X20.795221 Y18.137116 Z-2.800000 I5.018907 J-0.671985
G02 X22.717993 Y20.089289 Z-2.800000 I6.052912 J-4.038756
G01 X23.650236 Y20.731645 Z-2.800000
G01 X23.099882 Y21.514520 Z-2.800000
G02 X21.938553 Y25.448849 Z-2.800000 I5.248534 J3.687818
G02 X23.499857 Y31.917011 Z-2.800000 I16.865934 J-0.648632
G02 X27.307231 Y37.768478 Z-2.800000 I22.429044 J-10.429499
G02 X31.965489 Y41.599094 Z-2.800000 I13.891912 J-12.145728
G03 X33.788351 Y43.196687 Z-2.800000 I-3.120939 J5.399748
G03 X34.504870 Y44.901226 Z-2.800000 I-2.875889 J2.211775
G02 X34.692970 Y45.897144 Z-2.800000 I10.811045 J-1.526171
G02 X34.872805 Y46.451499 Z-2.800000 I3.521853 J-0.836155
G02 X35.152875 Y46.961316 Z-2.800000 I2.489926 J-1.036014
G02 X36.624638 Y48.956257 Z-2.800000 I40.290381 J-28.183769
G03 X39.741181 Y53.515411 Z-2.800000 I-35.653785 J27.716959
G03 X42.602568 Y58.964438 Z-2.800000 I-48.148867 J28.759676
G03 X46.325574 Y69.501533 Z-2.800000 I-57.164775 J26.123935
G03 X48.394461 Y81.588377 Z-2.800000 I-73.333684 J18.772903
G03 X48.569558 Y83.942671 Z-2.800000 I-82.777240 J7.340084
G03 X49.053337 Y92.555673 Z-2.800000 I-1097.634047 J65.972504
G03 X49.299601 Y105.155291 Z-2.800000 I-192.822907 J10.071016
G03 X48.842495 Y108.675095 Z-2.800000 I-15.325720 J-0.200719
G03 X48.382292 Y109.454366 Z-2.800000 I-1.543826 J-0.386193
G03 X47.203320 Y110.199545 Z-2.800000 I-2.576424 J-2.771012
G02 X45.227281 Y111.293110 Z-2.800000 I3.282414 J8.263325
G02 X44.215388 Y112.390110 Z-2.800000 I2.301742 J3.138364
G02 X43.913405 Y113.017467 Z-2.800000 I2.877917 J1.771666
G02 X43.692423 Y113.842752 Z-2.800000 I4.801992 J1.728030
G03 X43.016303 Y114.989450 Z-2.800000 I-1.885020 J-0.338775
G03 X41.482740 Y115.641072 Z-2.800000 I-1.894235 J-2.327600
G02 X39.779483 Y116.226771 Z-2.800000 I0.516400 J4.271180
G02 X38.619863 Y117.365017 Z-2.800000 I1.807682 J3.001445
G02 X38.339318 Y118.222580 Z-2.800000 I1.579642 J0.991440
G02 X38.483439 Y119.260492 Z-2.800000 I2.508996 J0.180571
G02 X39.365937 Y120.530607 Z-2.800000 I2.832676 J-1.026548
G02 X40.750484 Y121.185442 Z-2.800000 I1.912209 J-2.251950
G03 X41.540017 Y121.743462 Z-2.800000 I-0.205102 J1.127754
G03 X42.506966 Y124.252439 Z-2.800000 I-7.688021 J4.403746
G02 X42.871959 Y125.668011 Z-2.800000 I19.373738 J-4.240510
G02 X43.059902 Y126.110211 Z-2.800000 I2.047879 J-0.609350
G02 X43.560890 Y126.618196 Z-2.800000 I1.190101 J-0.672672
G02 X46.108297 Y127.889957 Z-2.800000 I10.999517 J-18.845454
G03 X47.433548 Y128.492158 Z-2.800000 I-9.481697 J22.625501
G03 X47.636884 Y128.646480 Z-2.800000 I-0.293113 J0.597330
G03 X47.932463 Y129.307454 Z-2.800000 I-0.820409 J0.763453
G03 X47.858060 Y131.051516 Z-2.800000 I-6.495856 J0.596499
G03 X47.390404 Y131.962453 Z-2.800000 I-1.719748 J-0.307373
G03 X46.326371 Y132.625575 Z-2.800000 I-1.876661 J-1.826029
G02 X44.917352 Y133.774078 Z-2.800000 I0.784443 J2.400945
G02 X44.867544 Y135.179942 Z-2.800000 I1.314167 J0.750374
G02 X45.327471 Y135.769608 Z-2.800000 I1.581979 J-0.759711
G02 X46.285030 Y136.358687 Z-2.800000 I2.536660 J-3.050584
G03 X47.236571 Y137.093272 Z-2.800000 I-0.980137 J2.253195
G03 X47.398140 Y137.775663 Z-2.800000 I-0.655859 J0.515611
G03 X47.237612 Y138.179559 Z-2.800000 I-1.210544 J-0.247283
G03 X45.638558 Y140.613214 Z-2.800000 I-47.216434 J-29.281794
G02 X42.597194 Y145.304484 Z-2.800000 I71.014583 J49.370455
G02 X41.057959 Y148.205512 Z-2.800000 I25.556957 J15.418937
G02 X39.827966 Y151.372789 Z-2.800000 I24.759517 J11.437677
G02 X39.399146 Y153.418094 Z-2.800000 I9.834248 J3.129461
G02 X40.263157 Y159.409325 Z-2.800000 I12.240567 J1.292673
G02 X46.376497 Y170.312163 Z-2.800000 I48.510280 J-20.034917
G03 X52.059594 Y178.740789 Z-2.800000 I-110.543763 J80.665655
G03 X54.382728 Y183.194064 Z-2.800000 I-28.368744 J17.631671
G03 X56.001738 Y187.323399 Z-2.800000 I-63.855438 J27.418201
G03 X56.142826 Y188.141053 Z-2.800000 I-2.298755 J0.817653
G03 X56.098072 Y188.273483 Z-2.800000 I-0.218315 J-0.000000
G03 X55.194046 Y189.382835 Z-2.800000 I-17.786026 J-13.571059
G02 X53.936411 Y191.104097 Z-2.800000 I9.527804 J8.281537
G02 X53.431363 Y192.281885 Z-2.800000 I3.885257 J2.363219
G02 X53.315930 Y194.106488 Z-2.800000 I4.427532 J1.196059
G02 X54.001870 Y196.404112 Z-2.800000 I7.810837 J-1.080671
G02 X55.746211 Y198.509656 Z-2.800000 I5.010605 J-2.375719
G02 X58.659984 Y199.799772 Z-2.800000 I4.439093 J-6.090365
G02 X59.249328 Y199.889241 Z-2.800000 I1.218106 J-6.038036
G02 X59.859393 Y199.921210 Z-2.800000 I0.625102 J-6.091839
G01 X59.859393 Y199.921739 Z-2.800000
G01 X59.859393 Y205.018585 Z-2.800000
G01 X10.078454 Y205.018575 Z-2.800000
G01 X10.078454 Y9.921960 Z-2.800000


(End cutting path id: rect43328)


(Start cutting path id: rect43328)
(Change tool to Cylindrical cutter)

G00 X10.078454 Y9.921960

G01 Z-3.200000 F100.0(Penetrate)
G01 X22.634794 Y9.921960 Z-3.200000 F300.000000
G02 X21.750697 Y10.725578 Z-3.200000 I1.322402 J2.342962
G03 X21.101037 Y11.530653 Z-3.200000 I-6.080323 J-4.241885
G02 X20.488249 Y12.517324 Z-3.200000 I4.101595 J3.230988
G02 X20.141406 Y13.597182 Z-3.200000 I3.846163 J1.830994
G02 X19.939658 Y14.827305 Z-3.200000 I5.334638 J1.506521
G02 X19.988444 Y15.998593 Z-3.200000 I6.406306 J0.319827
G02 X20.795221 Y18.137116 Z-3.200000 I5.018907 J-0.671985
G02 X22.717993 Y20.089289 Z-3.200000 I6.052912 J-4.038756
G01 X23.650236 Y20.731645 Z-3.200000
G01 X23.099882 Y21.514520 Z-3.200000
G02 X21.938553 Y25.448849 Z-3.200000 I5.248534 J3.687818
G02 X23.499857 Y31.917011 Z-3.200000 I16.865934 J-0.648632
G02 X27.307231 Y37.768478 Z-3.200000 I22.429044 J-10.429499
G02 X31.965489 Y41.599094 Z-3.200000 I13.891912 J-12.145728
G03 X33.788351 Y43.196687 Z-3.200000 I-3.120939 J5.399748
G03 X34.504870 Y44.901226 Z-3.200000 I-2.875889 J2.211775
G02 X34.692970 Y45.897144 Z-3.200000 I10.811045 J-1.526171
G02 X34.872805 Y46.451499 Z-3.200000 I3.521853 J-0.836155
G02 X35.152875 Y46.961316 Z-3.200000 I2.489926 J-1.036014
G02 X36.624638 Y48.956257 Z-3.200000 I40.290381 J-28.183769
G03 X39.741181 Y53.515411 Z-3.200000 I-35.653785 J27.716959
G03 X42.602568 Y58.964438 Z-3.200000 I-48.148867 J28.759676
G03 X46.325574 Y69.501533 Z-3.200000 I-57.164775 J26.123935
G03 X48.394461 Y81.588377 Z-3.200000 I-73.333684 J18.772903
G03 X48.569558 Y83.942671 Z-3.200000 I-82.777240 J7.340084
G03 X49.053337 Y92.555673 Z-3.200000 I-1097.634047 J65.972504
G03 X49.299601 Y105.155291 Z-3.200000 I-192.822907 J10.071016
G03 X48.842495 Y108.675095 Z-3.200000 I-15.325720 J-0.200719
G03 X48.382292 Y109.454366 Z-3.200000 I-1.543826 J-0.386193
G03 X47.203320 Y110.199545 Z-3.200000 I-2.576424 J-2.771012
G02 X45.227281 Y111.293110 Z-3.200000 I3.282414 J8.263325
G02 X44.215388 Y112.390110 Z-3.200000 I2.301742 J3.138364
G02 X43.913405 Y113.017467 Z-3.200000 I2.877917 J1.771666
G02 X43.692423 Y113.842752 Z-3.200000 I4.801992 J1.728030
G03 X43.016303 Y114.989450 Z-3.200000 I-1.885020 J-0.338775
G03 X41.482740 Y115.641072 Z-3.200000 I-1.894235 J-2.327600
G02 X39.779483 Y116.226771 Z-3.200000 I0.516400 J4.271180
G02 X38.619863 Y117.365017 Z-3.200000 I1.807682 J3.001445
G02 X38.339318 Y118.222580 Z-3.200000 I1.579642 J0.991440
G02 X38.483439 Y119.260492 Z-3.200000 I2.508996 J0.180571
G02 X39.365937 Y120.530607 Z-3.200000 I2.832676 J-1.026548
G02 X40.750484 Y121.185442 Z-3.200000 I1.912209 J-2.251950
G03 X41.540017 Y121.743462 Z-3.200000 I-0.205102 J1.127754
G03 X42.506966 Y124.252439 Z-3.200000 I-7.688021 J4.403746
G02 X42.871959 Y125.668011 Z-3.200000 I19.373738 J-4.240510
G02 X43.059902 Y126.110211 Z-3.200000 I2.047879 J-0.609350
G02 X43.560890 Y126.618196 Z-3.200000 I1.190101 J-0.672672
G02 X46.108297 Y127.889957 Z-3.200000 I10.999517 J-18.845454
G03 X47.433548 Y128.492158 Z-3.200000 I-9.481697 J22.625501
G03 X47.636884 Y128.646480 Z-3.200000 I-0.293113 J0.597330
G03 X47.932463 Y129.307454 Z-3.200000 I-0.820409 J0.763453
G03 X47.858060 Y131.051516 Z-3.200000 I-6.495856 J0.596499
G03 X47.390404 Y131.962453 Z-3.200000 I-1.719748 J-0.307373
G03 X46.326371 Y132.625575 Z-3.200000 I-1.876661 J-1.826029
G02 X44.917352 Y133.774078 Z-3.200000 I0.784443 J2.400945
G02 X44.867544 Y135.179942 Z-3.200000 I1.314167 J0.750374
G02 X45.327471 Y135.769608 Z-3.200000 I1.581979 J-0.759711
G02 X46.285030 Y136.358687 Z-3.200000 I2.536660 J-3.050584
G03 X47.236571 Y137.093272 Z-3.200000 I-0.980137 J2.253195
G03 X47.398140 Y137.775663 Z-3.200000 I-0.655859 J0.515611
G03 X47.237612 Y138.179559 Z-3.200000 I-1.210544 J-0.247283
G03 X45.638558 Y140.613214 Z-3.200000 I-47.216434 J-29.281794
G02 X42.597194 Y145.304484 Z-3.200000 I71.014583 J49.370455
G02 X41.057959 Y148.205512 Z-3.200000 I25.556957 J15.418937
G02 X39.827966 Y151.372789 Z-3.200000 I24.759517 J11.437677
G02 X39.399146 Y153.418094 Z-3.200000 I9.834248 J3.129461
G02 X40.263157 Y159.409325 Z-3.200000 I12.240567 J1.292673
G02 X46.376497 Y170.312163 Z-3.200000 I48.510280 J-20.034917
G03 X52.059594 Y178.740789 Z-3.200000 I-110.543763 J80.665655
G03 X54.382728 Y183.194064 Z-3.200000 I-28.368744 J17.631671
G03 X56.001738 Y187.323399 Z-3.200000 I-63.855438 J27.418201
G03 X56.142826 Y188.141053 Z-3.200000 I-2.298755 J0.817653
G03 X56.098072 Y188.273483 Z-3.200000 I-0.218315 J-0.000000
G03 X55.194046 Y189.382835 Z-3.200000 I-17.786026 J-13.571059
G02 X53.936411 Y191.104097 Z-3.200000 I9.527804 J8.281537
G02 X53.431363 Y192.281885 Z-3.200000 I3.885257 J2.363219
G02 X53.315930 Y194.106488 Z-3.200000 I4.427532 J1.196059
G02 X54.001870 Y196.404112 Z-3.200000 I7.810837 J-1.080671
G02 X55.746211 Y198.509656 Z-3.200000 I5.010605 J-2.375719
G02 X58.659984 Y199.799772 Z-3.200000 I4.439093 J-6.090365
G02 X59.249328 Y199.889241 Z-3.200000 I1.218106 J-6.038036
G02 X59.859393 Y199.921210 Z-3.200000 I0.625102 J-6.091839
G01 X59.859393 Y199.921739 Z-3.200000
G01 X59.859393 Y205.018585 Z-3.200000
G01 X10.078454 Y205.018575 Z-3.200000
G01 X10.078454 Y9.921960 Z-3.200000


(End cutting path id: rect43328)


(Start cutting path id: rect43328)
(Change tool to Cylindrical cutter)


G00 X10.078454 Y9.921960

G01 Z-3.600000 F100.0(Penetrate)
G01 X22.634794 Y9.921960 Z-3.600000 F300.000000
G02 X21.750697 Y10.725578 Z-3.600000 I1.322402 J2.342962
G03 X21.101037 Y11.530653 Z-3.600000 I-6.080323 J-4.241885
G02 X20.488249 Y12.517324 Z-3.600000 I4.101595 J3.230988
G02 X20.141406 Y13.597182 Z-3.600000 I3.846163 J1.830994
G02 X19.939658 Y14.827305 Z-3.600000 I5.334638 J1.506521
G02 X19.988444 Y15.998593 Z-3.600000 I6.406306 J0.319827
G02 X20.795221 Y18.137116 Z-3.600000 I5.018907 J-0.671985
G02 X22.717993 Y20.089289 Z-3.600000 I6.052912 J-4.038756
G01 X23.650236 Y20.731645 Z-3.600000
G01 X23.099882 Y21.514520 Z-3.600000
G02 X21.938553 Y25.448849 Z-3.600000 I5.248534 J3.687818
G02 X23.499857 Y31.917011 Z-3.600000 I16.865934 J-0.648632
G02 X27.307231 Y37.768478 Z-3.600000 I22.429044 J-10.429499
G02 X31.965489 Y41.599094 Z-3.600000 I13.891912 J-12.145728
G03 X33.788351 Y43.196687 Z-3.600000 I-3.120939 J5.399748
G03 X34.504870 Y44.901226 Z-3.600000 I-2.875889 J2.211775
G02 X34.692970 Y45.897144 Z-3.600000 I10.811045 J-1.526171
G02 X34.872805 Y46.451499 Z-3.600000 I3.521853 J-0.836155
G02 X35.152875 Y46.961316 Z-3.600000 I2.489926 J-1.036014
G02 X36.624638 Y48.956257 Z-3.600000 I40.290381 J-28.183769
G03 X39.741181 Y53.515411 Z-3.600000 I-35.653785 J27.716959
G03 X42.602568 Y58.964438 Z-3.600000 I-48.148867 J28.759676
G03 X46.325574 Y69.501533 Z-3.600000 I-57.164775 J26.123935
G03 X48.394461 Y81.588377 Z-3.600000 I-73.333684 J18.772903
G03 X48.569558 Y83.942671 Z-3.600000 I-82.777240 J7.340084
G03 X49.053337 Y92.555673 Z-3.600000 I-1097.634047 J65.972504
G03 X49.299601 Y105.155291 Z-3.600000 I-192.822907 J10.071016
G03 X48.842495 Y108.675095 Z-3.600000 I-15.325720 J-0.200719
G03 X48.382292 Y109.454366 Z-3.600000 I-1.543826 J-0.386193
G03 X47.203320 Y110.199545 Z-3.600000 I-2.576424 J-2.771012
G02 X45.227281 Y111.293110 Z-3.600000 I3.282414 J8.263325
G02 X44.215388 Y112.390110 Z-3.600000 I2.301742 J3.138364
G02 X43.913405 Y113.017467 Z-3.600000 I2.877917 J1.771666
G02 X43.692423 Y113.842752 Z-3.600000 I4.801992 J1.728030
G03 X43.016303 Y114.989450 Z-3.600000 I-1.885020 J-0.338775
G03 X41.482740 Y115.641072 Z-3.600000 I-1.894235 J-2.327600
G02 X39.779483 Y116.226771 Z-3.600000 I0.516400 J4.271180
G02 X38.619863 Y117.365017 Z-3.600000 I1.807682 J3.001445
G02 X38.339318 Y118.222580 Z-3.600000 I1.579642 J0.991440
G02 X38.483439 Y119.260492 Z-3.600000 I2.508996 J0.180571
G02 X39.365937 Y120.530607 Z-3.600000 I2.832676 J-1.026548
G02 X40.750484 Y121.185442 Z-3.600000 I1.912209 J-2.251950
G03 X41.540017 Y121.743462 Z-3.600000 I-0.205102 J1.127754
G03 X42.506966 Y124.252439 Z-3.600000 I-7.688021 J4.403746
G02 X42.871959 Y125.668011 Z-3.600000 I19.373738 J-4.240510
G02 X43.059902 Y126.110211 Z-3.600000 I2.047879 J-0.609350
G02 X43.560890 Y126.618196 Z-3.600000 I1.190101 J-0.672672
G02 X46.108297 Y127.889957 Z-3.600000 I10.999517 J-18.845454
G03 X47.433548 Y128.492158 Z-3.600000 I-9.481697 J22.625501
G03 X47.636884 Y128.646480 Z-3.600000 I-0.293113 J0.597330
G03 X47.932463 Y129.307454 Z-3.600000 I-0.820409 J0.763453
G03 X47.858060 Y131.051516 Z-3.600000 I-6.495856 J0.596499
G03 X47.390404 Y131.962453 Z-3.600000 I-1.719748 J-0.307373
G03 X46.326371 Y132.625575 Z-3.600000 I-1.876661 J-1.826029
G02 X44.917352 Y133.774078 Z-3.600000 I0.784443 J2.400945
G02 X44.867544 Y135.179942 Z-3.600000 I1.314167 J0.750374
G02 X45.327471 Y135.769608 Z-3.600000 I1.581979 J-0.759711
G02 X46.285030 Y136.358687 Z-3.600000 I2.536660 J-3.050584
G03 X47.236571 Y137.093272 Z-3.600000 I-0.980137 J2.253195
G03 X47.398140 Y137.775663 Z-3.600000 I-0.655859 J0.515611
G03 X47.237612 Y138.179559 Z-3.600000 I-1.210544 J-0.247283
G03 X45.638558 Y140.613214 Z-3.600000 I-47.216434 J-29.281794
G02 X42.597194 Y145.304484 Z-3.600000 I71.014583 J49.370455
G02 X41.057959 Y148.205512 Z-3.600000 I25.556957 J15.418937
G02 X39.827966 Y151.372789 Z-3.600000 I24.759517 J11.437677
G02 X39.399146 Y153.418094 Z-3.600000 I9.834248 J3.129461
G02 X40.263157 Y159.409325 Z-3.600000 I12.240567 J1.292673
G02 X46.376497 Y170.312163 Z-3.600000 I48.510280 J-20.034917
G03 X52.059594 Y178.740789 Z-3.600000 I-110.543763 J80.665655
G03 X54.382728 Y183.194064 Z-3.600000 I-28.368744 J17.631671
G03 X56.001738 Y187.323399 Z-3.600000 I-63.855438 J27.418201
G03 X56.142826 Y188.141053 Z-3.600000 I-2.298755 J0.817653
G03 X56.098072 Y188.273483 Z-3.600000 I-0.218315 J-0.000000
G03 X55.194046 Y189.382835 Z-3.600000 I-17.786026 J-13.571059
G02 X53.936411 Y191.104097 Z-3.600000 I9.527804 J8.281537
G02 X53.431363 Y192.281885 Z-3.600000 I3.885257 J2.363219
G02 X53.315930 Y194.106488 Z-3.600000 I4.427532 J1.196059
G02 X54.001870 Y196.404112 Z-3.600000 I7.810837 J-1.080671
G02 X55.746211 Y198.509656 Z-3.600000 I5.010605 J-2.375719
G02 X58.659984 Y199.799772 Z-3.600000 I4.439093 J-6.090365
G02 X59.249328 Y199.889241 Z-3.600000 I1.218106 J-6.038036
G02 X59.859393 Y199.921210 Z-3.600000 I0.625102 J-6.091839
G01 X59.859393 Y199.921739 Z-3.600000
G01 X59.859393 Y205.018585 Z-3.600000
G01 X10.078454 Y205.018575 Z-3.600000
G01 X10.078454 Y9.921960 Z-3.600000


(End cutting path id: rect43328)


(Start cutting path id: rect43328)
(Change tool to Cylindrical cutter)


G00 X10.078454 Y9.921960

G01 Z-4.000000 F100.0(Penetrate)
G01 X22.634794 Y9.921960 Z-4.000000 F300.000000
G02 X21.750697 Y10.725578 Z-4.000000 I1.322402 J2.342962
G03 X21.101037 Y11.530653 Z-4.000000 I-6.080323 J-4.241885
G02 X20.488249 Y12.517324 Z-4.000000 I4.101595 J3.230988
G02 X20.141406 Y13.597182 Z-4.000000 I3.846163 J1.830994
G02 X19.939658 Y14.827305 Z-4.000000 I5.334638 J1.506521
G02 X19.988444 Y15.998593 Z-4.000000 I6.406306 J0.319827
G02 X20.795221 Y18.137116 Z-4.000000 I5.018907 J-0.671985
G02 X22.717993 Y20.089289 Z-4.000000 I6.052912 J-4.038756
G01 X23.650236 Y20.731645 Z-4.000000
G01 X23.099882 Y21.514520 Z-4.000000
G02 X21.938553 Y25.448849 Z-4.000000 I5.248534 J3.687818
G02 X23.499857 Y31.917011 Z-4.000000 I16.865934 J-0.648632
G02 X27.307231 Y37.768478 Z-4.000000 I22.429044 J-10.429499
G02 X31.965489 Y41.599094 Z-4.000000 I13.891912 J-12.145728
G03 X33.788351 Y43.196687 Z-4.000000 I-3.120939 J5.399748
G03 X34.504870 Y44.901226 Z-4.000000 I-2.875889 J2.211775
G02 X34.692970 Y45.897144 Z-4.000000 I10.811045 J-1.526171
G02 X34.872805 Y46.451499 Z-4.000000 I3.521853 J-0.836155
G02 X35.152875 Y46.961316 Z-4.000000 I2.489926 J-1.036014
G02 X36.624638 Y48.956257 Z-4.000000 I40.290381 J-28.183769
G03 X39.741181 Y53.515411 Z-4.000000 I-35.653785 J27.716959
G03 X42.602568 Y58.964438 Z-4.000000 I-48.148867 J28.759676
G03 X46.325574 Y69.501533 Z-4.000000 I-57.164775 J26.123935
G03 X48.394461 Y81.588377 Z-4.000000 I-73.333684 J18.772903
G03 X48.569558 Y83.942671 Z-4.000000 I-82.777240 J7.340084
G03 X49.053337 Y92.555673 Z-4.000000 I-1097.634047 J65.972504
G03 X49.299601 Y105.155291 Z-4.000000 I-192.822907 J10.071016
G03 X48.842495 Y108.675095 Z-4.000000 I-15.325720 J-0.200719
G03 X48.382292 Y109.454366 Z-4.000000 I-1.543826 J-0.386193
G03 X47.203320 Y110.199545 Z-4.000000 I-2.576424 J-2.771012
G02 X45.227281 Y111.293110 Z-4.000000 I3.282414 J8.263325
G02 X44.215388 Y112.390110 Z-4.000000 I2.301742 J3.138364
G02 X43.913405 Y113.017467 Z-4.000000 I2.877917 J1.771666
G02 X43.692423 Y113.842752 Z-4.000000 I4.801992 J1.728030
G03 X43.016303 Y114.989450 Z-4.000000 I-1.885020 J-0.338775
G03 X41.482740 Y115.641072 Z-4.000000 I-1.894235 J-2.327600
G02 X39.779483 Y116.226771 Z-4.000000 I0.516400 J4.271180
G02 X38.619863 Y117.365017 Z-4.000000 I1.807682 J3.001445
G02 X38.339318 Y118.222580 Z-4.000000 I1.579642 J0.991440
G02 X38.483439 Y119.260492 Z-4.000000 I2.508996 J0.180571
G02 X39.365937 Y120.530607 Z-4.000000 I2.832676 J-1.026548
G02 X40.750484 Y121.185442 Z-4.000000 I1.912209 J-2.251950
G03 X41.540017 Y121.743462 Z-4.000000 I-0.205102 J1.127754
G03 X42.506966 Y124.252439 Z-4.000000 I-7.688021 J4.403746
G02 X42.871959 Y125.668011 Z-4.000000 I19.373738 J-4.240510
G02 X43.059902 Y126.110211 Z-4.000000 I2.047879 J-0.609350
G02 X43.560890 Y126.618196 Z-4.000000 I1.190101 J-0.672672
G02 X46.108297 Y127.889957 Z-4.000000 I10.999517 J-18.845454
G03 X47.433548 Y128.492158 Z-4.000000 I-9.481697 J22.625501
G03 X47.636884 Y128.646480 Z-4.000000 I-0.293113 J0.597330
G03 X47.932463 Y129.307454 Z-4.000000 I-0.820409 J0.763453
G03 X47.858060 Y131.051516 Z-4.000000 I-6.495856 J0.596499
G03 X47.390404 Y131.962453 Z-4.000000 I-1.719748 J-0.307373
G03 X46.326371 Y132.625575 Z-4.000000 I-1.876661 J-1.826029
G02 X44.917352 Y133.774078 Z-4.000000 I0.784443 J2.400945
G02 X44.867544 Y135.179942 Z-4.000000 I1.314167 J0.750374
G02 X45.327471 Y135.769608 Z-4.000000 I1.581979 J-0.759711
G02 X46.285030 Y136.358687 Z-4.000000 I2.536660 J-3.050584
G03 X47.236571 Y137.093272 Z-4.000000 I-0.980137 J2.253195
G03 X47.398140 Y137.775663 Z-4.000000 I-0.655859 J0.515611
G03 X47.237612 Y138.179559 Z-4.000000 I-1.210544 J-0.247283
G03 X45.638558 Y140.613214 Z-4.000000 I-47.216434 J-29.281794
G02 X42.597194 Y145.304484 Z-4.000000 I71.014583 J49.370455
G02 X41.057959 Y148.205512 Z-4.000000 I25.556957 J15.418937
G02 X39.827966 Y151.372789 Z-4.000000 I24.759517 J11.437677
G02 X39.399146 Y153.418094 Z-4.000000 I9.834248 J3.129461
G02 X40.263157 Y159.409325 Z-4.000000 I12.240567 J1.292673
G02 X46.376497 Y170.312163 Z-4.000000 I48.510280 J-20.034917
G03 X52.059594 Y178.740789 Z-4.000000 I-110.543763 J80.665655
G03 X54.382728 Y183.194064 Z-4.000000 I-28.368744 J17.631671
G03 X56.001738 Y187.323399 Z-4.000000 I-63.855438 J27.418201
G03 X56.142826 Y188.141053 Z-4.000000 I-2.298755 J0.817653
G03 X56.098072 Y188.273483 Z-4.000000 I-0.218315 J-0.000000
G03 X55.194046 Y189.382835 Z-4.000000 I-17.786026 J-13.571059
G02 X53.936411 Y191.104097 Z-4.000000 I9.527804 J8.281537
G02 X53.431363 Y192.281885 Z-4.000000 I3.885257 J2.363219
G02 X53.315930 Y194.106488 Z-4.000000 I4.427532 J1.196059
G02 X54.001870 Y196.404112 Z-4.000000 I7.810837 J-1.080671
G02 X55.746211 Y198.509656 Z-4.000000 I5.010605 J-2.375719
G02 X58.659984 Y199.799772 Z-4.000000 I4.439093 J-6.090365
G02 X59.249328 Y199.889241 Z-4.000000 I1.218106 J-6.038036
G02 X59.859393 Y199.921210 Z-4.000000 I0.625102 J-6.091839
G01 X59.859393 Y199.921739 Z-4.000000
G01 X59.859393 Y205.018585 Z-4.000000
G01 X10.078454 Y205.018575 Z-4.000000
G01 X10.078454 Y9.921960 Z-4.000000


(End cutting path id: rect43328)


(Start cutting path id: rect43328)
(Change tool to Cylindrical cutter)


G00 X10.078454 Y9.921960

G01 Z-4.400000 F100.0(Penetrate)
G01 X22.634794 Y9.921960 Z-4.400000 F300.000000
G02 X21.750697 Y10.725578 Z-4.400000 I1.322402 J2.342962
G03 X21.101037 Y11.530653 Z-4.400000 I-6.080323 J-4.241885
G02 X20.488249 Y12.517324 Z-4.400000 I4.101595 J3.230988
G02 X20.141406 Y13.597182 Z-4.400000 I3.846163 J1.830994
G02 X19.939658 Y14.827305 Z-4.400000 I5.334638 J1.506521
G02 X19.988444 Y15.998593 Z-4.400000 I6.406306 J0.319827
G02 X20.795221 Y18.137116 Z-4.400000 I5.018907 J-0.671985
G02 X22.717993 Y20.089289 Z-4.400000 I6.052912 J-4.038756
G01 X23.650236 Y20.731645 Z-4.400000
G01 X23.099882 Y21.514520 Z-4.400000
G02 X21.938553 Y25.448849 Z-4.400000 I5.248534 J3.687818
G02 X23.499857 Y31.917011 Z-4.400000 I16.865934 J-0.648632
G02 X27.307231 Y37.768478 Z-4.400000 I22.429044 J-10.429499
G02 X31.965489 Y41.599094 Z-4.400000 I13.891912 J-12.145728
G03 X33.788351 Y43.196687 Z-4.400000 I-3.120939 J5.399748
G03 X34.504870 Y44.901226 Z-4.400000 I-2.875889 J2.211775
G02 X34.692970 Y45.897144 Z-4.400000 I10.811045 J-1.526171
G02 X34.872805 Y46.451499 Z-4.400000 I3.521853 J-0.836155
G02 X35.152875 Y46.961316 Z-4.400000 I2.489926 J-1.036014
G02 X36.624638 Y48.956257 Z-4.400000 I40.290381 J-28.183769
G03 X39.741181 Y53.515411 Z-4.400000 I-35.653785 J27.716959
G03 X42.602568 Y58.964438 Z-4.400000 I-48.148867 J28.759676
G03 X46.325574 Y69.501533 Z-4.400000 I-57.164775 J26.123935
G03 X48.394461 Y81.588377 Z-4.400000 I-73.333684 J18.772903
G03 X48.569558 Y83.942671 Z-4.400000 I-82.777240 J7.340084
G03 X49.053337 Y92.555673 Z-4.400000 I-1097.634047 J65.972504
G03 X49.299601 Y105.155291 Z-4.400000 I-192.822907 J10.071016
G03 X48.842495 Y108.675095 Z-4.400000 I-15.325720 J-0.200719
G03 X48.382292 Y109.454366 Z-4.400000 I-1.543826 J-0.386193
G03 X47.203320 Y110.199545 Z-4.400000 I-2.576424 J-2.771012
G02 X45.227281 Y111.293110 Z-4.400000 I3.282414 J8.263325
G02 X44.215388 Y112.390110 Z-4.400000 I2.301742 J3.138364
G02 X43.913405 Y113.017467 Z-4.400000 I2.877917 J1.771666
G02 X43.692423 Y113.842752 Z-4.400000 I4.801992 J1.728030
G03 X43.016303 Y114.989450 Z-4.400000 I-1.885020 J-0.338775
G03 X41.482740 Y115.641072 Z-4.400000 I-1.894235 J-2.327600
G02 X39.779483 Y116.226771 Z-4.400000 I0.516400 J4.271180
G02 X38.619863 Y117.365017 Z-4.400000 I1.807682 J3.001445
G02 X38.339318 Y118.222580 Z-4.400000 I1.579642 J0.991440
G02 X38.483439 Y119.260492 Z-4.400000 I2.508996 J0.180571
G02 X39.365937 Y120.530607 Z-4.400000 I2.832676 J-1.026548
G02 X40.750484 Y121.185442 Z-4.400000 I1.912209 J-2.251950
G03 X41.540017 Y121.743462 Z-4.400000 I-0.205102 J1.127754
G03 X42.506966 Y124.252439 Z-4.400000 I-7.688021 J4.403746
G02 X42.871959 Y125.668011 Z-4.400000 I19.373738 J-4.240510
G02 X43.059902 Y126.110211 Z-4.400000 I2.047879 J-0.609350
G02 X43.560890 Y126.618196 Z-4.400000 I1.190101 J-0.672672
G02 X46.108297 Y127.889957 Z-4.400000 I10.999517 J-18.845454
G03 X47.433548 Y128.492158 Z-4.400000 I-9.481697 J22.625501
G03 X47.636884 Y128.646480 Z-4.400000 I-0.293113 J0.597330
G03 X47.932463 Y129.307454 Z-4.400000 I-0.820409 J0.763453
G03 X47.858060 Y131.051516 Z-4.400000 I-6.495856 J0.596499
G03 X47.390404 Y131.962453 Z-4.400000 I-1.719748 J-0.307373
G03 X46.326371 Y132.625575 Z-4.400000 I-1.876661 J-1.826029
G02 X44.917352 Y133.774078 Z-4.400000 I0.784443 J2.400945
G02 X44.867544 Y135.179942 Z-4.400000 I1.314167 J0.750374
G02 X45.327471 Y135.769608 Z-4.400000 I1.581979 J-0.759711
G02 X46.285030 Y136.358687 Z-4.400000 I2.536660 J-3.050584
G03 X47.236571 Y137.093272 Z-4.400000 I-0.980137 J2.253195
G03 X47.398140 Y137.775663 Z-4.400000 I-0.655859 J0.515611
G03 X47.237612 Y138.179559 Z-4.400000 I-1.210544 J-0.247283
G03 X45.638558 Y140.613214 Z-4.400000 I-47.216434 J-29.281794
G02 X42.597194 Y145.304484 Z-4.400000 I71.014583 J49.370455
G02 X41.057959 Y148.205512 Z-4.400000 I25.556957 J15.418937
G02 X39.827966 Y151.372789 Z-4.400000 I24.759517 J11.437677
G02 X39.399146 Y153.418094 Z-4.400000 I9.834248 J3.129461
G02 X40.263157 Y159.409325 Z-4.400000 I12.240567 J1.292673
G02 X46.376497 Y170.312163 Z-4.400000 I48.510280 J-20.034917
G03 X52.059594 Y178.740789 Z-4.400000 I-110.543763 J80.665655
G03 X54.382728 Y183.194064 Z-4.400000 I-28.368744 J17.631671
G03 X56.001738 Y187.323399 Z-4.400000 I-63.855438 J27.418201
G03 X56.142826 Y188.141053 Z-4.400000 I-2.298755 J0.817653
G03 X56.098072 Y188.273483 Z-4.400000 I-0.218315 J-0.000000
G03 X55.194046 Y189.382835 Z-4.400000 I-17.786026 J-13.571059
G02 X53.936411 Y191.104097 Z-4.400000 I9.527804 J8.281537
G02 X53.431363 Y192.281885 Z-4.400000 I3.885257 J2.363219
G02 X53.315930 Y194.106488 Z-4.400000 I4.427532 J1.196059
G02 X54.001870 Y196.404112 Z-4.400000 I7.810837 J-1.080671
G02 X55.746211 Y198.509656 Z-4.400000 I5.010605 J-2.375719
G02 X58.659984 Y199.799772 Z-4.400000 I4.439093 J-6.090365
G02 X59.249328 Y199.889241 Z-4.400000 I1.218106 J-6.038036
G02 X59.859393 Y199.921210 Z-4.400000 I0.625102 J-6.091839
G01 X59.859393 Y199.921739 Z-4.400000
G01 X59.859393 Y205.018585 Z-4.400000
G01 X10.078454 Y205.018575 Z-4.400000
G01 X10.078454 Y9.921960 Z-4.400000


(End cutting path id: rect43328)


(Start cutting path id: rect43328)
(Change tool to Cylindrical cutter)


G00 X10.078454 Y9.921960

G01 Z-4.800000 F100.0(Penetrate)
G01 X22.634794 Y9.921960 Z-4.800000 F300.000000
G02 X21.750697 Y10.725578 Z-4.800000 I1.322402 J2.342962
G03 X21.101037 Y11.530653 Z-4.800000 I-6.080323 J-4.241885
G02 X20.488249 Y12.517324 Z-4.800000 I4.101595 J3.230988
G02 X20.141406 Y13.597182 Z-4.800000 I3.846163 J1.830994
G02 X19.939658 Y14.827305 Z-4.800000 I5.334638 J1.506521
G02 X19.988444 Y15.998593 Z-4.800000 I6.406306 J0.319827
G02 X20.795221 Y18.137116 Z-4.800000 I5.018907 J-0.671985
G02 X22.717993 Y20.089289 Z-4.800000 I6.052912 J-4.038756
G01 X23.650236 Y20.731645 Z-4.800000
G01 X23.099882 Y21.514520 Z-4.800000
G02 X21.938553 Y25.448849 Z-4.800000 I5.248534 J3.687818
G02 X23.499857 Y31.917011 Z-4.800000 I16.865934 J-0.648632
G02 X27.307231 Y37.768478 Z-4.800000 I22.429044 J-10.429499
G02 X31.965489 Y41.599094 Z-4.800000 I13.891912 J-12.145728
G03 X33.788351 Y43.196687 Z-4.800000 I-3.120939 J5.399748
G03 X34.504870 Y44.901226 Z-4.800000 I-2.875889 J2.211775
G02 X34.692970 Y45.897144 Z-4.800000 I10.811045 J-1.526171
G02 X34.872805 Y46.451499 Z-4.800000 I3.521853 J-0.836155
G02 X35.152875 Y46.961316 Z-4.800000 I2.489926 J-1.036014
G02 X36.624638 Y48.956257 Z-4.800000 I40.290381 J-28.183769
G03 X39.741181 Y53.515411 Z-4.800000 I-35.653785 J27.716959
G03 X42.602568 Y58.964438 Z-4.800000 I-48.148867 J28.759676
G03 X46.325574 Y69.501533 Z-4.800000 I-57.164775 J26.123935
G03 X48.394461 Y81.588377 Z-4.800000 I-73.333684 J18.772903
G03 X48.569558 Y83.942671 Z-4.800000 I-82.777240 J7.340084
G03 X49.053337 Y92.555673 Z-4.800000 I-1097.634047 J65.972504
G03 X49.299601 Y105.155291 Z-4.800000 I-192.822907 J10.071016
G03 X48.842495 Y108.675095 Z-4.800000 I-15.325720 J-0.200719
G03 X48.382292 Y109.454366 Z-4.800000 I-1.543826 J-0.386193
G03 X47.203320 Y110.199545 Z-4.800000 I-2.576424 J-2.771012
G02 X45.227281 Y111.293110 Z-4.800000 I3.282414 J8.263325
G02 X44.215388 Y112.390110 Z-4.800000 I2.301742 J3.138364
G02 X43.913405 Y113.017467 Z-4.800000 I2.877917 J1.771666
G02 X43.692423 Y113.842752 Z-4.800000 I4.801992 J1.728030
G03 X43.016303 Y114.989450 Z-4.800000 I-1.885020 J-0.338775
G03 X41.482740 Y115.641072 Z-4.800000 I-1.894235 J-2.327600
G02 X39.779483 Y116.226771 Z-4.800000 I0.516400 J4.271180
G02 X38.619863 Y117.365017 Z-4.800000 I1.807682 J3.001445
G02 X38.339318 Y118.222580 Z-4.800000 I1.579642 J0.991440
G02 X38.483439 Y119.260492 Z-4.800000 I2.508996 J0.180571
G02 X39.365937 Y120.530607 Z-4.800000 I2.832676 J-1.026548
G02 X40.750484 Y121.185442 Z-4.800000 I1.912209 J-2.251950
G03 X41.540017 Y121.743462 Z-4.800000 I-0.205102 J1.127754
G03 X42.506966 Y124.252439 Z-4.800000 I-7.688021 J4.403746
G02 X42.871959 Y125.668011 Z-4.800000 I19.373738 J-4.240510
G02 X43.059902 Y126.110211 Z-4.800000 I2.047879 J-0.609350
G02 X43.560890 Y126.618196 Z-4.800000 I1.190101 J-0.672672
G02 X46.108297 Y127.889957 Z-4.800000 I10.999517 J-18.845454
G03 X47.433548 Y128.492158 Z-4.800000 I-9.481697 J22.625501
G03 X47.636884 Y128.646480 Z-4.800000 I-0.293113 J0.597330
G03 X47.932463 Y129.307454 Z-4.800000 I-0.820409 J0.763453
G03 X47.858060 Y131.051516 Z-4.800000 I-6.495856 J0.596499
G03 X47.390404 Y131.962453 Z-4.800000 I-1.719748 J-0.307373
G03 X46.326371 Y132.625575 Z-4.800000 I-1.876661 J-1.826029
G02 X44.917352 Y133.774078 Z-4.800000 I0.784443 J2.400945
G02 X44.867544 Y135.179942 Z-4.800000 I1.314167 J0.750374
G02 X45.327471 Y135.769608 Z-4.800000 I1.581979 J-0.759711
G02 X46.285030 Y136.358687 Z-4.800000 I2.536660 J-3.050584
G03 X47.236571 Y137.093272 Z-4.800000 I-0.980137 J2.253195
G03 X47.398140 Y137.775663 Z-4.800000 I-0.655859 J0.515611
G03 X47.237612 Y138.179559 Z-4.800000 I-1.210544 J-0.247283
G03 X45.638558 Y140.613214 Z-4.800000 I-47.216434 J-29.281794
G02 X42.597194 Y145.304484 Z-4.800000 I71.014583 J49.370455
G02 X41.057959 Y148.205512 Z-4.800000 I25.556957 J15.418937
G02 X39.827966 Y151.372789 Z-4.800000 I24.759517 J11.437677
G02 X39.399146 Y153.418094 Z-4.800000 I9.834248 J3.129461
G02 X40.263157 Y159.409325 Z-4.800000 I12.240567 J1.292673
G02 X46.376497 Y170.312163 Z-4.800000 I48.510280 J-20.034917
G03 X52.059594 Y178.740789 Z-4.800000 I-110.543763 J80.665655
G03 X54.382728 Y183.194064 Z-4.800000 I-28.368744 J17.631671
G03 X56.001738 Y187.323399 Z-4.800000 I-63.855438 J27.418201
G03 X56.142826 Y188.141053 Z-4.800000 I-2.298755 J0.817653
G03 X56.098072 Y188.273483 Z-4.800000 I-0.218315 J-0.000000
G03 X55.194046 Y189.382835 Z-4.800000 I-17.786026 J-13.571059
G02 X53.936411 Y191.104097 Z-4.800000 I9.527804 J8.281537
G02 X53.431363 Y192.281885 Z-4.800000 I3.885257 J2.363219
G02 X53.315930 Y194.106488 Z-4.800000 I4.427532 J1.196059
G02 X54.001870 Y196.404112 Z-4.800000 I7.810837 J-1.080671
G02 X55.746211 Y198.509656 Z-4.800000 I5.010605 J-2.375719
G02 X58.659984 Y199.799772 Z-4.800000 I4.439093 J-6.090365
G02 X59.249328 Y199.889241 Z-4.800000 I1.218106 J-6.038036
G02 X59.859393 Y199.921210 Z-4.800000 I0.625102 J-6.091839
G01 X59.859393 Y199.921739 Z-4.800000
G01 X59.859393 Y205.018585 Z-4.800000
G01 X10.078454 Y205.018575 Z-4.800000
G01 X10.078454 Y9.921960 Z-4.800000


(End cutting path id: rect43328)


(Start cutting path id: rect43328)
(Change tool to Cylindrical cutter)


G00 X10.078454 Y9.921960

G01 Z-5.200000 F100.0(Penetrate)
G01 X22.634794 Y9.921960 Z-5.200000 F300.000000
G02 X21.750697 Y10.725578 Z-5.200000 I1.322402 J2.342962
G03 X21.101037 Y11.530653 Z-5.200000 I-6.080323 J-4.241885
G02 X20.488249 Y12.517324 Z-5.200000 I4.101595 J3.230988
G02 X20.141406 Y13.597182 Z-5.200000 I3.846163 J1.830994
G02 X19.939658 Y14.827305 Z-5.200000 I5.334638 J1.506521
G02 X19.988444 Y15.998593 Z-5.200000 I6.406306 J0.319827
G02 X20.795221 Y18.137116 Z-5.200000 I5.018907 J-0.671985
G02 X22.717993 Y20.089289 Z-5.200000 I6.052912 J-4.038756
G01 X23.650236 Y20.731645 Z-5.200000
G01 X23.099882 Y21.514520 Z-5.200000
G02 X21.938553 Y25.448849 Z-5.200000 I5.248534 J3.687818
G02 X23.499857 Y31.917011 Z-5.200000 I16.865934 J-0.648632
G02 X27.307231 Y37.768478 Z-5.200000 I22.429044 J-10.429499
G02 X31.965489 Y41.599094 Z-5.200000 I13.891912 J-12.145728
G03 X33.788351 Y43.196687 Z-5.200000 I-3.120939 J5.399748
G03 X34.504870 Y44.901226 Z-5.200000 I-2.875889 J2.211775
G02 X34.692970 Y45.897144 Z-5.200000 I10.811045 J-1.526171
G02 X34.872805 Y46.451499 Z-5.200000 I3.521853 J-0.836155
G02 X35.152875 Y46.961316 Z-5.200000 I2.489926 J-1.036014
G02 X36.624638 Y48.956257 Z-5.200000 I40.290381 J-28.183769
G03 X39.741181 Y53.515411 Z-5.200000 I-35.653785 J27.716959
G03 X42.602568 Y58.964438 Z-5.200000 I-48.148867 J28.759676
G03 X46.325574 Y69.501533 Z-5.200000 I-57.164775 J26.123935
G03 X48.394461 Y81.588377 Z-5.200000 I-73.333684 J18.772903
G03 X48.569558 Y83.942671 Z-5.200000 I-82.777240 J7.340084
G03 X49.053337 Y92.555673 Z-5.200000 I-1097.634047 J65.972504
G03 X49.299601 Y105.155291 Z-5.200000 I-192.822907 J10.071016
G03 X48.842495 Y108.675095 Z-5.200000 I-15.325720 J-0.200719
G03 X48.382292 Y109.454366 Z-5.200000 I-1.543826 J-0.386193
G03 X47.203320 Y110.199545 Z-5.200000 I-2.576424 J-2.771012
G02 X45.227281 Y111.293110 Z-5.200000 I3.282414 J8.263325
G02 X44.215388 Y112.390110 Z-5.200000 I2.301742 J3.138364
G02 X43.913405 Y113.017467 Z-5.200000 I2.877917 J1.771666
G02 X43.692423 Y113.842752 Z-5.200000 I4.801992 J1.728030
G03 X43.016303 Y114.989450 Z-5.200000 I-1.885020 J-0.338775
G03 X41.482740 Y115.641072 Z-5.200000 I-1.894235 J-2.327600
G02 X39.779483 Y116.226771 Z-5.200000 I0.516400 J4.271180
G02 X38.619863 Y117.365017 Z-5.200000 I1.807682 J3.001445
G02 X38.339318 Y118.222580 Z-5.200000 I1.579642 J0.991440
G02 X38.483439 Y119.260492 Z-5.200000 I2.508996 J0.180571
G02 X39.365937 Y120.530607 Z-5.200000 I2.832676 J-1.026548
G02 X40.750484 Y121.185442 Z-5.200000 I1.912209 J-2.251950
G03 X41.540017 Y121.743462 Z-5.200000 I-0.205102 J1.127754
G03 X42.506966 Y124.252439 Z-5.200000 I-7.688021 J4.403746
G02 X42.871959 Y125.668011 Z-5.200000 I19.373738 J-4.240510
G02 X43.059902 Y126.110211 Z-5.200000 I2.047879 J-0.609350
G02 X43.560890 Y126.618196 Z-5.200000 I1.190101 J-0.672672
G02 X46.108297 Y127.889957 Z-5.200000 I10.999517 J-18.845454
G03 X47.433548 Y128.492158 Z-5.200000 I-9.481697 J22.625501
G03 X47.636884 Y128.646480 Z-5.200000 I-0.293113 J0.597330
G03 X47.932463 Y129.307454 Z-5.200000 I-0.820409 J0.763453
G03 X47.858060 Y131.051516 Z-5.200000 I-6.495856 J0.596499
G03 X47.390404 Y131.962453 Z-5.200000 I-1.719748 J-0.307373
G03 X46.326371 Y132.625575 Z-5.200000 I-1.876661 J-1.826029
G02 X44.917352 Y133.774078 Z-5.200000 I0.784443 J2.400945
G02 X44.867544 Y135.179942 Z-5.200000 I1.314167 J0.750374
G02 X45.327471 Y135.769608 Z-5.200000 I1.581979 J-0.759711
G02 X46.285030 Y136.358687 Z-5.200000 I2.536660 J-3.050584
G03 X47.236571 Y137.093272 Z-5.200000 I-0.980137 J2.253195
G03 X47.398140 Y137.775663 Z-5.200000 I-0.655859 J0.515611
G03 X47.237612 Y138.179559 Z-5.200000 I-1.210544 J-0.247283
G03 X45.638558 Y140.613214 Z-5.200000 I-47.216434 J-29.281794
G02 X42.597194 Y145.304484 Z-5.200000 I71.014583 J49.370455
G02 X41.057959 Y148.205512 Z-5.200000 I25.556957 J15.418937
G02 X39.827966 Y151.372789 Z-5.200000 I24.759517 J11.437677
G02 X39.399146 Y153.418094 Z-5.200000 I9.834248 J3.129461
G02 X40.263157 Y159.409325 Z-5.200000 I12.240567 J1.292673
G02 X46.376497 Y170.312163 Z-5.200000 I48.510280 J-20.034917
G03 X52.059594 Y178.740789 Z-5.200000 I-110.543763 J80.665655
G03 X54.382728 Y183.194064 Z-5.200000 I-28.368744 J17.631671
G03 X56.001738 Y187.323399 Z-5.200000 I-63.855438 J27.418201
G03 X56.142826 Y188.141053 Z-5.200000 I-2.298755 J0.817653
G03 X56.098072 Y188.273483 Z-5.200000 I-0.218315 J-0.000000
G03 X55.194046 Y189.382835 Z-5.200000 I-17.786026 J-13.571059
G02 X53.936411 Y191.104097 Z-5.200000 I9.527804 J8.281537
G02 X53.431363 Y192.281885 Z-5.200000 I3.885257 J2.363219
G02 X53.315930 Y194.106488 Z-5.200000 I4.427532 J1.196059
G02 X54.001870 Y196.404112 Z-5.200000 I7.810837 J-1.080671
G02 X55.746211 Y198.509656 Z-5.200000 I5.010605 J-2.375719
G02 X58.659984 Y199.799772 Z-5.200000 I4.439093 J-6.090365
G02 X59.249328 Y199.889241 Z-5.200000 I1.218106 J-6.038036
G02 X59.859393 Y199.921210 Z-5.200000 I0.625102 J-6.091839
G01 X59.859393 Y199.921739 Z-5.200000
G01 X59.859393 Y205.018585 Z-5.200000
G01 X10.078454 Y205.018575 Z-5.200000
G01 X10.078454 Y9.921960 Z-5.200000


(End cutting path id: rect43328)


(Start cutting path id: rect43328)
(Change tool to Cylindrical cutter)


G00 X10.078454 Y9.921960

G01 Z-5.600000 F100.0(Penetrate)
G01 X22.634794 Y9.921960 Z-5.600000 F300.000000
G02 X21.750697 Y10.725578 Z-5.600000 I1.322402 J2.342962
G03 X21.101037 Y11.530653 Z-5.600000 I-6.080323 J-4.241885
G02 X20.488249 Y12.517324 Z-5.600000 I4.101595 J3.230988
G02 X20.141406 Y13.597182 Z-5.600000 I3.846163 J1.830994
G02 X19.939658 Y14.827305 Z-5.600000 I5.334638 J1.506521
G02 X19.988444 Y15.998593 Z-5.600000 I6.406306 J0.319827
G02 X20.795221 Y18.137116 Z-5.600000 I5.018907 J-0.671985
G02 X22.717993 Y20.089289 Z-5.600000 I6.052912 J-4.038756
G01 X23.650236 Y20.731645 Z-5.600000
G01 X23.099882 Y21.514520 Z-5.600000
G02 X21.938553 Y25.448849 Z-5.600000 I5.248534 J3.687818
G02 X23.499857 Y31.917011 Z-5.600000 I16.865934 J-0.648632
G02 X27.307231 Y37.768478 Z-5.600000 I22.429044 J-10.429499
G02 X31.965489 Y41.599094 Z-5.600000 I13.891912 J-12.145728
G03 X33.788351 Y43.196687 Z-5.600000 I-3.120939 J5.399748
G03 X34.504870 Y44.901226 Z-5.600000 I-2.875889 J2.211775
G02 X34.692970 Y45.897144 Z-5.600000 I10.811045 J-1.526171
G02 X34.872805 Y46.451499 Z-5.600000 I3.521853 J-0.836155
G02 X35.152875 Y46.961316 Z-5.600000 I2.489926 J-1.036014
G02 X36.624638 Y48.956257 Z-5.600000 I40.290381 J-28.183769
G03 X39.741181 Y53.515411 Z-5.600000 I-35.653785 J27.716959
G03 X42.602568 Y58.964438 Z-5.600000 I-48.148867 J28.759676
G03 X46.325574 Y69.501533 Z-5.600000 I-57.164775 J26.123935
G03 X48.394461 Y81.588377 Z-5.600000 I-73.333684 J18.772903
G03 X48.569558 Y83.942671 Z-5.600000 I-82.777240 J7.340084
G03 X49.053337 Y92.555673 Z-5.600000 I-1097.634047 J65.972504
G03 X49.299601 Y105.155291 Z-5.600000 I-192.822907 J10.071016
G03 X48.842495 Y108.675095 Z-5.600000 I-15.325720 J-0.200719
G03 X48.382292 Y109.454366 Z-5.600000 I-1.543826 J-0.386193
G03 X47.203320 Y110.199545 Z-5.600000 I-2.576424 J-2.771012
G02 X45.227281 Y111.293110 Z-5.600000 I3.282414 J8.263325
G02 X44.215388 Y112.390110 Z-5.600000 I2.301742 J3.138364
G02 X43.913405 Y113.017467 Z-5.600000 I2.877917 J1.771666
G02 X43.692423 Y113.842752 Z-5.600000 I4.801992 J1.728030
G03 X43.016303 Y114.989450 Z-5.600000 I-1.885020 J-0.338775
G03 X41.482740 Y115.641072 Z-5.600000 I-1.894235 J-2.327600
G02 X39.779483 Y116.226771 Z-5.600000 I0.516400 J4.271180
G02 X38.619863 Y117.365017 Z-5.600000 I1.807682 J3.001445
G02 X38.339318 Y118.222580 Z-5.600000 I1.579642 J0.991440
G02 X38.483439 Y119.260492 Z-5.600000 I2.508996 J0.180571
G02 X39.365937 Y120.530607 Z-5.600000 I2.832676 J-1.026548
G02 X40.750484 Y121.185442 Z-5.600000 I1.912209 J-2.251950
G03 X41.540017 Y121.743462 Z-5.600000 I-0.205102 J1.127754
G03 X42.506966 Y124.252439 Z-5.600000 I-7.688021 J4.403746
G02 X42.871959 Y125.668011 Z-5.600000 I19.373738 J-4.240510
G02 X43.059902 Y126.110211 Z-5.600000 I2.047879 J-0.609350
G02 X43.560890 Y126.618196 Z-5.600000 I1.190101 J-0.672672
G02 X46.108297 Y127.889957 Z-5.600000 I10.999517 J-18.845454
G03 X47.433548 Y128.492158 Z-5.600000 I-9.481697 J22.625501
G03 X47.636884 Y128.646480 Z-5.600000 I-0.293113 J0.597330
G03 X47.932463 Y129.307454 Z-5.600000 I-0.820409 J0.763453
G03 X47.858060 Y131.051516 Z-5.600000 I-6.495856 J0.596499
G03 X47.390404 Y131.962453 Z-5.600000 I-1.719748 J-0.307373
G03 X46.326371 Y132.625575 Z-5.600000 I-1.876661 J-1.826029
G02 X44.917352 Y133.774078 Z-5.600000 I0.784443 J2.400945
G02 X44.867544 Y135.179942 Z-5.600000 I1.314167 J0.750374
G02 X45.327471 Y135.769608 Z-5.600000 I1.581979 J-0.759711
G02 X46.285030 Y136.358687 Z-5.600000 I2.536660 J-3.050584
G03 X47.236571 Y137.093272 Z-5.600000 I-0.980137 J2.253195
G03 X47.398140 Y137.775663 Z-5.600000 I-0.655859 J0.515611
G03 X47.237612 Y138.179559 Z-5.600000 I-1.210544 J-0.247283
G03 X45.638558 Y140.613214 Z-5.600000 I-47.216434 J-29.281794
G02 X42.597194 Y145.304484 Z-5.600000 I71.014583 J49.370455
G02 X41.057959 Y148.205512 Z-5.600000 I25.556957 J15.418937
G02 X39.827966 Y151.372789 Z-5.600000 I24.759517 J11.437677
G02 X39.399146 Y153.418094 Z-5.600000 I9.834248 J3.129461
G02 X40.263157 Y159.409325 Z-5.600000 I12.240567 J1.292673
G02 X46.376497 Y170.312163 Z-5.600000 I48.510280 J-20.034917
G03 X52.059594 Y178.740789 Z-5.600000 I-110.543763 J80.665655
G03 X54.382728 Y183.194064 Z-5.600000 I-28.368744 J17.631671
G03 X56.001738 Y187.323399 Z-5.600000 I-63.855438 J27.418201
G03 X56.142826 Y188.141053 Z-5.600000 I-2.298755 J0.817653
G03 X56.098072 Y188.273483 Z-5.600000 I-0.218315 J-0.000000
G03 X55.194046 Y189.382835 Z-5.600000 I-17.786026 J-13.571059
G02 X53.936411 Y191.104097 Z-5.600000 I9.527804 J8.281537
G02 X53.431363 Y192.281885 Z-5.600000 I3.885257 J2.363219
G02 X53.315930 Y194.106488 Z-5.600000 I4.427532 J1.196059
G02 X54.001870 Y196.404112 Z-5.600000 I7.810837 J-1.080671
G02 X55.746211 Y198.509656 Z-5.600000 I5.010605 J-2.375719
G02 X58.659984 Y199.799772 Z-5.600000 I4.439093 J-6.090365
G02 X59.249328 Y199.889241 Z-5.600000 I1.218106 J-6.038036
G02 X59.859393 Y199.921210 Z-5.600000 I0.625102 J-6.091839
G01 X59.859393 Y199.921739 Z-5.600000
G01 X59.859393 Y205.018585 Z-5.600000
G01 X10.078454 Y205.018575 Z-5.600000
G01 X10.078454 Y9.921960 Z-5.600000


(End cutting path id: rect43328)


(Start cutting path id: rect43328)
(Change tool to Cylindrical cutter)


G00 X10.078454 Y9.921960

G01 Z-6.000000 F100.0(Penetrate)
G01 X22.634794 Y9.921960 Z-6.000000 F300.000000
G02 X21.750697 Y10.725578 Z-6.000000 I1.322402 J2.342962
G03 X21.101037 Y11.530653 Z-6.000000 I-6.080323 J-4.241885
G02 X20.488249 Y12.517324 Z-6.000000 I4.101595 J3.230988
G02 X20.141406 Y13.597182 Z-6.000000 I3.846163 J1.830994
G02 X19.939658 Y14.827305 Z-6.000000 I5.334638 J1.506521
G02 X19.988444 Y15.998593 Z-6.000000 I6.406306 J0.319827
G02 X20.795221 Y18.137116 Z-6.000000 I5.018907 J-0.671985
G02 X22.717993 Y20.089289 Z-6.000000 I6.052912 J-4.038756
G01 X23.650236 Y20.731645 Z-6.000000
G01 X23.099882 Y21.514520 Z-6.000000
G02 X21.938553 Y25.448849 Z-6.000000 I5.248534 J3.687818
G02 X23.499857 Y31.917011 Z-6.000000 I16.865934 J-0.648632
G02 X27.307231 Y37.768478 Z-6.000000 I22.429044 J-10.429499
G02 X31.965489 Y41.599094 Z-6.000000 I13.891912 J-12.145728
G03 X33.788351 Y43.196687 Z-6.000000 I-3.120939 J5.399748
G03 X34.504870 Y44.901226 Z-6.000000 I-2.875889 J2.211775
G02 X34.692970 Y45.897144 Z-6.000000 I10.811045 J-1.526171
G02 X34.872805 Y46.451499 Z-6.000000 I3.521853 J-0.836155
G02 X35.152875 Y46.961316 Z-6.000000 I2.489926 J-1.036014
G02 X36.624638 Y48.956257 Z-6.000000 I40.290381 J-28.183769
G03 X39.741181 Y53.515411 Z-6.000000 I-35.653785 J27.716959
G03 X42.602568 Y58.964438 Z-6.000000 I-48.148867 J28.759676
G03 X46.325574 Y69.501533 Z-6.000000 I-57.164775 J26.123935
G03 X48.394461 Y81.588377 Z-6.000000 I-73.333684 J18.772903
G03 X48.569558 Y83.942671 Z-6.000000 I-82.777240 J7.340084
G03 X49.053337 Y92.555673 Z-6.000000 I-1097.634047 J65.972504
G03 X49.299601 Y105.155291 Z-6.000000 I-192.822907 J10.071016
G03 X48.842495 Y108.675095 Z-6.000000 I-15.325720 J-0.200719
G03 X48.382292 Y109.454366 Z-6.000000 I-1.543826 J-0.386193
G03 X47.203320 Y110.199545 Z-6.000000 I-2.576424 J-2.771012
G02 X45.227281 Y111.293110 Z-6.000000 I3.282414 J8.263325
G02 X44.215388 Y112.390110 Z-6.000000 I2.301742 J3.138364
G02 X43.913405 Y113.017467 Z-6.000000 I2.877917 J1.771666
G02 X43.692423 Y113.842752 Z-6.000000 I4.801992 J1.728030
G03 X43.016303 Y114.989450 Z-6.000000 I-1.885020 J-0.338775
G03 X41.482740 Y115.641072 Z-6.000000 I-1.894235 J-2.327600
G02 X39.779483 Y116.226771 Z-6.000000 I0.516400 J4.271180
G02 X38.619863 Y117.365017 Z-6.000000 I1.807682 J3.001445
G02 X38.339318 Y118.222580 Z-6.000000 I1.579642 J0.991440
G02 X38.483439 Y119.260492 Z-6.000000 I2.508996 J0.180571
G02 X39.365937 Y120.530607 Z-6.000000 I2.832676 J-1.026548
G02 X40.750484 Y121.185442 Z-6.000000 I1.912209 J-2.251950
G03 X41.540017 Y121.743462 Z-6.000000 I-0.205102 J1.127754
G03 X42.506966 Y124.252439 Z-6.000000 I-7.688021 J4.403746
G02 X42.871959 Y125.668011 Z-6.000000 I19.373738 J-4.240510
G02 X43.059902 Y126.110211 Z-6.000000 I2.047879 J-0.609350
G02 X43.560890 Y126.618196 Z-6.000000 I1.190101 J-0.672672
G02 X46.108297 Y127.889957 Z-6.000000 I10.999517 J-18.845454
G03 X47.433548 Y128.492158 Z-6.000000 I-9.481697 J22.625501
G03 X47.636884 Y128.646480 Z-6.000000 I-0.293113 J0.597330
G03 X47.932463 Y129.307454 Z-6.000000 I-0.820409 J0.763453
G03 X47.858060 Y131.051516 Z-6.000000 I-6.495856 J0.596499
G03 X47.390404 Y131.962453 Z-6.000000 I-1.719748 J-0.307373
G03 X46.326371 Y132.625575 Z-6.000000 I-1.876661 J-1.826029
G02 X44.917352 Y133.774078 Z-6.000000 I0.784443 J2.400945
G02 X44.867544 Y135.179942 Z-6.000000 I1.314167 J0.750374
G02 X45.327471 Y135.769608 Z-6.000000 I1.581979 J-0.759711
G02 X46.285030 Y136.358687 Z-6.000000 I2.536660 J-3.050584
G03 X47.236571 Y137.093272 Z-6.000000 I-0.980137 J2.253195
G03 X47.398140 Y137.775663 Z-6.000000 I-0.655859 J0.515611
G03 X47.237612 Y138.179559 Z-6.000000 I-1.210544 J-0.247283
G03 X45.638558 Y140.613214 Z-6.000000 I-47.216434 J-29.281794
G02 X42.597194 Y145.304484 Z-6.000000 I71.014583 J49.370455
G02 X41.057959 Y148.205512 Z-6.000000 I25.556957 J15.418937
G02 X39.827966 Y151.372789 Z-6.000000 I24.759517 J11.437677
G02 X39.399146 Y153.418094 Z-6.000000 I9.834248 J3.129461
G02 X40.263157 Y159.409325 Z-6.000000 I12.240567 J1.292673
G02 X46.376497 Y170.312163 Z-6.000000 I48.510280 J-20.034917
G03 X52.059594 Y178.740789 Z-6.000000 I-110.543763 J80.665655
G03 X54.382728 Y183.194064 Z-6.000000 I-28.368744 J17.631671
G03 X56.001738 Y187.323399 Z-6.000000 I-63.855438 J27.418201
G03 X56.142826 Y188.141053 Z-6.000000 I-2.298755 J0.817653
G03 X56.098072 Y188.273483 Z-6.000000 I-0.218315 J-0.000000
G03 X55.194046 Y189.382835 Z-6.000000 I-17.786026 J-13.571059
G02 X53.936411 Y191.104097 Z-6.000000 I9.527804 J8.281537
G02 X53.431363 Y192.281885 Z-6.000000 I3.885257 J2.363219
G02 X53.315930 Y194.106488 Z-6.000000 I4.427532 J1.196059
G02 X54.001870 Y196.404112 Z-6.000000 I7.810837 J-1.080671
G02 X55.746211 Y198.509656 Z-6.000000 I5.010605 J-2.375719
G02 X58.659984 Y199.799772 Z-6.000000 I4.439093 J-6.090365
G02 X59.249328 Y199.889241 Z-6.000000 I1.218106 J-6.038036
G02 X59.859393 Y199.921210 Z-6.000000 I0.625102 J-6.091839
G01 X59.859393 Y199.921739 Z-6.000000
G01 X59.859393 Y205.018585 Z-6.000000
G01 X10.078454 Y205.018575 Z-6.000000
G01 X10.078454 Y9.921960 Z-6.000000


(End cutting path id: rect43328)


(Start cutting path id: rect43328)
(Change tool to Cylindrical cutter)


G00 X10.078454 Y9.921960

G01 Z-6.400000 F100.0(Penetrate)
G01 X22.634794 Y9.921960 Z-6.400000 F300.000000
G02 X21.750697 Y10.725578 Z-6.400000 I1.322402 J2.342962
G03 X21.101037 Y11.530653 Z-6.400000 I-6.080323 J-4.241885
G02 X20.488249 Y12.517324 Z-6.400000 I4.101595 J3.230988
G02 X20.141406 Y13.597182 Z-6.400000 I3.846163 J1.830994
G02 X19.939658 Y14.827305 Z-6.400000 I5.334638 J1.506521
G02 X19.988444 Y15.998593 Z-6.400000 I6.406306 J0.319827
G02 X20.795221 Y18.137116 Z-6.400000 I5.018907 J-0.671985
G02 X22.717993 Y20.089289 Z-6.400000 I6.052912 J-4.038756
G01 X23.650236 Y20.731645 Z-6.400000
G01 X23.099882 Y21.514520 Z-6.400000
G02 X21.938553 Y25.448849 Z-6.400000 I5.248534 J3.687818
G02 X23.499857 Y31.917011 Z-6.400000 I16.865934 J-0.648632
G02 X27.307231 Y37.768478 Z-6.400000 I22.429044 J-10.429499
G02 X31.965489 Y41.599094 Z-6.400000 I13.891912 J-12.145728
G03 X33.788351 Y43.196687 Z-6.400000 I-3.120939 J5.399748
G03 X34.504870 Y44.901226 Z-6.400000 I-2.875889 J2.211775
G02 X34.692970 Y45.897144 Z-6.400000 I10.811045 J-1.526171
G02 X34.872805 Y46.451499 Z-6.400000 I3.521853 J-0.836155
G02 X35.152875 Y46.961316 Z-6.400000 I2.489926 J-1.036014
G02 X36.624638 Y48.956257 Z-6.400000 I40.290381 J-28.183769
G03 X39.741181 Y53.515411 Z-6.400000 I-35.653785 J27.716959
G03 X42.602568 Y58.964438 Z-6.400000 I-48.148867 J28.759676
G03 X46.325574 Y69.501533 Z-6.400000 I-57.164775 J26.123935
G03 X48.394461 Y81.588377 Z-6.400000 I-73.333684 J18.772903
G03 X48.569558 Y83.942671 Z-6.400000 I-82.777240 J7.340084
G03 X49.053337 Y92.555673 Z-6.400000 I-1097.634047 J65.972504
G03 X49.299601 Y105.155291 Z-6.400000 I-192.822907 J10.071016
G03 X48.842495 Y108.675095 Z-6.400000 I-15.325720 J-0.200719
G03 X48.382292 Y109.454366 Z-6.400000 I-1.543826 J-0.386193
G03 X47.203320 Y110.199545 Z-6.400000 I-2.576424 J-2.771012
G02 X45.227281 Y111.293110 Z-6.400000 I3.282414 J8.263325
G02 X44.215388 Y112.390110 Z-6.400000 I2.301742 J3.138364
G02 X43.913405 Y113.017467 Z-6.400000 I2.877917 J1.771666
G02 X43.692423 Y113.842752 Z-6.400000 I4.801992 J1.728030
G03 X43.016303 Y114.989450 Z-6.400000 I-1.885020 J-0.338775
G03 X41.482740 Y115.641072 Z-6.400000 I-1.894235 J-2.327600
G02 X39.779483 Y116.226771 Z-6.400000 I0.516400 J4.271180
G02 X38.619863 Y117.365017 Z-6.400000 I1.807682 J3.001445
G02 X38.339318 Y118.222580 Z-6.400000 I1.579642 J0.991440
G02 X38.483439 Y119.260492 Z-6.400000 I2.508996 J0.180571
G02 X39.365937 Y120.530607 Z-6.400000 I2.832676 J-1.026548
G02 X40.750484 Y121.185442 Z-6.400000 I1.912209 J-2.251950
G03 X41.540017 Y121.743462 Z-6.400000 I-0.205102 J1.127754
G03 X42.506966 Y124.252439 Z-6.400000 I-7.688021 J4.403746
G02 X42.871959 Y125.668011 Z-6.400000 I19.373738 J-4.240510
G02 X43.059902 Y126.110211 Z-6.400000 I2.047879 J-0.609350
G02 X43.560890 Y126.618196 Z-6.400000 I1.190101 J-0.672672
G02 X46.108297 Y127.889957 Z-6.400000 I10.999517 J-18.845454
G03 X47.433548 Y128.492158 Z-6.400000 I-9.481697 J22.625501
G03 X47.636884 Y128.646480 Z-6.400000 I-0.293113 J0.597330
G03 X47.932463 Y129.307454 Z-6.400000 I-0.820409 J0.763453
G03 X47.858060 Y131.051516 Z-6.400000 I-6.495856 J0.596499
G03 X47.390404 Y131.962453 Z-6.400000 I-1.719748 J-0.307373
G03 X46.326371 Y132.625575 Z-6.400000 I-1.876661 J-1.826029
G02 X44.917352 Y133.774078 Z-6.400000 I0.784443 J2.400945
G02 X44.867544 Y135.179942 Z-6.400000 I1.314167 J0.750374
G02 X45.327471 Y135.769608 Z-6.400000 I1.581979 J-0.759711
G02 X46.285030 Y136.358687 Z-6.400000 I2.536660 J-3.050584
G03 X47.236571 Y137.093272 Z-6.400000 I-0.980137 J2.253195
G03 X47.398140 Y137.775663 Z-6.400000 I-0.655859 J0.515611
G03 X47.237612 Y138.179559 Z-6.400000 I-1.210544 J-0.247283
G03 X45.638558 Y140.613214 Z-6.400000 I-47.216434 J-29.281794
G02 X42.597194 Y145.304484 Z-6.400000 I71.014583 J49.370455
G02 X41.057959 Y148.205512 Z-6.400000 I25.556957 J15.418937
G02 X39.827966 Y151.372789 Z-6.400000 I24.759517 J11.437677
G02 X39.399146 Y153.418094 Z-6.400000 I9.834248 J3.129461
G02 X40.263157 Y159.409325 Z-6.400000 I12.240567 J1.292673
G02 X46.376497 Y170.312163 Z-6.400000 I48.510280 J-20.034917
G03 X52.059594 Y178.740789 Z-6.400000 I-110.543763 J80.665655
G03 X54.382728 Y183.194064 Z-6.400000 I-28.368744 J17.631671
G03 X56.001738 Y187.323399 Z-6.400000 I-63.855438 J27.418201
G03 X56.142826 Y188.141053 Z-6.400000 I-2.298755 J0.817653
G03 X56.098072 Y188.273483 Z-6.400000 I-0.218315 J-0.000000
G03 X55.194046 Y189.382835 Z-6.400000 I-17.786026 J-13.571059
G02 X53.936411 Y191.104097 Z-6.400000 I9.527804 J8.281537
G02 X53.431363 Y192.281885 Z-6.400000 I3.885257 J2.363219
G02 X53.315930 Y194.106488 Z-6.400000 I4.427532 J1.196059
G02 X54.001870 Y196.404112 Z-6.400000 I7.810837 J-1.080671
G02 X55.746211 Y198.509656 Z-6.400000 I5.010605 J-2.375719
G02 X58.659984 Y199.799772 Z-6.400000 I4.439093 J-6.090365
G02 X59.249328 Y199.889241 Z-6.400000 I1.218106 J-6.038036
G02 X59.859393 Y199.921210 Z-6.400000 I0.625102 J-6.091839
G01 X59.859393 Y199.921739 Z-6.400000
G01 X59.859393 Y205.018585 Z-6.400000
G01 X10.078454 Y205.018575 Z-6.400000
G01 X10.078454 Y9.921960 Z-6.400000


(End cutting path id: rect43328)


(Start cutting path id: rect43328)
(Change tool to Cylindrical cutter)


G00 X10.078454 Y9.921960

G01 Z-6.800000 F100.0(Penetrate)
G01 X22.634794 Y9.921960 Z-6.800000 F300.000000
G02 X21.750697 Y10.725578 Z-6.800000 I1.322402 J2.342962
G03 X21.101037 Y11.530653 Z-6.800000 I-6.080323 J-4.241885
G02 X20.488249 Y12.517324 Z-6.800000 I4.101595 J3.230988
G02 X20.141406 Y13.597182 Z-6.800000 I3.846163 J1.830994
G02 X19.939658 Y14.827305 Z-6.800000 I5.334638 J1.506521
G02 X19.988444 Y15.998593 Z-6.800000 I6.406306 J0.319827
G02 X20.795221 Y18.137116 Z-6.800000 I5.018907 J-0.671985
G02 X22.717993 Y20.089289 Z-6.800000 I6.052912 J-4.038756
G01 X23.650236 Y20.731645 Z-6.800000
G01 X23.099882 Y21.514520 Z-6.800000
G02 X21.938553 Y25.448849 Z-6.800000 I5.248534 J3.687818
G02 X23.499857 Y31.917011 Z-6.800000 I16.865934 J-0.648632
G02 X27.307231 Y37.768478 Z-6.800000 I22.429044 J-10.429499
G02 X31.965489 Y41.599094 Z-6.800000 I13.891912 J-12.145728
G03 X33.788351 Y43.196687 Z-6.800000 I-3.120939 J5.399748
G03 X34.504870 Y44.901226 Z-6.800000 I-2.875889 J2.211775
G02 X34.692970 Y45.897144 Z-6.800000 I10.811045 J-1.526171
G02 X34.872805 Y46.451499 Z-6.800000 I3.521853 J-0.836155
G02 X35.152875 Y46.961316 Z-6.800000 I2.489926 J-1.036014
G02 X36.624638 Y48.956257 Z-6.800000 I40.290381 J-28.183769
G03 X39.741181 Y53.515411 Z-6.800000 I-35.653785 J27.716959
G03 X42.602568 Y58.964438 Z-6.800000 I-48.148867 J28.759676
G03 X46.325574 Y69.501533 Z-6.800000 I-57.164775 J26.123935
G03 X48.394461 Y81.588377 Z-6.800000 I-73.333684 J18.772903
G03 X48.569558 Y83.942671 Z-6.800000 I-82.777240 J7.340084
G03 X49.053337 Y92.555673 Z-6.800000 I-1097.634047 J65.972504
G03 X49.299601 Y105.155291 Z-6.800000 I-192.822907 J10.071016
G03 X48.842495 Y108.675095 Z-6.800000 I-15.325720 J-0.200719
G03 X48.382292 Y109.454366 Z-6.800000 I-1.543826 J-0.386193
G03 X47.203320 Y110.199545 Z-6.800000 I-2.576424 J-2.771012
G02 X45.227281 Y111.293110 Z-6.800000 I3.282414 J8.263325
G02 X44.215388 Y112.390110 Z-6.800000 I2.301742 J3.138364
G02 X43.913405 Y113.017467 Z-6.800000 I2.877917 J1.771666
G02 X43.692423 Y113.842752 Z-6.800000 I4.801992 J1.728030
G03 X43.016303 Y114.989450 Z-6.800000 I-1.885020 J-0.338775
G03 X41.482740 Y115.641072 Z-6.800000 I-1.894235 J-2.327600
G02 X39.779483 Y116.226771 Z-6.800000 I0.516400 J4.271180
G02 X38.619863 Y117.365017 Z-6.800000 I1.807682 J3.001445
G02 X38.339318 Y118.222580 Z-6.800000 I1.579642 J0.991440
G02 X38.483439 Y119.260492 Z-6.800000 I2.508996 J0.180571
G02 X39.365937 Y120.530607 Z-6.800000 I2.832676 J-1.026548
G02 X40.750484 Y121.185442 Z-6.800000 I1.912209 J-2.251950
G03 X41.540017 Y121.743462 Z-6.800000 I-0.205102 J1.127754
G03 X42.506966 Y124.252439 Z-6.800000 I-7.688021 J4.403746
G02 X42.871959 Y125.668011 Z-6.800000 I19.373738 J-4.240510
G02 X43.059902 Y126.110211 Z-6.800000 I2.047879 J-0.609350
G02 X43.560890 Y126.618196 Z-6.800000 I1.190101 J-0.672672
G02 X46.108297 Y127.889957 Z-6.800000 I10.999517 J-18.845454
G03 X47.433548 Y128.492158 Z-6.800000 I-9.481697 J22.625501
G03 X47.636884 Y128.646480 Z-6.800000 I-0.293113 J0.597330
G03 X47.932463 Y129.307454 Z-6.800000 I-0.820409 J0.763453
G03 X47.858060 Y131.051516 Z-6.800000 I-6.495856 J0.596499
G03 X47.390404 Y131.962453 Z-6.800000 I-1.719748 J-0.307373
G03 X46.326371 Y132.625575 Z-6.800000 I-1.876661 J-1.826029
G02 X44.917352 Y133.774078 Z-6.800000 I0.784443 J2.400945
G02 X44.867544 Y135.179942 Z-6.800000 I1.314167 J0.750374
G02 X45.327471 Y135.769608 Z-6.800000 I1.581979 J-0.759711
G02 X46.285030 Y136.358687 Z-6.800000 I2.536660 J-3.050584
G03 X47.236571 Y137.093272 Z-6.800000 I-0.980137 J2.253195
G03 X47.398140 Y137.775663 Z-6.800000 I-0.655859 J0.515611
G03 X47.237612 Y138.179559 Z-6.800000 I-1.210544 J-0.247283
G03 X45.638558 Y140.613214 Z-6.800000 I-47.216434 J-29.281794
G02 X42.597194 Y145.304484 Z-6.800000 I71.014583 J49.370455
G02 X41.057959 Y148.205512 Z-6.800000 I25.556957 J15.418937
G02 X39.827966 Y151.372789 Z-6.800000 I24.759517 J11.437677
G02 X39.399146 Y153.418094 Z-6.800000 I9.834248 J3.129461
G02 X40.263157 Y159.409325 Z-6.800000 I12.240567 J1.292673
G02 X46.376497 Y170.312163 Z-6.800000 I48.510280 J-20.034917
G03 X52.059594 Y178.740789 Z-6.800000 I-110.543763 J80.665655
G03 X54.382728 Y183.194064 Z-6.800000 I-28.368744 J17.631671
G03 X56.001738 Y187.323399 Z-6.800000 I-63.855438 J27.418201
G03 X56.142826 Y188.141053 Z-6.800000 I-2.298755 J0.817653
G03 X56.098072 Y188.273483 Z-6.800000 I-0.218315 J-0.000000
G03 X55.194046 Y189.382835 Z-6.800000 I-17.786026 J-13.571059
G02 X53.936411 Y191.104097 Z-6.800000 I9.527804 J8.281537
G02 X53.431363 Y192.281885 Z-6.800000 I3.885257 J2.363219
G02 X53.315930 Y194.106488 Z-6.800000 I4.427532 J1.196059
G02 X54.001870 Y196.404112 Z-6.800000 I7.810837 J-1.080671
G02 X55.746211 Y198.509656 Z-6.800000 I5.010605 J-2.375719
G02 X58.659984 Y199.799772 Z-6.800000 I4.439093 J-6.090365
G02 X59.249328 Y199.889241 Z-6.800000 I1.218106 J-6.038036
G02 X59.859393 Y199.921210 Z-6.800000 I0.625102 J-6.091839
G01 X59.859393 Y199.921739 Z-6.800000
G01 X59.859393 Y205.018585 Z-6.800000
G01 X10.078454 Y205.018575 Z-6.800000
G01 X10.078454 Y9.921960 Z-6.800000


(End cutting path id: rect43328)


(Start cutting path id: rect43328)
(Change tool to Cylindrical cutter)


G00 X10.078454 Y9.921960

G01 Z-7.200000 F100.0(Penetrate)
G01 X22.634794 Y9.921960 Z-7.200000 F300.000000
G02 X21.750697 Y10.725578 Z-7.200000 I1.322402 J2.342962
G03 X21.101037 Y11.530653 Z-7.200000 I-6.080323 J-4.241885
G02 X20.488249 Y12.517324 Z-7.200000 I4.101595 J3.230988
G02 X20.141406 Y13.597182 Z-7.200000 I3.846163 J1.830994
G02 X19.939658 Y14.827305 Z-7.200000 I5.334638 J1.506521
G02 X19.988444 Y15.998593 Z-7.200000 I6.406306 J0.319827
G02 X20.795221 Y18.137116 Z-7.200000 I5.018907 J-0.671985
G02 X22.717993 Y20.089289 Z-7.200000 I6.052912 J-4.038756
G01 X23.650236 Y20.731645 Z-7.200000
G01 X23.099882 Y21.514520 Z-7.200000
G02 X21.938553 Y25.448849 Z-7.200000 I5.248534 J3.687818
G02 X23.499857 Y31.917011 Z-7.200000 I16.865934 J-0.648632
G02 X27.307231 Y37.768478 Z-7.200000 I22.429044 J-10.429499
G02 X31.965489 Y41.599094 Z-7.200000 I13.891912 J-12.145728
G03 X33.788351 Y43.196687 Z-7.200000 I-3.120939 J5.399748
G03 X34.504870 Y44.901226 Z-7.200000 I-2.875889 J2.211775
G02 X34.692970 Y45.897144 Z-7.200000 I10.811045 J-1.526171
G02 X34.872805 Y46.451499 Z-7.200000 I3.521853 J-0.836155
G02 X35.152875 Y46.961316 Z-7.200000 I2.489926 J-1.036014
G02 X36.624638 Y48.956257 Z-7.200000 I40.290381 J-28.183769
G03 X39.741181 Y53.515411 Z-7.200000 I-35.653785 J27.716959
G03 X42.602568 Y58.964438 Z-7.200000 I-48.148867 J28.759676
G03 X46.325574 Y69.501533 Z-7.200000 I-57.164775 J26.123935
G03 X48.394461 Y81.588377 Z-7.200000 I-73.333684 J18.772903
G03 X48.569558 Y83.942671 Z-7.200000 I-82.777240 J7.340084
G03 X49.053337 Y92.555673 Z-7.200000 I-1097.634047 J65.972504
G03 X49.299601 Y105.155291 Z-7.200000 I-192.822907 J10.071016
G03 X48.842495 Y108.675095 Z-7.200000 I-15.325720 J-0.200719
G03 X48.382292 Y109.454366 Z-7.200000 I-1.543826 J-0.386193
G03 X47.203320 Y110.199545 Z-7.200000 I-2.576424 J-2.771012
G02 X45.227281 Y111.293110 Z-7.200000 I3.282414 J8.263325
G02 X44.215388 Y112.390110 Z-7.200000 I2.301742 J3.138364
G02 X43.913405 Y113.017467 Z-7.200000 I2.877917 J1.771666
G02 X43.692423 Y113.842752 Z-7.200000 I4.801992 J1.728030
G03 X43.016303 Y114.989450 Z-7.200000 I-1.885020 J-0.338775
G03 X41.482740 Y115.641072 Z-7.200000 I-1.894235 J-2.327600
G02 X39.779483 Y116.226771 Z-7.200000 I0.516400 J4.271180
G02 X38.619863 Y117.365017 Z-7.200000 I1.807682 J3.001445
G02 X38.339318 Y118.222580 Z-7.200000 I1.579642 J0.991440
G02 X38.483439 Y119.260492 Z-7.200000 I2.508996 J0.180571
G02 X39.365937 Y120.530607 Z-7.200000 I2.832676 J-1.026548
G02 X40.750484 Y121.185442 Z-7.200000 I1.912209 J-2.251950
G03 X41.540017 Y121.743462 Z-7.200000 I-0.205102 J1.127754
G03 X42.506966 Y124.252439 Z-7.200000 I-7.688021 J4.403746
G02 X42.871959 Y125.668011 Z-7.200000 I19.373738 J-4.240510
G02 X43.059902 Y126.110211 Z-7.200000 I2.047879 J-0.609350
G02 X43.560890 Y126.618196 Z-7.200000 I1.190101 J-0.672672
G02 X46.108297 Y127.889957 Z-7.200000 I10.999517 J-18.845454
G03 X47.433548 Y128.492158 Z-7.200000 I-9.481697 J22.625501
G03 X47.636884 Y128.646480 Z-7.200000 I-0.293113 J0.597330
G03 X47.932463 Y129.307454 Z-7.200000 I-0.820409 J0.763453
G03 X47.858060 Y131.051516 Z-7.200000 I-6.495856 J0.596499
G03 X47.390404 Y131.962453 Z-7.200000 I-1.719748 J-0.307373
G03 X46.326371 Y132.625575 Z-7.200000 I-1.876661 J-1.826029
G02 X44.917352 Y133.774078 Z-7.200000 I0.784443 J2.400945
G02 X44.867544 Y135.179942 Z-7.200000 I1.314167 J0.750374
G02 X45.327471 Y135.769608 Z-7.200000 I1.581979 J-0.759711
G02 X46.285030 Y136.358687 Z-7.200000 I2.536660 J-3.050584
G03 X47.236571 Y137.093272 Z-7.200000 I-0.980137 J2.253195
G03 X47.398140 Y137.775663 Z-7.200000 I-0.655859 J0.515611
G03 X47.237612 Y138.179559 Z-7.200000 I-1.210544 J-0.247283
G03 X45.638558 Y140.613214 Z-7.200000 I-47.216434 J-29.281794
G02 X42.597194 Y145.304484 Z-7.200000 I71.014583 J49.370455
G02 X41.057959 Y148.205512 Z-7.200000 I25.556957 J15.418937
G02 X39.827966 Y151.372789 Z-7.200000 I24.759517 J11.437677
G02 X39.399146 Y153.418094 Z-7.200000 I9.834248 J3.129461
G02 X40.263157 Y159.409325 Z-7.200000 I12.240567 J1.292673
G02 X46.376497 Y170.312163 Z-7.200000 I48.510280 J-20.034917
G03 X52.059594 Y178.740789 Z-7.200000 I-110.543763 J80.665655
G03 X54.382728 Y183.194064 Z-7.200000 I-28.368744 J17.631671
G03 X56.001738 Y187.323399 Z-7.200000 I-63.855438 J27.418201
G03 X56.142826 Y188.141053 Z-7.200000 I-2.298755 J0.817653
G03 X56.098072 Y188.273483 Z-7.200000 I-0.218315 J-0.000000
G03 X55.194046 Y189.382835 Z-7.200000 I-17.786026 J-13.571059
G02 X53.936411 Y191.104097 Z-7.200000 I9.527804 J8.281537
G02 X53.431363 Y192.281885 Z-7.200000 I3.885257 J2.363219
G02 X53.315930 Y194.106488 Z-7.200000 I4.427532 J1.196059
G02 X54.001870 Y196.404112 Z-7.200000 I7.810837 J-1.080671
G02 X55.746211 Y198.509656 Z-7.200000 I5.010605 J-2.375719
G02 X58.659984 Y199.799772 Z-7.200000 I4.439093 J-6.090365
G02 X59.249328 Y199.889241 Z-7.200000 I1.218106 J-6.038036
G02 X59.859393 Y199.921210 Z-7.200000 I0.625102 J-6.091839
G01 X59.859393 Y199.921739 Z-7.200000
G01 X59.859393 Y205.018585 Z-7.200000
G01 X10.078454 Y205.018575 Z-7.200000
G01 X10.078454 Y9.921960 Z-7.200000


(End cutting path id: rect43328)


(Start cutting path id: rect43328)
(Change tool to Cylindrical cutter)


G00 X10.078454 Y9.921960

G01 Z-7.600000 F100.0(Penetrate)
G01 X22.634794 Y9.921960 Z-7.600000 F300.000000
G02 X21.750697 Y10.725578 Z-7.600000 I1.322402 J2.342962
G03 X21.101037 Y11.530653 Z-7.600000 I-6.080323 J-4.241885
G02 X20.488249 Y12.517324 Z-7.600000 I4.101595 J3.230988
G02 X20.141406 Y13.597182 Z-7.600000 I3.846163 J1.830994
G02 X19.939658 Y14.827305 Z-7.600000 I5.334638 J1.506521
G02 X19.988444 Y15.998593 Z-7.600000 I6.406306 J0.319827
G02 X20.795221 Y18.137116 Z-7.600000 I5.018907 J-0.671985
G02 X22.717993 Y20.089289 Z-7.600000 I6.052912 J-4.038756
G01 X23.650236 Y20.731645 Z-7.600000
G01 X23.099882 Y21.514520 Z-7.600000
G02 X21.938553 Y25.448849 Z-7.600000 I5.248534 J3.687818
G02 X23.499857 Y31.917011 Z-7.600000 I16.865934 J-0.648632
G02 X27.307231 Y37.768478 Z-7.600000 I22.429044 J-10.429499
G02 X31.965489 Y41.599094 Z-7.600000 I13.891912 J-12.145728
G03 X33.788351 Y43.196687 Z-7.600000 I-3.120939 J5.399748
G03 X34.504870 Y44.901226 Z-7.600000 I-2.875889 J2.211775
G02 X34.692970 Y45.897144 Z-7.600000 I10.811045 J-1.526171
G02 X34.872805 Y46.451499 Z-7.600000 I3.521853 J-0.836155
G02 X35.152875 Y46.961316 Z-7.600000 I2.489926 J-1.036014
G02 X36.624638 Y48.956257 Z-7.600000 I40.290381 J-28.183769
G03 X39.741181 Y53.515411 Z-7.600000 I-35.653785 J27.716959
G03 X42.602568 Y58.964438 Z-7.600000 I-48.148867 J28.759676
G03 X46.325574 Y69.501533 Z-7.600000 I-57.164775 J26.123935
G03 X48.394461 Y81.588377 Z-7.600000 I-73.333684 J18.772903
G03 X48.569558 Y83.942671 Z-7.600000 I-82.777240 J7.340084
G03 X49.053337 Y92.555673 Z-7.600000 I-1097.634047 J65.972504
G03 X49.299601 Y105.155291 Z-7.600000 I-192.822907 J10.071016
G03 X48.842495 Y108.675095 Z-7.600000 I-15.325720 J-0.200719
G03 X48.382292 Y109.454366 Z-7.600000 I-1.543826 J-0.386193
G03 X47.203320 Y110.199545 Z-7.600000 I-2.576424 J-2.771012
G02 X45.227281 Y111.293110 Z-7.600000 I3.282414 J8.263325
G02 X44.215388 Y112.390110 Z-7.600000 I2.301742 J3.138364
G02 X43.913405 Y113.017467 Z-7.600000 I2.877917 J1.771666
G02 X43.692423 Y113.842752 Z-7.600000 I4.801992 J1.728030
G03 X43.016303 Y114.989450 Z-7.600000 I-1.885020 J-0.338775
G03 X41.482740 Y115.641072 Z-7.600000 I-1.894235 J-2.327600
G02 X39.779483 Y116.226771 Z-7.600000 I0.516400 J4.271180
G02 X38.619863 Y117.365017 Z-7.600000 I1.807682 J3.001445
G02 X38.339318 Y118.222580 Z-7.600000 I1.579642 J0.991440
G02 X38.483439 Y119.260492 Z-7.600000 I2.508996 J0.180571
G02 X39.365937 Y120.530607 Z-7.600000 I2.832676 J-1.026548
G02 X40.750484 Y121.185442 Z-7.600000 I1.912209 J-2.251950
G03 X41.540017 Y121.743462 Z-7.600000 I-0.205102 J1.127754
G03 X42.506966 Y124.252439 Z-7.600000 I-7.688021 J4.403746
G02 X42.871959 Y125.668011 Z-7.600000 I19.373738 J-4.240510
G02 X43.059902 Y126.110211 Z-7.600000 I2.047879 J-0.609350
G02 X43.560890 Y126.618196 Z-7.600000 I1.190101 J-0.672672
G02 X46.108297 Y127.889957 Z-7.600000 I10.999517 J-18.845454
G03 X47.433548 Y128.492158 Z-7.600000 I-9.481697 J22.625501
G03 X47.636884 Y128.646480 Z-7.600000 I-0.293113 J0.597330
G03 X47.932463 Y129.307454 Z-7.600000 I-0.820409 J0.763453
G03 X47.858060 Y131.051516 Z-7.600000 I-6.495856 J0.596499
G03 X47.390404 Y131.962453 Z-7.600000 I-1.719748 J-0.307373
G03 X46.326371 Y132.625575 Z-7.600000 I-1.876661 J-1.826029
G02 X44.917352 Y133.774078 Z-7.600000 I0.784443 J2.400945
G02 X44.867544 Y135.179942 Z-7.600000 I1.314167 J0.750374
G02 X45.327471 Y135.769608 Z-7.600000 I1.581979 J-0.759711
G02 X46.285030 Y136.358687 Z-7.600000 I2.536660 J-3.050584
G03 X47.236571 Y137.093272 Z-7.600000 I-0.980137 J2.253195
G03 X47.398140 Y137.775663 Z-7.600000 I-0.655859 J0.515611
G03 X47.237612 Y138.179559 Z-7.600000 I-1.210544 J-0.247283
G03 X45.638558 Y140.613214 Z-7.600000 I-47.216434 J-29.281794
G02 X42.597194 Y145.304484 Z-7.600000 I71.014583 J49.370455
G02 X41.057959 Y148.205512 Z-7.600000 I25.556957 J15.418937
G02 X39.827966 Y151.372789 Z-7.600000 I24.759517 J11.437677
G02 X39.399146 Y153.418094 Z-7.600000 I9.834248 J3.129461
G02 X40.263157 Y159.409325 Z-7.600000 I12.240567 J1.292673
G02 X46.376497 Y170.312163 Z-7.600000 I48.510280 J-20.034917
G03 X52.059594 Y178.740789 Z-7.600000 I-110.543763 J80.665655
G03 X54.382728 Y183.194064 Z-7.600000 I-28.368744 J17.631671
G03 X56.001738 Y187.323399 Z-7.600000 I-63.855438 J27.418201
G03 X56.142826 Y188.141053 Z-7.600000 I-2.298755 J0.817653
G03 X56.098072 Y188.273483 Z-7.600000 I-0.218315 J-0.000000
G03 X55.194046 Y189.382835 Z-7.600000 I-17.786026 J-13.571059
G02 X53.936411 Y191.104097 Z-7.600000 I9.527804 J8.281537
G02 X53.431363 Y192.281885 Z-7.600000 I3.885257 J2.363219
G02 X53.315930 Y194.106488 Z-7.600000 I4.427532 J1.196059
G02 X54.001870 Y196.404112 Z-7.600000 I7.810837 J-1.080671
