%
(Header)
(Generated by gcodetools from Inkscape.)
(Using default header. To add your own header create file "header" in the output dir.)
M3
(Header end.)
G21 (All units in mm)

(Start cutting path id: path29632)
(Change tool to Cylindrical cutter)

G00 Z5.000000
G00 X33.655106 Y11.817060

G01 Z-1.000000 F100.0(Penetrate)
G01 X247.951560 Y11.817060 Z-1.000000 F400.000000
G01 X247.951560 Y30.935930 Z-1.000000
G01 X106.963450 Y30.935930 Z-1.000000
G03 X106.587404 Y32.243414 Z-1.000000 I-7.576860 J-1.471361
G03 X105.974610 Y33.458880 Z-1.000000 I-6.445333 J-2.487300
G03 X104.697090 Y35.083261 Z-1.000000 I-7.601246 J-4.663564
G03 X103.141830 Y36.435630 Z-1.000000 I-10.087550 J-10.030472
G03 X102.969400 Y38.107779 Z-1.000000 I-20.252028 J-1.243405
G03 X102.369430 Y39.685740 Z-1.000000 I-3.842423 J-0.557919
G03 X100.419761 Y41.664361 Z-1.000000 I-6.181245 J-4.140917
G02 X98.333794 Y43.482560 Z-1.000000 I7.045018 J10.188229
G02 X95.783544 Y47.017541 Z-1.000000 I9.647185 J9.647199
G02 X94.101654 Y51.024620 Z-1.000000 I28.957871 J14.510988
G03 X92.872672 Y54.561719 Z-1.000000 I-340.631289 J-116.371936
G02 X91.674043 Y58.106100 Z-1.000000 I130.634230 J46.152381
G02 X90.607325 Y61.602225 Z-1.000000 I89.369779 J29.178811
G02 X89.916204 Y65.194340 Z-1.000000 I20.336441 J5.775262
G02 X89.801064 Y68.266256 Z-1.000000 I17.253723 J2.184810
G02 X90.094713 Y71.323930 Z-1.000000 I34.316316 J-1.752687
G02 X98.355695 Y60.202327 Z-1.000000 I-676.620056 J-511.213453
G03 X106.555370 Y49.035250 Z-1.000000 I2104.106787 J1536.393327
G02 X106.823044 Y48.414518 Z-1.000000 I-0.970430 J-0.786552
G03 X106.960050 Y47.750210 Z-1.000000 I4.789052 J0.641403
G03 X107.867039 Y45.070508 Z-1.000000 I14.570483 J3.438275
G03 X109.604110 Y42.812280 Z-1.000000 I5.590805 J2.503343
G03 X111.557034 Y41.833816 Z-1.000000 I3.022676 J3.594820
G03 X113.720000 Y41.620120 Z-1.000000 I1.890545 J8.082245
G03 X114.348689 Y39.329678 Z-1.000000 I10.739216 J1.716234
G03 X115.434070 Y37.215810 Z-1.000000 I11.398664 J4.517149
G03 X116.269460 Y36.609483 Z-1.000000 I1.778038 J1.571101
G03 X117.239570 Y36.257120 Z-1.000000 I3.410307 J7.877491
G03 X120.434861 Y35.819937 Z-1.000000 I3.380271 J12.810299
G03 X123.650290 Y35.958950 Z-1.000000 I0.393225 J28.161212
G03 X125.157338 Y36.239267 Z-1.000000 I-794.632818 J4276.319055
G03 X126.541440 Y36.921550 Z-1.000000 I-0.522108 J2.804224
G03 X125.604400 Y38.694919 Z-1.000000 I-6.458112 J-2.278188
G03 X124.375510 Y40.265020 Z-1.000000 I-25.916950 J-19.018771
G03 X122.186530 Y42.569462 Z-1.000000 I-22.068534 J-18.770939
G03 X119.712900 Y44.560880 Z-1.000000 I-13.912815 J-14.749721
G02 X119.448918 Y44.759128 Z-1.000000 I7.613628 J10.412998
G02 X119.304820 Y45.063840 Z-1.000000 I0.226307 J0.293448
G03 X119.018637 Y47.336035 Z-1.000000 I-17.984743 J-1.111062
G03 X117.934630 Y49.384500 Z-1.000000 I-3.878617 J-0.741436
G03 X115.659883 Y50.813411 Z-1.000000 I-4.468880 J-4.589116
G02 X113.230200 Y51.913280 Z-1.000000 I6.058663 J16.617589
G02 X108.698731 Y56.717660 Z-1.000000 I28.608864 J31.522964
G02 X104.772720 Y62.020140 Z-1.000000 I62.366677 J50.281609
G02 X99.176818 Y71.248798 Z-1.000000 I96.670716 J64.928289
G03 X93.999509 Y80.711890 Z-1.000000 I-2504.922768 J-1364.309053
G02 X94.012218 Y81.162830 Z-1.000000 I0.265208 J0.218175
G03 X94.263624 Y81.514430 Z-1.000000 I-1.284673 J1.184269
G02 X97.627471 Y85.729795 Z-1.000000 I35.410782 J-24.807833
G02 X101.505590 Y89.474830 Z-1.000000 I29.875282 J-27.056449
G02 X102.790601 Y90.371130 Z-1.000000 I3.399584 J-3.504629
G03 X104.154030 Y91.128100 Z-1.000000 I-5.735579 J11.937102
G03 X106.807473 Y92.926170 Z-1.000000 I-9.988760 J17.597484
G03 X108.882780 Y95.384560 Z-1.000000 I-5.190702 J6.487006
G03 X109.790443 Y97.488110 Z-1.000000 I-8.699968 J5.001558
G03 X110.344400 Y99.703290 Z-1.000000 I-22.823639 J6.884432
G03 X112.244885 Y101.499822 Z-1.000000 I-14.136555 J16.858042
G03 X113.611540 Y103.744760 Z-1.000000 I-4.656373 J4.373127
G03 X114.052536 Y106.296434 Z-1.000000 I-7.654911 J2.636914
G02 X114.103280 Y108.874290 Z-1.000000 I140.832555 J-1.482794
G02 X116.521576 Y110.977736 Z-1.000000 I1514.098795 J-1738.292133
G03 X118.559170 Y113.468320 Z-1.000000 I-6.239240 J7.183228
G03 X119.509061 Y116.645960 Z-1.000000 I-7.826937 J4.070501
G03 X119.819420 Y119.934480 Z-1.000000 I-225.609600 J22.951117
G03 X123.285927 Y121.878508 Z-1.000000 I-17.560092 J35.375076
G03 X126.260790 Y124.535810 Z-1.000000 I-6.363967 J10.118331
G03 X127.747079 Y127.289138 Z-1.000000 I-6.708171 J5.399000
G03 X128.464650 Y130.320050 Z-1.000000 I-18.585472 J6.000524
G03 X128.888800 Y133.770975 Z-1.000000 I-69.306487 J10.269934
G02 X129.294450 Y137.224940 Z-1.000000 I89.081753 J-8.711368
G03 X141.584744 Y138.743878 Z-1.000000 I0.470643 J46.673989
G03 X153.032100 Y143.468330 Z-1.000000 I-11.615476 J44.375031
G03 X161.774421 Y149.855057 Z-1.000000 I-24.881862 J43.235675
G03 X169.122610 Y157.797600 Z-1.000000 I-43.168096 J47.308180
G03 X175.720132 Y167.869258 Z-1.000000 I-59.466914 J46.150999
G03 X180.806840 Y178.776900 Z-1.000000 I-83.227578 J45.452537
G03 X184.840114 Y178.675475 Z-1.000000 I3.002101 J39.137263
G03 X188.719560 Y179.913600 Z-1.000000 I-0.191781 J7.297754
G03 X190.695147 Y181.793537 Z-1.000000 I-4.332111 J6.530545
G03 X192.267830 Y184.001290 Z-1.000000 I-66.707714 J49.182981
G02 X195.389724 Y187.147134 Z-1.000000 I51.288775 J-47.776320
G03 X198.556940 Y190.248580 Z-1.000000 I-88.005806 J93.039987
G03 X206.293506 Y198.097180 Z-1.000000 I-915.882320 J910.545949
G02 X214.550660 Y205.411043 Z-1.000000 I54.858991 J-53.616341
G02 X220.738399 Y199.464085 Z-1.000000 I-33.410303 J-40.955635
G02 X225.468340 Y192.289020 Z-1.000000 I-22.885635 J-20.233217
G02 X225.654587 Y190.916486 Z-1.000000 I-24.204716 J-3.983384
G03 X225.882260 Y189.550110 Z-1.000000 I11.784400 J1.261422
G03 X226.669106 Y187.042698 Z-1.000000 I11.314077 J2.173281
G03 X227.847310 Y184.697330 Z-1.000000 I25.440940 J11.311732
G02 X227.389287 Y183.945307 Z-1.000000 I-31.104848 J18.429067
G03 X227.025300 Y183.144760 Z-1.000000 I2.821336 J-1.765805
G03 X227.005522 Y181.965067 Z-1.000000 I1.681586 J-0.618204
G02 X227.328810 Y180.847480 Z-1.000000 I-14.860119 J-4.904179
G03 X226.085169 Y179.336022 Z-1.000000 I1.970281 J-2.888533
G03 X225.737800 Y177.418880 Z-1.000000 I4.003716 J-1.715479
G03 X226.212624 Y175.058217 Z-1.000000 I7.255593 J0.231307
G03 X227.463540 Y172.998010 Z-1.000000 I6.268134 J2.396014
G03 X228.449059 Y172.152029 Z-1.000000 I6.280782 J6.319723
G03 X229.500570 Y171.388040 Z-1.000000 I47.833477 J64.729647
G03 X230.891650 Y170.539944 Z-1.000000 I10.344338 J15.402285
G03 X232.461760 Y170.078170 Z-1.000000 I1.829616 J3.320797
G03 X233.647990 Y170.494133 Z-1.000000 I0.096971 J1.622871
G03 X234.386920 Y171.484820 Z-1.000000 I-2.128838 J2.358768
G03 X235.341761 Y174.236978 Z-1.000000 I-11.311850 J5.466280
G02 X235.979870 Y177.074020 Z-1.000000 I407.063982 J-90.066768
G03 X237.201705 Y178.456874 Z-1.000000 I-3.228916 J4.084150
G03 X237.684210 Y180.253600 Z-1.000000 I-2.846329 J1.727524
G03 X236.994374 Y182.919604 Z-1.000000 I-5.627595 J-0.033905
G03 X235.524120 Y185.221660 Z-1.000000 I-17.637152 J-9.643789
G02 X235.072548 Y186.226339 Z-1.000000 I4.452260 J2.604975
G03 X234.675840 Y187.254800 Z-1.000000 I-9.946124 J-3.245776
G03 X230.295595 Y196.410093 Z-1.000000 I-64.454449 J-25.212004
G03 X225.058310 Y205.095863 Z-1.000000 I-191.693439 J-109.664128
G02 X230.005488 Y203.828674 Z-1.000000 I-235.628329 J-930.197196
G02 X234.850460 Y202.204713 Z-1.000000 I-9.157892 J-35.361208
G02 X236.753095 Y201.236716 Z-1.000000 I-9.056725 J-20.155193
G02 X238.392400 Y199.854443 Z-1.000000 I-2.944710 J-5.155478
G03 X239.637501 Y198.421854 Z-1.000000 I27.788565 J22.894406
G03 X241.215450 Y197.342683 Z-1.000000 I3.102885 J2.843784
G03 X243.034422 Y197.159197 Z-1.000000 I1.288357 J3.664157
G03 X244.835710 Y197.415183 Z-1.000000 I-30.123582 J218.434845
G03 X244.896156 Y195.116099 Z-1.000000 I114.486622 J1.859658
G03 X245.502070 Y192.879520 Z-1.000000 I5.117364 J0.185987
G03 X246.148165 Y192.164420 Z-1.000000 I1.655685 J0.846491
G03 X247.014760 Y191.750110 Z-1.000000 I2.043425 J3.160682
G03 X247.477891 Y189.173035 Z-1.000000 I62.268227 J9.860177
G03 X248.442830 Y186.730970 Z-1.000000 I7.280443 J1.465069
G03 X249.876826 Y185.316758 Z-1.000000 I3.442780 J2.056807
G03 X251.725040 Y184.540240 Z-1.000000 I3.967672 J6.855824
G03 X254.638440 Y183.912567 Z-1.000000 I6.598929 J23.554263
G03 X257.628930 Y183.981850 Z-1.000000 I1.298639 J8.520784
G03 X258.724033 Y184.494091 Z-1.000000 I-0.416290 J2.316682
G03 X259.288030 Y185.578210 Z-1.000000 I-1.022427 J1.220668
G03 X259.055985 Y187.574964 Z-1.000000 I-4.602156 J0.477039
G03 X258.369240 Y189.450910 Z-1.000000 I-58.036754 J-20.182393
G03 X257.316369 Y191.771952 Z-1.000000 I-670.802754 J-302.890312
G03 X256.039880 Y193.979270 Z-1.000000 I-12.013759 J-5.474783
G03 X254.502995 Y195.858813 Z-1.000000 I-12.869834 J-8.955427
G03 X252.535380 Y197.293583 Z-1.000000 I-4.975816 J-4.757175
G03 X251.880446 Y197.556269 Z-1.000000 I-1.401045 J-2.545325
G02 X251.309180 Y197.976973 Z-1.000000 I0.248668 J0.935870
G03 X250.334832 Y199.190740 Z-1.000000 I-241.283655 J-192.691764
G02 X249.365040 Y200.407013 Z-1.000000 I104.138473 J84.029314
G02 X249.187238 Y200.772089 Z-1.000000 I0.525604 J0.481819
G03 X249.113090 Y201.158493 Z-1.000000 I-7.726955 J-1.282428
G03 X248.632939 Y202.979663 Z-1.000000 I-10.285938 J-1.738002
G03 X247.707880 Y204.625053 Z-1.000000 I-5.434150 J-1.972414
G03 X246.612203 Y205.659296 Z-1.000000 I-3.941870 J-3.078517
G03 X245.299240 Y206.390671 Z-1.000000 I-4.409567 J-6.371841
G03 X241.885550 Y207.406011 Z-1.000000 I-6.537303 J-15.732891
G02 X238.442020 Y208.300267 Z-1.000000 I4.683469 J25.111887
G03 X229.019279 Y211.948990 Z-1.000000 I-67.026798 J-159.103759
G03 X219.471550 Y215.258181 Z-1.000000 I-257.779295 J-728.320579
G02 X218.647086 Y215.773896 Z-1.000000 I0.308504 J1.410084
G03 X218.000190 Y216.478554 Z-1.000000 I-5.047742 J-3.984709
G03 X217.410806 Y217.085848 Z-1.000000 I-4.438960 J-3.718406
G02 X217.037610 Y217.862840 Z-1.000000 I0.743146 J0.835060
G03 X215.509446 Y221.111289 Z-1.000000 I-6.897090 J-1.260919
G03 X212.908590 Y223.547851 Z-1.000000 I-11.455318 J-9.621339
G03 X210.417913 Y224.823401 Z-1.000000 I-5.228060 J-7.139004
G03 X207.606370 Y224.962784 Z-1.000000 I-1.662591 J-5.110705
G03 X205.008755 Y223.823845 Z-1.000000 I1.422587 J-6.776244
G03 X202.909710 Y221.934473 Z-1.000000 I7.246485 J-10.161342
G02 X201.686779 Y220.244581 Z-1.000000 I-41.556263 J28.785745
G02 X200.329860 Y218.658100 Z-1.000000 I-13.775679 J10.408825
G02 X193.665521 Y213.263105 Z-1.000000 I-25.053993 J24.135073
G03 X187.073590 Y207.776419 Z-1.000000 I16.577575 J-26.620236
G03 X185.850982 Y206.284488 Z-1.000000 I11.737019 J-10.865169
G03 X184.731100 Y204.716493 Z-1.000000 I130.798608 J-94.601983
G02 X183.923116 Y206.477871 Z-1.000000 I83.580339 J39.406197
G03 X182.826850 Y208.085765 Z-1.000000 I-4.996205 J-2.228759
G03 X181.737581 Y208.945300 Z-1.000000 I-3.523916 J-3.345809
G03 X180.516470 Y209.593112 Z-1.000000 I-9.352690 J-16.154814
G03 X177.497411 Y218.292640 Z-1.000000 I-30.503440 J-5.712198
G03 X172.879540 Y226.228875 Z-1.000000 I-92.358037 J-48.428913
G02 X171.229710 Y228.914712 Z-1.000000 I34.588660 J23.096430
G03 X169.638680 Y231.633236 Z-1.000000 I-82.851864 J-46.664627
G03 X169.563836 Y231.743709 Z-1.000000 I-1.202266 J-0.733930
G02 X169.491300 Y231.854060 Z-1.000000 I0.862186 J0.645749
G01 X168.389610 Y233.776788 Z-1.000000
G02 X166.803569 Y236.495801 Z-1.000000 I243.101056 J143.626571
G02 X165.246020 Y239.230762 Z-1.000000 I284.189059 J163.655488
G03 X167.172036 Y237.971660 Z-1.000000 I17.296905 J24.356005
G02 X169.118720 Y236.745759 Z-1.000000 I-27.495052 J-45.819648
G03 X168.852547 Y235.362937 Z-1.000000 I12.546923 J-3.132123
G03 X168.792830 Y233.952864 Z-1.000000 I7.499973 J-1.023929
G01 X170.586660 Y230.952280 Z-1.000000
G03 X171.860844 Y230.470330 Z-1.000000 I2.784122 J5.435359
G02 X173.166030 Y230.110812 Z-1.000000 I-8.834203 J-34.620444
G03 X174.724518 Y228.644405 Z-1.000000 I41.315861 J42.348843
G03 X176.653010 Y227.662288 Z-1.000000 I2.767665 J3.050150
G03 X178.038218 Y227.932661 Z-1.000000 I0.379465 J1.739496
G03 X178.971180 Y228.958538 Z-1.000000 I-1.699910 J2.483116
G03 X180.130733 Y229.057703 Z-1.000000 I-0.306128 J10.408614
G03 X181.237790 Y229.438611 Z-1.000000 I-0.435904 J3.066104
G03 X183.556051 Y231.157556 Z-1.000000 I-6.043936 J10.573910
G03 X185.247170 Y233.507324 Z-1.000000 I-5.257262 J5.567063
G03 X186.307393 Y237.289272 Z-1.000000 I-10.652519 J5.025889
G03 X186.648480 Y241.186081 Z-1.000000 I-105.135143 J11.165784
G02 X187.134214 Y242.082321 Z-1.000000 I7.338478 J-3.397480
G03 X187.430600 Y243.078654 Z-1.000000 I-1.647713 J1.032407
G03 X186.898667 Y244.875960 Z-1.000000 I-2.385986 J0.271209
G03 X185.604180 Y246.177003 Z-1.000000 I-7.532860 J-6.200398
G02 X183.067994 Y249.360615 Z-1.000000 I6.096736 J7.458906
G03 X181.141000 Y252.916040 Z-1.000000 I-49.190074 J-24.360471
G02 X178.644671 Y258.310903 Z-1.000000 I30.039166 J17.174809
G02 X177.522690 Y264.166411 Z-1.000000 I17.806918 J6.447252
G02 X177.545625 Y265.400038 Z-1.000000 I5.225005 J0.519886
G03 X177.495990 Y266.628069 Z-1.000000 I-3.462529 J0.475070
G03 X175.412992 Y271.077517 Z-1.000000 I-25.515147 J-9.232551
G03 X172.480750 Y275.020855 Z-1.000000 I-19.173169 J-11.195186
G03 X173.901502 Y274.968840 Z-1.000000 I1.104279 J10.733100
G03 X175.252240 Y275.457638 Z-1.000000 I-0.067401 J2.296959
G03 X175.866707 Y276.458876 Z-1.000000 I-1.055463 J1.336916
G02 X176.454130 Y277.475702 Z-1.000000 I1.800136 J-0.361851
G03 X177.112112 Y278.720741 Z-1.000000 I-1.354882 J1.512418
G03 X176.890910 Y280.103220 Z-1.000000 I-2.420906 J0.321581
G03 X175.604225 Y281.974935 Z-1.000000 I-6.066680 J-2.792343
G03 X173.935070 Y283.503137 Z-1.000000 I-14.384661 J-14.035767
G03 X172.246690 Y284.259537 Z-1.000000 I-5.504449 J-10.024082
G02 X170.588170 Y285.094145 Z-1.000000 I2.464913 J6.963434
G01 X171.005500 Y285.219148 Z-1.000000
G03 X169.360330 Y286.280153 Z-1.000000 I-3.329202 J-3.356201
G02 X167.558400 Y287.011035 Z-1.000000 I16.415244 J43.057103
G03 X160.535700 Y288.908164 Z-1.000000 I-11.610439 J-29.032257
G03 X153.301610 Y289.564623 Z-1.000000 I-9.393770 J-63.330451
G02 X150.928170 Y289.716084 Z-1.000000 I1.224121 J37.854373
G03 X148.560700 Y289.915800 Z-1.000000 I-10.285014 J-107.788299
G03 X140.688096 Y291.680621 Z-1.000000 I-38.706899 J-154.224063
G03 X139.293850 Y291.817129 Z-1.000000 I-1.394531 J-7.054852
G01 X139.293800 Y291.817109 Z-1.000000
G03 X139.127980 Y291.113398 Z-1.000000 I-0.000014 J-0.371389
G02 X141.653530 Y289.719668 Z-1.000000 I-15.530799 J-31.128156
G02 X141.570029 Y289.487035 Z-1.000000 I-0.065465 J-0.107804
G02 X135.446880 Y290.805888 Z-1.000000 I6.529331 J45.187932
G03 X132.232254 Y291.463752 Z-1.000000 I-5.789905 J-20.109141
G03 X128.949100 Y291.162906 Z-1.000000 I-0.951943 J-7.676453
G03 X126.414098 Y289.616622 Z-1.000000 I2.014731 J-6.154085
G03 X124.561310 Y287.316960 Z-1.000000 I9.156674 J-9.273541
G02 X126.932000 Y288.532560 Z-1.000000 I2.951240 J-2.836088
G03 X129.785710 Y288.997462 Z-1.000000 I-10.693839 J74.632885
G02 X133.804469 Y287.623526 Z-1.000000 I-0.395418 J-7.720991
G02 X133.756351 Y286.877598 Z-1.000000 I-0.249281 J-0.358436
G02 X129.147615 Y285.238604 Z-1.000000 I-8.241440 J15.875129
G03 X128.645100 Y285.021650 Z-1.000000 I0.275628 J-1.328867
G03 X122.685077 Y282.748595 Z-1.000000 I2.371359 J-15.167993
G03 X122.501990 Y282.098410 Z-1.000000 I0.277113 J-0.428903
G02 X122.383081 Y281.761305 Z-1.000000 I-0.227364 J-0.109325
G02 X120.427420 Y281.481163 Z-1.000000 I-1.427298 J2.997647
G03 X116.793803 Y283.179306 Z-1.000000 I-9.334634 J-15.237261
G03 X115.747122 Y283.185291 Z-1.000000 I-0.532400 J-1.581544
G03 X115.557160 Y282.690478 Z-1.000000 I0.105021 J-0.324189
G03 X117.693870 Y280.199993 Z-1.000000 I7.733760 J4.473339
G02 X120.470682 Y278.480848 Z-1.000000 I-83.186317 J-137.467100
G02 X120.248430 Y277.289879 Z-1.000000 I-0.348985 J-0.551097
G03 X108.245035 Y271.419099 Z-1.000000 I21.714996 J-59.604935
G03 X105.256690 Y269.310044 Z-1.000000 I17.948894 J-28.603638
G03 X102.505185 Y264.148566 Z-1.000000 I3.877350 J-5.381088
G03 X105.287290 Y257.692442 Z-1.000000 I8.247959 J-0.273249
G02 X104.213563 Y259.471999 Z-1.000000 I15.279994 J10.433157
G02 X103.796970 Y261.533035 Z-1.000000 I3.279948 J1.735590
G02 X105.350499 Y263.347684 Z-1.000000 I6.257234 J-3.784531
G02 X105.626711 Y263.246572 Z-1.000000 I0.109080 J-0.129847
G02 X105.623985 Y262.180283 Z-1.000000 I-3.055518 J-0.525336
G02 X105.266370 Y260.166259 Z-1.000000 I-2861.293822 J507.019718
G03 X106.830325 Y258.009003 Z-1.000000 I3.873125 J1.162375
G03 X109.156090 Y256.783366 Z-1.000000 I6.129212 J8.811269
G02 X108.236660 Y258.095134 Z-1.000000 I1.404041 J1.962208
G02 X107.794670 Y259.824809 Z-1.000000 I37.743460 J10.566022
G02 X108.607518 Y261.956076 Z-1.000000 I2.016412 J0.451597
G03 X110.511680 Y263.675128 Z-1.000000 I-6.648605 J9.278666
G02 X114.905807 Y266.241606 Z-1.000000 I9.831940 J-11.788612
G02 X115.322997 Y265.874885 Z-1.000000 I0.111361 J-0.293977
G02 X114.217738 Y263.285291 Z-1.000000 I-8.100941 J1.926885
G03 X113.342030 Y261.330208 Z-1.000000 I5.936690 J-3.832784
G02 X109.974828 Y256.227593 Z-1.000000 I-7.904633 J1.553935
G02 X105.386476 Y253.332733 Z-1.000000 I-43.093456 J63.219411
G03 X103.458998 Y252.148433 Z-1.000000 I24.141428 J-41.451463
G03 X103.463238 Y251.881351 Z-1.000000 I0.085597 J-0.132216
G03 X103.908462 Y251.777824 Z-1.000000 I0.381828 J0.632961
G03 X108.581170 Y252.305103 Z-1.000000 I-7.610027 J88.407788
G02 X107.006690 Y249.961391 Z-1.000000 I-1.915313 J-0.414029
G02 X103.439505 Y249.730266 Z-1.000000 I-2.828752 J16.015460
G03 X101.373418 Y249.770270 Z-1.000000 I-1.800383 J-39.611012
G03 X100.578339 Y249.489502 Z-1.000000 I0.008649 J-1.290629
G03 X100.458230 Y248.975662 Z-1.000000 I0.264937 J-0.332886
G03 X101.927260 Y246.885178 Z-1.000000 I6.708051 J3.152495
G03 X110.028071 Y247.855216 Z-1.000000 I2.128127 J16.538020
G03 X112.670320 Y248.961608 Z-1.000000 I-16.982011 J44.264129
G02 X111.502556 Y247.467319 Z-1.000000 I-4.213392 J2.089263
G02 X109.815160 Y246.596745 Z-1.000000 I-2.718614 J3.198780
G02 X106.106489 Y245.969648 Z-1.000000 I-5.433118 J20.851466
G03 X102.468620 Y244.958072 Z-1.000000 I0.795467 J-9.907806
G03 X99.406771 Y242.929238 Z-1.000000 I4.078448 J-9.479894
G03 X98.806715 Y241.928396 Z-1.000000 I1.532313 J-1.599003
G03 X99.092558 Y241.620530 Z-1.000000 I0.237085 J-0.066506
G03 X101.830950 Y242.831057 Z-1.000000 I-1.377392 J6.818454
G02 X105.662455 Y243.931098 Z-1.000000 I11.734291 J-33.648495
G02 X109.537430 Y244.332079 Z-1.000000 I3.593087 J-15.798798
G02 X107.571319 Y243.860304 Z-1.000000 I-398.243117 J1655.337160
G03 X105.634580 Y243.285839 Z-1.000000 I4.401255 J-18.390259
G03 X103.687111 Y242.396620 Z-1.000000 I3.863610 J-11.038827
G03 X102.246330 Y240.781864 Z-1.000000 I1.697402 J-2.964676
G03 X101.625638 Y238.353837 Z-1.000000 I9.619160 J-3.752358
G03 X101.723946 Y237.747105 Z-1.000000 I1.068538 J-0.138195
G03 X102.001148 Y237.700198 Z-1.000000 I0.155257 J0.074976
G03 X102.918050 Y239.101361 Z-1.000000 I-2.899412 J2.897922
G02 X103.969218 Y240.298689 Z-1.000000 I2.053313 J-0.742572
G02 X105.452180 Y240.813967 Z-1.000000 I2.538231 J-4.913379
G02 X107.649544 Y241.059635 Z-1.000000 I2.791656 J-15.019851
G02 X109.862830 Y241.074190 Z-1.000000 I1.331626 J-34.205373
G03 X107.756533 Y240.100285 Z-1.000000 I3.153190 J-9.584142
G03 X106.162320 Y238.389762 Z-1.000000 I2.266635 J-3.710679
G03 X105.606547 Y236.035294 Z-1.000000 I4.201174 J-2.234518
G03 X105.737210 Y233.647875 Z-1.000000 I40.566606 J1.022919
G03 X105.264159 Y231.465197 Z-1.000000 I92.673478 J-21.227675
G03 X104.947300 Y229.252788 Z-1.000000 I18.432856 J-3.768833
G03 X104.623532 Y223.745945 Z-1.000000 I52.696399 J-5.861163
G03 X106.111730 Y218.605063 Z-1.000000 I9.406369 J-0.062860
G03 X108.631606 Y215.522840 Z-1.000000 I28.580903 J20.795183
G03 X110.263822 Y214.073987 Z-1.000000 I7.814809 J7.160016
G03 X110.596967 Y214.278761 Z-1.000000 I0.123664 J0.172194
G03 X109.600660 Y217.061237 Z-1.000000 I-7.749672 J-1.205277
G02 X108.411250 Y220.393055 Z-1.000000 I7.953394 J4.717455
G02 X108.364240 Y223.920413 Z-1.000000 I12.761496 J1.934068
G02 X108.758825 Y226.558776 Z-1.000000 I17.043450 J-1.200275
G03 X109.165820 Y229.192474 Z-1.000000 I-17.733527 J4.088723
G02 X109.353371 Y228.814163 Z-1.000000 I-0.218732 J-0.344084
G02 X109.205720 Y228.429317 Z-1.000000 I-0.737255 J0.062110
G03 X109.061233 Y224.046716 Z-1.000000 I69.296075 J-4.478253
G03 X109.805440 Y219.705780 Z-1.000000 I12.928504 J-0.017809
G03 X113.980344 Y213.625942 Z-1.000000 I43.896019 J25.669194
G03 X115.157280 Y214.173497 Z-1.000000 I0.521801 J0.417075
G03 X112.367093 Y217.959672 Z-1.000000 I-614.777137 J-450.133146
G02 X111.064240 Y222.206350 Z-1.000000 I5.341648 J3.961975
G02 X111.999783 Y227.109549 Z-1.000000 I16.434749 J-0.594940
G02 X113.721920 Y231.775731 Z-1.000000 I184.975924 J-65.617764
G02 X112.955734 Y227.880246 Z-1.000000 I-48.168159 J7.450897
G03 X112.514680 Y223.925763 Z-1.000000 I15.659844 J-3.748421
G03 X112.960136 Y221.221626 Z-1.000000 I9.113119 J0.112456
G03 X114.080390 Y218.726176 Z-1.000000 I12.093586 J3.929860
G03 X115.336120 Y216.795390 Z-1.000000 I11.545178 J6.134926
G02 X116.476380 Y214.787329 Z-1.000000 I-6.145944 J-4.817695
G02 X117.116620 Y212.160537 Z-1.000000 I-7.364411 J-3.186383
G02 X116.447680 Y209.513324 Z-1.000000 I-4.364871 J-0.305140
G02 X114.555225 Y208.144731 Z-1.000000 I-2.663560 J1.690387
G02 X112.191700 Y208.010355 Z-1.000000 I-1.530853 J6.072907
G02 X108.689365 Y208.372453 Z-1.000000 I3.877007 J54.618633
G03 X107.226459 Y208.435730 Z-1.000000 I-1.074557 J-7.900670
G03 X107.083652 Y208.117510 Z-1.000000 I0.009530 J-0.195430
G03 X108.732930 Y206.692703 Z-1.000000 I4.742321 J3.822490
G03 X110.773818 Y206.023412 Z-1.000000 I2.827789 J5.176543
G02 X112.888710 Y205.697535 Z-1.000000 I-7.481321 J-55.578236
G03 X107.725879 Y204.922308 Z-1.000000 I3.287439 J-39.472805
G03 X102.770180 Y203.266033 Z-1.000000 I5.192256 J-23.777671
G03 X100.830966 Y202.124515 Z-1.000000 I6.965052 J-14.050187
G03 X99.352764 Y200.403103 Z-1.000000 I2.530246 J-3.668141
G03 X99.128892 Y198.869381 Z-1.000000 I2.218324 J-1.107002
G03 X99.711724 Y197.441913 Z-1.000000 I3.565179 J0.622937
G03 X100.832630 Y194.854592 Z-1.000000 I14.331282 J4.672280
G03 X101.121599 Y194.683948 Z-1.000000 I0.288488 J0.158535
G03 X101.299205 Y194.869736 Z-1.000000 I-0.000260 J0.178034
G03 X100.917500 Y197.361613 Z-1.000000 I-11.635962 J-0.507218
G02 X101.265900 Y198.618855 Z-1.000000 I1.354926 J0.301425
G02 X102.308590 Y199.343683 Z-1.000000 I2.275220 J-2.160595
G02 X105.357120 Y200.182802 Z-1.000000 I4.303976 J-9.679164
G02 X108.493620 Y200.499853 Z-1.000000 I10.347775 J-86.694968
G03 X110.201165 Y200.589764 Z-1.000000 I0.136741 J13.662474
G02 X111.910560 Y200.537753 Z-1.000000 I0.677400 J-5.853087
G03 X110.139693 Y200.287279 Z-1.000000 I1.723272 J-18.568959
G03 X108.406560 Y199.854363 Z-1.000000 I2.974134 J-15.592289
G03 X107.472037 Y199.446905 Z-1.000000 I2.569702 J-7.169139
G03 X106.724590 Y198.740023 Z-1.000000 I0.858308 J-1.656174
G03 X106.646119 Y197.842740 Z-1.000000 I1.104805 J-0.548692
G03 X107.043190 Y197.042983 Z-1.000000 I2.468909 J0.727337
G03 X109.219240 Y195.075154 Z-1.000000 I9.074880 J7.848052
G03 X109.566145 Y195.196081 Z-1.000000 I0.130035 J0.185017
G02 X109.887366 Y196.113790 Z-1.000000 I9.451377 J-2.793142
G02 X111.730600 Y197.798843 Z-1.000000 I2.692125 J-1.094184
G03 X115.278896 Y198.964800 Z-1.000000 I-16.641299 J56.625743
G02 X118.843670 Y199.943373 Z-1.000000 I7.793696 J-21.408885
G03 X122.222974 Y201.103542 Z-1.000000 I-2.630611 J13.164017
G03 X124.859920 Y203.561683 Z-1.000000 I-2.859016 J5.710429
G03 X125.619560 Y206.020386 Z-1.000000 I-4.471662 J2.728264
G03 X125.499050 Y208.568172 Z-1.000000 I-12.918768 J0.665685
G02 X126.181270 Y206.146336 Z-1.000000 I-9.771509 J-4.059595
G02 X125.954800 Y203.620543 Z-1.000000 I-5.168058 J-0.809666
G02 X124.045350 Y200.755657 Z-1.000000 I-6.045008 J1.960237
G02 X121.159410 Y198.927773 Z-1.000000 I-7.746063 J9.037646
G03 X115.894645 Y197.484059 Z-1.000000 I4.582793 J-27.033310
G03 X115.911157 Y197.158727 Z-1.000000 I0.061557 J-0.159961
G03 X117.544412 Y196.987837 Z-1.000000 I1.340489 J4.921286
G03 X123.116670 Y197.768203 Z-1.000000 I-1.978456 J34.412031
G03 X125.525837 Y198.483444 Z-1.000000 I-2.823737 J13.926328
G03 X127.845430 Y199.444333 Z-1.000000 I-29.655167 J74.867995
G02 X125.361030 Y197.277491 Z-1.000000 I-14.481365 J14.095993
G02 X122.325300 Y195.941780 Z-1.000000 I-4.489459 J6.085816
G03 X118.815478 Y195.645215 Z-1.000000 I-0.141752 J-19.239891
G03 X118.719672 Y195.442685 Z-1.000000 I0.024057 J-0.135305
G03 X119.056247 Y195.207897 Z-1.000000 I0.410962 J0.230487
G03 X122.348200 Y194.981150 Z-1.000000 I2.905564 J18.173505
G03 X124.889906 Y195.294096 Z-1.000000 I0.220484 J8.687432
G03 X127.333290 Y196.034680 Z-1.000000 I-14.264499 J51.463357
G02 X125.300970 Y194.235417 Z-1.000000 I-18.134990 J18.436586
G02 X122.760180 Y193.204330 Z-1.000000 I-3.019465 J3.794491
G03 X119.756078 Y193.519298 Z-1.000000 I-2.703653 J-11.303144
G03 X119.614115 Y193.305590 Z-1.000000 I0.004052 J-0.156698
G03 X119.974337 Y192.939438 Z-1.000000 I0.607168 J0.237065
G03 X122.735380 Y192.211110 Z-1.000000 I4.151839 J10.141714
G03 X125.076180 Y192.294123 Z-1.000000 I0.942158 J6.477481
G02 X127.356150 Y192.784580 Z-1.000000 I72.241457 J-330.281575
G02 X117.512164 Y181.600439 Z-1.000000 I-60.006441 J42.891808
G02 X105.796100 Y172.409380 Z-1.000000 I-61.324027 J66.108307
G02 X102.569705 Y171.993293 Z-1.000000 I-31.480330 J231.385861
G03 X99.360584 Y171.448750 Z-1.000000 I4.209571 J-34.536312
G03 X95.575310 Y170.325225 Z-1.000000 I5.897607 J-26.807903
G03 X92.158009 Y168.320240 Z-1.000000 I4.128788 J-10.951838
G02 X90.698226 Y167.193224 Z-1.000000 I-6.243478 J6.578042
G03 X89.164234 Y166.171340 Z-1.000000 I15.173811 J-24.440335
G03 X84.664810 Y162.843291 Z-1.000000 I44.352583 J-64.668940
G03 X80.817169 Y158.760100 Z-1.000000 I12.301329 J-15.446131
G03 X78.702066 Y154.746325 Z-1.000000 I13.907367 J-9.892816
G03 X77.440111 Y150.395520 Z-1.000000 I30.679093 J-11.256919
G02 X74.266457 Y150.444591 Z-1.000000 I-1.417772 J10.958092
G02 X71.182609 Y151.149450 Z-1.000000 I3.862697 J23.998341
G02 X66.496266 Y152.936685 Z-1.000000 I10.663493 J34.998633
G02 X62.049525 Y155.255620 Z-1.000000 I22.039822 J47.686065
G02 X58.806118 Y157.375312 Z-1.000000 I27.978099 J46.351426
G02 X55.866443 Y159.898760 Z-1.000000 I11.812688 J16.735121
G03 X54.546782 Y161.104247 Z-1.000000 I-3.910886 J-2.956225
G02 X53.062847 Y162.082200 Z-1.000000 I18.207648 J29.242919
G03 X48.250059 Y164.774132 Z-1.000000 I-25.389319 J-39.744210
G03 X42.982263 Y166.448590 Z-1.000000 I-8.419416 J-17.363836
G03 X39.427990 Y166.508727 Z-1.000000 I-1.974935 J-11.660423
G03 X36.053046 Y165.376070 Z-1.000000 I1.259579 J-9.347570
G03 X32.938325 Y162.842767 Z-1.000000 I5.548260 J-10.003083
G03 X30.627283 Y159.578230 Z-1.000000 I15.875815 J-13.689148
G03 X28.475431 Y154.972053 Z-1.000000 I26.558889 J-15.213149
G03 X26.897103 Y150.143100 Z-1.000000 I62.738961 J-23.178447
G02 X23.797304 Y150.935833 Z-1.000000 I0.689858 J9.154423
G02 X20.880366 Y152.608150 Z-1.000000 I7.313033 J16.135845
G03 X17.823150 Y155.473142 Z-1.000000 I-22.505604 J-20.951929
G03 X17.330565 Y155.552133 Z-1.000000 I-0.314359 J-0.384971
G03 X17.170437 Y155.194161 Z-1.000000 I0.099634 J-0.259369
G03 X18.770374 Y151.847920 Z-1.000000 I20.860743 J7.918532
G03 X19.754887 Y150.673834 Z-1.000000 I5.486604 J3.600893
G03 X20.955271 Y149.719940 Z-1.000000 I6.229972 J6.607594
G02 X18.041455 Y151.537712 Z-1.000000 I3.827685 J9.379881
G02 X16.014933 Y154.453050 Z-1.000000 I5.067996 J5.684896
G02 X15.309614 Y159.007975 Z-1.000000 I184.216099 J30.857487
G03 X15.059852 Y159.970841 Z-1.000000 I-4.385757 J-0.623814
G03 X14.856778 Y159.956694 Z-1.000000 I-0.099374 J-0.038123
G03 X14.261471 Y156.565470 Z-1.000000 I31.405449 J-7.260883
G03 X14.224770 Y153.429116 Z-1.000000 I12.734657 J-1.717412
G03 X15.296038 Y150.462160 Z-1.000000 I6.708501 J0.745338
G03 X17.955107 Y147.723601 Z-1.000000 I8.519281 J5.611776
G03 X21.207711 Y145.753850 Z-1.000000 I16.214914 J23.104962
G02 X18.744545 Y146.365610 Z-1.000000 I3.168088 J18.020533
G02 X16.450259 Y147.461080 Z-1.000000 I2.958776 J9.146926
G03 X14.148001 Y148.479300 Z-1.000000 I-2.467599 J-2.467511
G03 X13.806803 Y147.980556 Z-1.000000 I-0.016819 J-0.354575
G03 X15.411962 Y145.424903 Z-1.000000 I9.703341 J4.312580
G03 X18.401199 Y143.651140 Z-1.000000 I4.068286 J3.450396
G03 X22.071367 Y142.669898 Z-1.000000 I3.509836 J5.773502
G02 X25.942303 Y142.304800 Z-1.000000 I0.392612 J-16.540618
G03 X27.427904 Y135.367250 Z-1.000000 I42.908925 J5.560641
G03 X29.687562 Y128.649670 Z-1.000000 I107.868435 J32.545921
G02 X25.957537 Y128.752900 Z-1.000000 I-1.475908 J14.111163
G03 X22.248602 Y128.604470 Z-1.000000 I-1.487501 J-9.243890
G03 X19.841399 Y127.805537 Z-1.000000 I3.089853 J-13.335753
G03 X18.032023 Y126.121420 Z-1.000000 I1.503842 J-3.429725
G03 X17.430429 Y122.666091 Z-1.000000 I14.794977 J-4.355931
G03 X17.731186 Y122.522374 Z-1.000000 I0.179694 J-0.010511
G03 X19.032752 Y123.879141 Z-1.000000 I-9.239877 J10.166627
G02 X21.350226 Y125.466230 Z-1.000000 I3.980242 J-3.326430
G02 X24.729910 Y125.964392 Z-1.000000 I3.373835 J-11.175644
G03 X28.140821 Y126.045060 Z-1.000000 I0.035402 J70.655845
G03 X24.805252 Y124.858881 Z-1.000000 I28.527644 J-85.503503
G03 X21.929525 Y122.884930 Z-1.000000 I2.591000 J-6.856378
G03 X20.670802 Y121.231521 Z-1.000000 I8.930317 J-8.104387
G03 X20.426071 Y119.267590 Z-1.000000 I1.961026 J-1.241583
G03 X20.906832 Y117.226137 Z-1.000000 I3.879856 J-0.163632
G03 X21.380303 Y117.078955 Z-1.000000 I0.313440 J0.173159
G03 X22.035951 Y117.729581 Z-1.000000 I-0.659615 J1.320372
G03 X22.612428 Y119.778310 Z-1.000000 I-4.852197 J2.470795
G02 X23.847660 Y121.175219 Z-1.000000 I1.732090 J-0.287032
G03 X25.739476 Y121.959810 Z-1.000000 I-2.733315 J9.263686
G02 X29.175036 Y123.245829 Z-1.000000 I7.692864 J-15.319240
G02 X32.787860 Y123.865500 Z-1.000000 I5.617965 J-21.912402
G03 X33.793006 Y122.372496 Z-1.000000 I48.675985 J31.685617
G02 X34.724207 Y120.830380 Z-1.000000 I-11.418760 J-7.947389
G02 X35.314617 Y119.330695 Z-1.000000 I-6.758085 J-3.526647
G02 X35.673169 Y117.758780 Z-1.000000 I-17.321751 J-4.777923
G02 X33.473783 Y117.970412 Z-1.000000 I-0.561558 J5.698383
G03 X31.287324 Y118.097320 Z-1.000000 I-1.361683 J-4.561661
G03 X26.957059 Y117.152034 Z-1.000000 I9.419997 J-53.543036
G03 X23.051644 Y115.093800 Z-1.000000 I2.455856 J-9.394186
G02 X20.703507 Y110.706259 Z-1.000000 I-189.794887 J98.752889
G03 X20.497973 Y109.983151 Z-1.000000 I1.469022 J-0.808313
G03 X20.748055 Y109.837619 Z-1.000000 I0.162573 J-0.008272
G03 X23.890194 Y112.029520 Z-1.000000 I-24.799755 J38.899102
G02 X27.449013 Y113.807454 Z-1.000000 I6.449481 J-8.458925
G02 X31.313104 Y114.694970 Z-1.000000 I10.899486 J-38.598940
G02 X28.105299 Y113.198016 Z-1.000000 I-364.831887 J777.608496
G03 X25.253078 Y111.072780 Z-1.000000 I3.663958 J-7.893860
G03 X23.301393 Y108.661448 Z-1.000000 I20.479717 J-18.571376
G03 X23.411750 Y108.511845 Z-1.000000 I0.079217 J-0.057069
G03 X24.194400 Y108.886650 Z-1.000000 I-1.137174 J3.379142
G02 X27.573194 Y110.992980 Z-1.000000 I95.966470 J-150.178051
G02 X31.445474 Y112.519147 Z-1.000000 I6.938411 J-11.928974
G02 X35.496608 Y113.430340 Z-1.000000 I164.105971 J-720.148227
G02 X34.829801 Y111.470540 Z-1.000000 I-4.682412 J0.499817
G02 X33.666780 Y109.635940 Z-1.000000 I-60.028703 J36.768474
G03 X31.894450 Y107.510038 Z-1.000000 I6.193205 J-6.964906
G03 X31.839069 Y106.919155 Z-1.000000 I0.580101 J-0.352407
G03 X32.211170 Y106.745214 Z-1.000000 I0.274935 J0.103174
G03 X34.397836 Y107.991430 Z-1.000000 I-2.316086 J6.605425
G03 X35.531820 Y109.359238 Z-1.000000 I-4.517560 J4.899261
G02 X36.493721 Y110.848540 Z-1.000000 I50.231165 J-31.387712
G02 X35.871065 Y108.312847 Z-1.000000 I-48.563873 J10.580886
G02 X34.948436 Y105.865390 Z-1.000000 I-13.519715 J3.698955
G02 X33.876181 Y104.138871 Z-1.000000 I-8.859310 J4.305856
G02 X32.549040 Y102.603600 Z-1.000000 I-14.941385 J11.574596
G03 X26.107160 Y104.424397 Z-1.000000 I-97.067658 J-331.114180
G03 X19.423606 Y105.094460 Z-1.000000 I-5.343408 J-19.630257
G03 X13.613735 Y103.381463 Z-1.000000 I6.711040 J-33.470426
G03 X12.914030 Y102.848341 Z-1.000000 I0.592975 J-1.503994
G03 X13.069662 Y102.554207 Z-1.000000 I0.147044 J-0.110438
G03 X16.632658 Y103.228160 Z-1.000000 I-0.605832 J12.958102
G02 X20.485421 Y103.229201 Z-1.000000 I1.930379 J-14.796633
G02 X24.277364 Y102.600220 Z-1.000000 I-7.037596 J-54.172372
G03 X19.302912 Y102.445009 Z-1.000000 I1.979679 J-143.239992
G03 X14.460894 Y101.149290 Z-1.000000 I0.575762 J-11.846603
G03 X11.912605 Y98.863058 Z-1.000000 I9.462408 J-13.110334
G03 X11.787379 Y98.398405 Z-1.000000 I0.394492 J-0.355519
G03 X12.067203 Y98.245286 Z-1.000000 I0.205407 J0.043133
G03 X14.692419 Y99.647780 Z-1.000000 I-4.126390 J10.882073
G02 X18.636378 Y100.120543 Z-1.000000 I2.924163 J-7.707079
G02 X22.487422 Y99.271780 Z-1.000000 I-2.629579 J-21.091987
G02 X25.114384 Y98.366669 Z-1.000000 I-25.499456 J-78.273457
G02 X27.685066 Y97.313070 Z-1.000000 I-11.784295 J-32.415484
G03 X21.780835 Y96.775193 Z-1.000000 I6.093634 J-99.563339
G03 X15.996936 Y95.437530 Z-1.000000 I3.352232 J-27.667946
G02 X12.681569 Y94.273310 Z-1.000000 I-53.551244 J147.195911
G03 X10.033705 Y92.139260 Z-1.000000 I1.582318 J-4.673012
G03 X9.169245 Y89.456227 Z-1.000000 I5.011294 J-3.095393
G03 X9.414521 Y86.667300 Z-1.000000 I8.886864 J-0.623680
G03 X11.267284 Y83.277396 Z-1.000000 I16.360954 J6.740865
G03 X11.616978 Y83.290948 Z-1.000000 I0.170496 J0.119054
G03 X11.790169 Y84.077840 Z-1.000000 I-1.118945 J0.658779
G03 X11.144150 Y87.959650 Z-1.000000 I-29.649850 J-2.939726
G02 X12.233766 Y89.887300 Z-1.000000 I4.042372 J-1.013194
G02 X14.003680 Y91.186900 Z-1.000000 I5.069376 J-5.048926
G02 X16.067943 Y92.095127 Z-1.000000 I8.534560 J-16.597764
G02 X18.229500 Y92.738010 Z-1.000000 I6.023074 J-16.295985
G03 X15.770423 Y91.449192 Z-1.000000 I7.206677 J-16.740791
G03 X13.712814 Y89.571580 Z-1.000000 I4.109736 J-6.569951
G03 X12.808796 Y87.587922 Z-1.000000 I3.734237 J-2.899639
G03 X12.830003 Y85.409950 Z-1.000000 I5.255682 J-1.037914
G02 X13.938694 Y83.117295 Z-1.000000 I-103.217980 J-51.328947
G03 X14.821007 Y81.503115 Z-1.000000 I13.688923 J6.434155
G03 X15.171137 Y81.489501 Z-1.000000 I0.179721 J0.112946
G03 X15.451685 Y82.565510 Z-1.000000 I-1.192186 J0.885417
G03 X14.710130 Y84.808357 Z-1.000000 I-6.997286 J-1.069506
G02 X14.872872 Y86.883240 Z-1.000000 I1.717027 J0.909150
G02 X16.646667 Y88.277339 Z-1.000000 I3.364297 J-2.455094
G02 X18.796640 Y88.893530 Z-1.000000 I3.796811 J-9.188708
G02 X23.058706 Y89.020617 Z-1.000000 I2.626789 J-16.562456
G02 X27.282328 Y88.506350 Z-1.000000 I-8.831343 J-90.132162
G03 X24.340556 Y88.350231 Z-1.000000 I27.622167 J-548.282938
G03 X21.426104 Y87.879880 Z-1.000000 I0.789323 J-14.155539
G03 X19.447851 Y87.056253 Z-1.000000 I2.230869 J-8.145857
G03 X17.912369 Y85.538850 Z-1.000000 I2.110210 J-3.670942
G02 X17.508594 Y82.625284 Z-1.000000 I-214.197472 J28.199715
G03 X17.555847 Y81.996289 Z-1.000000 I1.433335 J-0.208592
G03 X17.834334 Y81.900215 Z-1.000000 I0.174025 J0.052782
G03 X19.303466 Y83.164740 Z-1.000000 I-5.645512 J8.044670
G02 X20.598514 Y84.358132 Z-1.000000 I10.432879 J-10.022197
G02 X22.120679 Y84.899720 Z-1.000000 I1.522165 J-1.868274
G02 X25.858512 Y84.408446 Z-1.000000 I0.277621 J-12.352916
G02 X29.454092 Y83.312620 Z-1.000000 I-43.900334 J-150.490806
G02 X27.205763 Y83.564010 Z-1.000000 I7.002031 J72.803066
G03 X24.938379 Y83.580130 Z-1.000000 I-1.200702 J-9.417250
G03 X21.884238 Y82.103263 Z-1.000000 I1.468504 J-6.933243
G03 X22.585676 Y80.663210 Z-1.000000 I0.526031 J-0.634634
G02 X25.219102 Y81.223052 Z-1.000000 I18.153772 J-78.919453
G02 X27.866491 Y81.245430 Z-1.000000 I1.383684 J-7.085811
G02 X31.320860 Y80.598916 Z-1.000000 I-24.140930 J-138.538344
G03 X34.323417 Y80.104320 Z-1.000000 I8.717808 J43.562294
G03 X37.778180 Y79.161996 Z-1.000000 I7.589466 J21.020498
G02 X41.291058 Y78.406790 Z-1.000000 I-12.945780 J-68.765724
G03 X47.607439 Y77.393647 Z-1.000000 I10.291748 J43.967173
G03 X54.005972 Y77.852790 Z-1.000000 I1.774770 J20.081089
G03 X58.422916 Y79.576362 Z-1.000000 I-3.342264 J15.086480
G03 X62.127349 Y82.532420 Z-1.000000 I-8.099992 J13.949806
G03 X65.024323 Y86.471948 Z-1.000000 I-15.639410 J14.535530
G03 X67.093467 Y90.894580 Z-1.000000 I-25.971943 J14.846411
G02 X66.202396 Y87.809827 Z-1.000000 I-27.222500 J6.192497
G02 X64.971314 Y84.840870 Z-1.000000 I-27.913469 J9.834644
G02 X63.057868 Y82.032651 Z-1.000000 I-9.748231 J4.586191
G02 X58.637934 Y78.048330 Z-1.000000 I-26.844027 J25.335187
G03 X53.366008 Y76.190175 Z-1.000000 I2.962013 J-16.811563
G03 X53.314763 Y75.570349 Z-1.000000 I0.180012 J-0.326914
G03 X54.501981 Y75.202668 Z-1.000000 I1.070447 J1.355841
G03 X61.751365 Y76.630470 Z-1.000000 I-1.974427 J29.142332
G03 X66.153021 Y79.380477 Z-1.000000 I-3.699606 J10.819228
G03 X69.457359 Y83.557270 Z-1.000000 I-16.569137 J16.503606
G03 X71.823144 Y89.210622 Z-1.000000 I-15.087111 J9.635261
G03 X72.748808 Y95.247340 Z-1.000000 I-41.294154 J9.421333
G02 X73.141605 Y92.136973 Z-1.000000 I-13.112575 J-3.235924
G02 X73.071777 Y88.948990 Z-1.000000 I-51.113542 J-0.475196
G03 X71.913496 Y85.435960 Z-1.000000 I309.635671 J-104.037474
G02 X70.724424 Y82.778540 Z-1.000000 I-12.859814 J4.159430
G03 X69.994668 Y80.961889 Z-1.000000 I3.753973 J-2.562884
G03 X70.189664 Y80.562115 Z-1.000000 I0.378240 J-0.062951
G03 X70.696314 Y80.573581 Z-1.000000 I0.243333 J0.447272
G03 X72.096550 Y81.884550 Z-1.000000 I-2.390745 J3.956811
G03 X74.719919 Y87.084257 Z-1.000000 I-13.912468 J10.280779
G03 X75.560673 Y92.935500 Z-1.000000 I-18.253299 J5.608807
G03 X74.580391 Y98.545766 Z-1.000000 I-16.088945 J0.079554
G03 X72.190912 Y103.691690 Z-1.000000 I-31.824148 J-11.649622
G03 X72.820845 Y107.587371 Z-1.000000 I-19.466714 J5.146543
G03 X72.532362 Y111.526090 Z-1.000000 I-14.613597 J0.909584
G03 X71.197119 Y114.889695 Z-1.000000 I-10.561213 J-2.245636
G03 X68.866385 Y117.652270 Z-1.000000 I-10.031862 J-6.099211
G03 X72.072566 Y125.427465 Z-1.000000 I-19.501632 J12.590345
G03 X72.464268 Y133.821090 Z-1.000000 I-25.431815 J5.392770
G02 X72.534597 Y134.549689 Z-1.000000 I1.075708 J0.263859
G02 X72.843656 Y135.193700 Z-1.000000 I22.454933 J-10.379879
G03 X73.055975 Y132.398324 Z-1.000000 I185.320391 J12.670028
G03 X73.656425 Y129.650220 Z-1.000000 I10.668185 J0.891305
G03 X75.835235 Y126.166662 Z-1.000000 I13.487118 J6.012435
G03 X76.287441 Y126.144914 Z-1.000000 I0.236163 J0.198315
G03 X76.465021 Y126.755675 Z-1.000000 I-0.455031 J0.463498
G03 X74.924464 Y130.920200 Z-1.000000 I-17.261525 J-4.018244
G02 X75.239950 Y134.016856 Z-1.000000 I9.718288 J0.574305
G02 X76.213417 Y136.962730 Z-1.000000 I26.268264 J-7.046600
G03 X76.827845 Y133.733953 Z-1.000000 I35.354777 J5.055075
G03 X78.089453 Y130.686730 Z-1.000000 I10.165701 J2.424016
G02 X78.741097 Y129.415254 Z-1.000000 I-5.345480 J-3.542336
G03 X79.298635 Y128.101050 Z-1.000000 I17.010435 J6.441141
G03 X81.658231 Y123.577921 Z-1.000000 I41.820408 J18.939564
G03 X84.275940 Y119.201440 Z-1.000000 I837.212894 J497.791803
G03 X85.519481 Y116.375327 Z-1.000000 I6.838253 J1.322309
G03 X87.427309 Y113.971200 Z-1.000000 I37.620541 J27.895241
G03 X88.692858 Y112.473777 Z-1.000000 I62.230422 J51.310611
G02 X89.780986 Y110.837340 Z-1.000000 I-5.862802 J-5.078384
G02 X89.822520 Y110.519183 Z-1.000000 I-0.266435 J-0.196571
G02 X89.674951 Y110.246380 Z-1.000000 I-1.206514 J0.476330
G03 X84.837155 Y102.089974 Z-1.000000 I85.708161 J-56.348861
G02 X80.371144 Y93.726860 Z-1.000000 I-3036.274234 J1616.035803
G02 X78.401000 Y91.481075 Z-1.000000 I-276.242809 J240.350504
G03 X77.030079 Y88.789430 Z-1.000000 I4.517646 J-3.995892
G03 X77.283936 Y86.053598 Z-1.000000 I4.287025 J-0.981901
G03 X78.611357 Y83.690060 Z-1.000000 I12.264727 J5.333644
G03 X77.055856 Y81.708781 Z-1.000000 I73.070841 J-58.969097
G03 X75.909419 Y79.456930 Z-1.000000 I5.570026 J-4.253507
G03 X76.144748 Y76.659964 Z-1.000000 I4.039394 J-1.068519
G03 X77.422601 Y74.211620 Z-1.000000 I23.056755 J10.476261
G02 X78.020583 Y73.047682 Z-1.000000 I-3.667776 J-2.619927
G03 X78.487813 Y71.828770 Z-1.000000 I16.644191 J5.680996
G03 X81.128944 Y66.131937 Z-1.000000 I62.480015 J25.505958
G03 X84.143154 Y60.624590 Z-1.000000 I138.379078 J72.157320
G03 X84.616995 Y59.821205 Z-1.000000 I27.898751 J15.913403
G02 X84.988027 Y58.958200 Z-1.000000 I-2.846396 J-1.735014
G03 X87.907736 Y50.266772 Z-1.000000 I151.571772 J46.081335
G02 X90.971686 Y41.627870 Z-1.000000 I-352.532527 J-129.895139
G02 X91.084270 Y40.894299 Z-1.000000 I-2.323159 J-0.731968
G03 X91.125389 Y40.147280 Z-1.000000 I6.725712 J-0.004426
G03 X91.577077 Y38.031346 Z-1.000000 I8.860580 J0.785289
G03 X92.679915 Y36.156860 Z-1.000000 I5.185147 J1.788972
G03 X94.014871 Y35.085746 Z-1.000000 I3.644564 J3.174859
G03 X95.601704 Y34.457390 Z-1.000000 I3.373981 J6.202712
G03 X95.727196 Y32.687816 Z-1.000000 I17.850351 J0.376643
G03 X96.017087 Y30.935880 Z-1.000000 I20.276469 J2.455179
G01 X33.655106 Y30.935880 Z-1.000000
G01 X33.655106 Y11.817060 Z-1.000000
G00 Z5.000000

(End cutting path id: path29632)


(Footer)
M5
G00 X0.0000 Y0.0000
M2
(Using default footer. To add your own footer create file "footer" in the output dir.)
(end)
%