%
(Header)
(Generated by gcodetools from Inkscape.)
(Using default header. To add your own header create file "header" in the output dir.)
M3
(Header end.)
G21 (All units in mm)

(Start cutting path id: rect41390)
(Change tool to Cylindrical cutter)

G00 Z1.000000
G00 X10.000000 Y10.000000

G01 Z-2.000000 F100.0(Penetrate)
G01 X25.918998 Y10.033000 Z-2.000000 F200.000000
G01 X25.988758 Y31.754680 Z-2.000000
G02 X27.297752 Y53.059325 Z-2.000000 I183.710564 J-0.594955
G02 X29.080558 Y57.474030 Z-2.000000 I9.047192 J-1.086229
G03 X31.591177 Y61.237425 Z-2.000000 I-2.488583 J4.379305
G03 X30.070679 Y65.269950 Z-2.000000 I-4.603446 J0.567152
G02 X29.585156 Y79.688908 Z-2.000000 I14.391490 J7.702252
G02 X42.067363 Y91.819750 Z-2.000000 I21.623679 J-9.762706
G03 X48.160001 Y95.489349 Z-2.000000 I-9.422928 J22.537496
G03 X49.197159 Y97.685030 Z-2.000000 I-1.805566 J2.195681
G02 X49.862745 Y100.258296 Z-2.000000 I5.307127 J-0.000000
G02 X52.163387 Y103.033530 Z-2.000000 I8.526210 J-4.726922
G03 X57.074434 Y112.262327 Z-2.000000 I-8.800655 J10.604303
G03 X53.085296 Y121.557990 Z-2.000000 I-10.395162 J1.042804
G02 X49.406384 Y127.661986 Z-2.000000 I6.068647 J7.818255
G02 X51.100402 Y131.387870 Z-2.000000 I3.565340 J0.627020
G03 X52.967292 Y133.697641 Z-2.000000 I-4.224723 J5.324013
G03 X53.045502 Y135.802600 Z-2.000000 I-2.302857 J1.139496
G02 X38.850393 Y146.973891 Z-2.000000 I58.022963 J88.332827
G02 X31.162988 Y156.619661 Z-2.000000 I29.048913 J31.037366
G02 X26.739606 Y168.030655 Z-2.000000 I33.714579 J19.632034
G02 X25.000191 Y183.965510 Z-2.000000 I75.772166 J16.333490
G02 X25.364368 Y194.260241 Z-2.000000 I128.603647 J0.604444
G02 X26.859202 Y201.854324 Z-2.000000 I32.521683 J-2.457468
G02 X29.927268 Y209.511267 Z-2.000000 I57.907974 J-18.760041
G02 X39.646842 Y229.134331 Z-2.000000 I898.242129 J-432.693061
G03 X49.659345 Y245.987448 Z-2.000000 I-193.907889 J126.602234
G03 X54.376691 Y258.083468 Z-2.000000 I-47.015310 J25.303447
G03 X55.829838 Y269.368035 Z-2.000000 I-45.332385 J11.573431
G03 X55.208684 Y286.535478 Z-2.000000 I-202.920435 J1.252875
G03 X54.462763 Y314.406742 Z-2.000000 I-249.219980 J7.275716
G03 X52.528227 Y318.868905 Z-2.000000 I-7.558540 J-0.626513
G02 X49.750813 Y323.371019 Z-2.000000 I10.788861 J9.763561
G02 X47.891394 Y330.021977 Z-2.000000 I33.118016 J12.844255
G02 X47.570038 Y336.719266 Z-2.000000 I26.001623 J4.603991
G02 X48.963586 Y339.001009 Z-2.000000 I2.948748 J-0.234495
G03 X50.702798 Y342.430792 Z-2.000000 I-1.939018 J3.139120
G03 X48.533638 Y344.435302 Z-2.000000 I-2.169160 J-0.171413
G02 X44.814319 Y345.735546 Z-2.000000 I0.000000 J5.969636
G02 X39.399870 Y351.324258 Z-2.000000 I18.899908 J23.727750
G02 X35.315287 Y358.110620 Z-2.000000 I32.068675 J23.923928
G02 X33.170753 Y365.028359 Z-2.000000 I23.114666 J10.956940
G03 X30.901260 Y373.501843 Z-2.000000 I-42.069607 J-6.727033
G03 X28.829415 Y376.395108 Z-2.000000 I-6.548887 J-2.501161
G02 X27.126644 Y379.375835 Z-2.000000 I3.121298 J3.759800
G02 X25.919515 Y394.421914 Z-2.000000 I93.166240 J15.046079
G01 X25.919515 Y410.032850 Z-2.000000
G01 X9.244047 Y410.032850 Z-2.000000
G01 X10.000000 Y10.000000 Z-2.000000
G00 Z1.000000

(End cutting path id: rect41390)


(Start cutting path id: rect41390)
(Change tool to Cylindrical cutter)

G00 Z1.000000
G00 X10.000000 Y10.000000

G01 Z-4.000000 F100.0(Penetrate)
G01 X25.918998 Y10.033000 Z-4.000000 F200.000000
G01 X25.988758 Y31.754680 Z-4.000000
G02 X27.297752 Y53.059325 Z-4.000000 I183.710564 J-0.594955
G02 X29.080558 Y57.474030 Z-4.000000 I9.047192 J-1.086229
G03 X31.591177 Y61.237425 Z-4.000000 I-2.488583 J4.379305
G03 X30.070679 Y65.269950 Z-4.000000 I-4.603446 J0.567152
G02 X29.585156 Y79.688908 Z-4.000000 I14.391490 J7.702252
G02 X42.067363 Y91.819750 Z-4.000000 I21.623679 J-9.762706
G03 X48.160001 Y95.489349 Z-4.000000 I-9.422928 J22.537496
G03 X49.197159 Y97.685030 Z-4.000000 I-1.805566 J2.195681
G02 X49.862745 Y100.258296 Z-4.000000 I5.307127 J-0.000000
G02 X52.163387 Y103.033530 Z-4.000000 I8.526210 J-4.726922
G03 X57.074434 Y112.262327 Z-4.000000 I-8.800655 J10.604303
G03 X53.085296 Y121.557990 Z-4.000000 I-10.395162 J1.042804
G02 X49.406384 Y127.661986 Z-4.000000 I6.068647 J7.818255
G02 X51.100402 Y131.387870 Z-4.000000 I3.565340 J0.627020
G03 X52.967292 Y133.697641 Z-4.000000 I-4.224723 J5.324013
G03 X53.045502 Y135.802600 Z-4.000000 I-2.302857 J1.139496
G02 X38.850393 Y146.973891 Z-4.000000 I58.022963 J88.332827
G02 X31.162988 Y156.619661 Z-4.000000 I29.048913 J31.037366
G02 X26.739606 Y168.030655 Z-4.000000 I33.714579 J19.632034
G02 X25.000191 Y183.965510 Z-4.000000 I75.772166 J16.333490
G02 X25.364368 Y194.260241 Z-4.000000 I128.603647 J0.604444
G02 X26.859202 Y201.854324 Z-4.000000 I32.521683 J-2.457468
G02 X29.927268 Y209.511267 Z-4.000000 I57.907974 J-18.760041
G02 X39.646842 Y229.134331 Z-4.000000 I898.242129 J-432.693061
G03 X49.659345 Y245.987448 Z-4.000000 I-193.907889 J126.602234
G03 X54.376691 Y258.083468 Z-4.000000 I-47.015310 J25.303447
G03 X55.829838 Y269.368035 Z-4.000000 I-45.332385 J11.573431
G03 X55.208684 Y286.535478 Z-4.000000 I-202.920435 J1.252875
G03 X54.462763 Y314.406742 Z-4.000000 I-249.219980 J7.275716
G03 X52.528227 Y318.868905 Z-4.000000 I-7.558540 J-0.626513
G02 X49.750813 Y323.371019 Z-4.000000 I10.788861 J9.763561
G02 X47.891394 Y330.021977 Z-4.000000 I33.118016 J12.844255
G02 X47.570038 Y336.719266 Z-4.000000 I26.001623 J4.603991
G02 X48.963586 Y339.001009 Z-4.000000 I2.948748 J-0.234495
G03 X50.702798 Y342.430792 Z-4.000000 I-1.939018 J3.139120
G03 X48.533638 Y344.435302 Z-4.000000 I-2.169160 J-0.171413
G02 X44.814319 Y345.735546 Z-4.000000 I0.000000 J5.969636
G02 X39.399870 Y351.324258 Z-4.000000 I18.899908 J23.727750
G02 X35.315287 Y358.110620 Z-4.000000 I32.068675 J23.923928
G02 X33.170753 Y365.028359 Z-4.000000 I23.114666 J10.956940
G03 X30.901260 Y373.501843 Z-4.000000 I-42.069607 J-6.727033
G03 X28.829415 Y376.395108 Z-4.000000 I-6.548887 J-2.501161
G02 X27.126644 Y379.375835 Z-4.000000 I3.121298 J3.759800
G02 X25.919515 Y394.421914 Z-4.000000 I93.166240 J15.046079
G01 X25.919515 Y410.032850 Z-4.000000
G01 X9.244047 Y410.032850 Z-4.000000
G01 X10.000000 Y10.000000 Z-4.000000
G00 Z1.000000

(End cutting path id: rect41390)


(Start cutting path id: rect41390)
(Change tool to Cylindrical cutter)

G00 Z1.000000
G00 X10.000000 Y10.000000

G01 Z-6.000000 F100.0(Penetrate)
G01 X25.918998 Y10.033000 Z-6.000000 F200.000000
G01 X25.988758 Y31.754680 Z-6.000000
G02 X27.297752 Y53.059325 Z-6.000000 I183.710564 J-0.594955
G02 X29.080558 Y57.474030 Z-6.000000 I9.047192 J-1.086229
G03 X31.591177 Y61.237425 Z-6.000000 I-2.488583 J4.379305
G03 X30.070679 Y65.269950 Z-6.000000 I-4.603446 J0.567152
G02 X29.585156 Y79.688908 Z-6.000000 I14.391490 J7.702252
G02 X42.067363 Y91.819750 Z-6.000000 I21.623679 J-9.762706
G03 X48.160001 Y95.489349 Z-6.000000 I-9.422928 J22.537496
G03 X49.197159 Y97.685030 Z-6.000000 I-1.805566 J2.195681
G02 X49.862745 Y100.258296 Z-6.000000 I5.307127 J-0.000000
G02 X52.163387 Y103.033530 Z-6.000000 I8.526210 J-4.726922
G03 X57.074434 Y112.262327 Z-6.000000 I-8.800655 J10.604303
G03 X53.085296 Y121.557990 Z-6.000000 I-10.395162 J1.042804
G02 X49.406384 Y127.661986 Z-6.000000 I6.068647 J7.818255
G02 X51.100402 Y131.387870 Z-6.000000 I3.565340 J0.627020
G03 X52.967292 Y133.697641 Z-6.000000 I-4.224723 J5.324013
G03 X53.045502 Y135.802600 Z-6.000000 I-2.302857 J1.139496
G02 X38.850393 Y146.973891 Z-6.000000 I58.022963 J88.332827
G02 X31.162988 Y156.619661 Z-6.000000 I29.048913 J31.037366
G02 X26.739606 Y168.030655 Z-6.000000 I33.714579 J19.632034
G02 X25.000191 Y183.965510 Z-6.000000 I75.772166 J16.333490
G02 X25.364368 Y194.260241 Z-6.000000 I128.603647 J0.604444
G02 X26.859202 Y201.854324 Z-6.000000 I32.521683 J-2.457468
G02 X29.927268 Y209.511267 Z-6.000000 I57.907974 J-18.760041
G02 X39.646842 Y229.134331 Z-6.000000 I898.242129 J-432.693061
G03 X49.659345 Y245.987448 Z-6.000000 I-193.907889 J126.602234
G03 X54.376691 Y258.083468 Z-6.000000 I-47.015310 J25.303447
G03 X55.829838 Y269.368035 Z-6.000000 I-45.332385 J11.573431
G03 X55.208684 Y286.535478 Z-6.000000 I-202.920435 J1.252875
G03 X54.462763 Y314.406742 Z-6.000000 I-249.219980 J7.275716
G03 X52.528227 Y318.868905 Z-6.000000 I-7.558540 J-0.626513
G02 X49.750813 Y323.371019 Z-6.000000 I10.788861 J9.763561
G02 X47.891394 Y330.021977 Z-6.000000 I33.118016 J12.844255
G02 X47.570038 Y336.719266 Z-6.000000 I26.001623 J4.603991
G02 X48.963586 Y339.001009 Z-6.000000 I2.948748 J-0.234495
G03 X50.702798 Y342.430792 Z-6.000000 I-1.939018 J3.139120
G03 X48.533638 Y344.435302 Z-6.000000 I-2.169160 J-0.171413
G02 X44.814319 Y345.735546 Z-6.000000 I0.000000 J5.969636
G02 X39.399870 Y351.324258 Z-6.000000 I18.899908 J23.727750
G02 X35.315287 Y358.110620 Z-6.000000 I32.068675 J23.923928
G02 X33.170753 Y365.028359 Z-6.000000 I23.114666 J10.956940
G03 X30.901260 Y373.501843 Z-6.000000 I-42.069607 J-6.727033
G03 X28.829415 Y376.395108 Z-6.000000 I-6.548887 J-2.501161
G02 X27.126644 Y379.375835 Z-6.000000 I3.121298 J3.759800
G02 X25.919515 Y394.421914 Z-6.000000 I93.166240 J15.046079
G01 X25.919515 Y410.032850 Z-6.000000
G01 X9.244047 Y410.032850 Z-6.000000
G01 X10.000000 Y10.000000 Z-6.000000
G00 Z1.000000

(End cutting path id: rect41390)


(Start cutting path id: rect41390)
(Change tool to Cylindrical cutter)

G00 Z1.000000
G00 X10.000000 Y10.000000

G01 Z-8.000000 F100.0(Penetrate)
G01 X25.918998 Y10.033000 Z-8.000000 F200.000000
G01 X25.988758 Y31.754680 Z-8.000000
G02 X27.297752 Y53.059325 Z-8.000000 I183.710564 J-0.594955
G02 X29.080558 Y57.474030 Z-8.000000 I9.047192 J-1.086229
G03 X31.591177 Y61.237425 Z-8.000000 I-2.488583 J4.379305
G03 X30.070679 Y65.269950 Z-8.000000 I-4.603446 J0.567152
G02 X29.585156 Y79.688908 Z-8.000000 I14.391490 J7.702252
G02 X42.067363 Y91.819750 Z-8.000000 I21.623679 J-9.762706
G03 X48.160001 Y95.489349 Z-8.000000 I-9.422928 J22.537496
G03 X49.197159 Y97.685030 Z-8.000000 I-1.805566 J2.195681
G02 X49.862745 Y100.258296 Z-8.000000 I5.307127 J-0.000000
G02 X52.163387 Y103.033530 Z-8.000000 I8.526210 J-4.726922
G03 X57.074434 Y112.262327 Z-8.000000 I-8.800655 J10.604303
G03 X53.085296 Y121.557990 Z-8.000000 I-10.395162 J1.042804
G02 X49.406384 Y127.661986 Z-8.000000 I6.068647 J7.818255
G02 X51.100402 Y131.387870 Z-8.000000 I3.565340 J0.627020
G03 X52.967292 Y133.697641 Z-8.000000 I-4.224723 J5.324013
G03 X53.045502 Y135.802600 Z-8.000000 I-2.302857 J1.139496
G02 X38.850393 Y146.973891 Z-8.000000 I58.022963 J88.332827
G02 X31.162988 Y156.619661 Z-8.000000 I29.048913 J31.037366
G02 X26.739606 Y168.030655 Z-8.000000 I33.714579 J19.632034
G02 X25.000191 Y183.965510 Z-8.000000 I75.772166 J16.333490
G02 X25.364368 Y194.260241 Z-8.000000 I128.603647 J0.604444
G02 X26.859202 Y201.854324 Z-8.000000 I32.521683 J-2.457468
G02 X29.927268 Y209.511267 Z-8.000000 I57.907974 J-18.760041
G02 X39.646842 Y229.134331 Z-8.000000 I898.242129 J-432.693061
G03 X49.659345 Y245.987448 Z-8.000000 I-193.907889 J126.602234
G03 X54.376691 Y258.083468 Z-8.000000 I-47.015310 J25.303447
G03 X55.829838 Y269.368035 Z-8.000000 I-45.332385 J11.573431
G03 X55.208684 Y286.535478 Z-8.000000 I-202.920435 J1.252875
G03 X54.462763 Y314.406742 Z-8.000000 I-249.219980 J7.275716
G03 X52.528227 Y318.868905 Z-8.000000 I-7.558540 J-0.626513
G02 X49.750813 Y323.371019 Z-8.000000 I10.788861 J9.763561
G02 X47.891394 Y330.021977 Z-8.000000 I33.118016 J12.844255
G02 X47.570038 Y336.719266 Z-8.000000 I26.001623 J4.603991
G02 X48.963586 Y339.001009 Z-8.000000 I2.948748 J-0.234495
G03 X50.702798 Y342.430792 Z-8.000000 I-1.939018 J3.139120
G03 X48.533638 Y344.435302 Z-8.000000 I-2.169160 J-0.171413
G02 X44.814319 Y345.735546 Z-8.000000 I0.000000 J5.969636
G02 X39.399870 Y351.324258 Z-8.000000 I18.899908 J23.727750
G02 X35.315287 Y358.110620 Z-8.000000 I32.068675 J23.923928
G02 X33.170753 Y365.028359 Z-8.000000 I23.114666 J10.956940
G03 X30.901260 Y373.501843 Z-8.000000 I-42.069607 J-6.727033
G03 X28.829415 Y376.395108 Z-8.000000 I-6.548887 J-2.501161
G02 X27.126644 Y379.375835 Z-8.000000 I3.121298 J3.759800
G02 X25.919515 Y394.421914 Z-8.000000 I93.166240 J15.046079
G01 X25.919515 Y410.032850 Z-8.000000
G01 X9.244047 Y410.032850 Z-8.000000
G01 X10.000000 Y10.000000 Z-8.000000
G00 Z1.000000

(End cutting path id: rect41390)


(Footer)
M5
G00 X0.0000 Y0.0000
M2
(Using default footer. To add your own footer create file "footer" in the output dir.)
(end)
%