(Airplane wheels)
(T2  D=2.5 CR=0 - ZMIN=0 - flat end mill)
G90 G94
G17
G21
G28 G91 Z0
G90

(2D Contour5)
S5000 M3
G54
M8
G0 X52.189 Y6.279
Z3
G1 Z1 F130
Y6.286 Z0.879
X52.19 Y6.308 Z0.761
X52.191 Y6.344 Z0.645
X52.192 Y6.393 Z0.535
X52.193 Y6.456 Z0.432
X52.195 Y6.53 Z0.337
X52.197 Y6.615 Z0.251
X52.2 Y6.71 Z0.177
X52.202 Y6.814 Z0.115
X52.205 Y6.924 Z0.065
X52.208 Y7.039 Z0.029
X52.211 Y7.158 Z0.007
X52.214 Y7.278 Z0
X52.238 Y8.278
G3 X51.263 Y9.302 I-1 J0.025
G2 X52.797 Y71.783 I0.767 J31.241
X83.28 Y40.543 I-0.767 J-31.241
G1 Y40.419
G2 X52.03 Y9.293 I-31.25 J0.123
X51.263 Y9.302 I0 J31.25
G3 X50.239 Y8.327 I-0.025 J-1
G1 X50.214 Y7.327
X50.211 Y7.207 Z0.007
X50.208 Y7.088 Z0.029
X50.206 Y6.973 Z0.065
X50.203 Y6.863 Z0.115
X50.2 Y6.759 Z0.177
X50.198 Y6.664 Z0.251
X50.196 Y6.579 Z0.337
X50.194 Y6.505 Z0.432
X50.192 Y6.442 Z0.535
X50.191 Y6.393 Z0.645
X50.19 Y6.357 Z0.761
Y6.335 Z0.879
Y6.328 Z1
G0 Z3
X123.815 Y6.278
G1 Z1 F130
Y6.285 Z0.879
X123.816 Y6.307 Z0.761
X123.817 Y6.343 Z0.645
X123.818 Y6.393 Z0.535
X123.82 Y6.455 Z0.432
X123.821 Y6.53 Z0.337
X123.823 Y6.615 Z0.251
X123.826 Y6.71 Z0.177
X123.828 Y6.813 Z0.115
X123.831 Y6.923 Z0.065
X123.834 Y7.039 Z0.029
X123.837 Y7.157 Z0.007
X123.84 Y7.278 Z0
X123.864 Y8.278
G3 X122.889 Y9.302 I-1 J0.025
G2 X92.406 Y40.543 I0.767 J31.241
X123.656 Y71.793 I31.25 J0
X154.906 Y40.543 I0 J-31.25
G1 Y40.442
G2 X123.656 Y9.292 I-31.25 J0.101
X122.889 Y9.302 I0 J31.25
G3 X121.865 Y8.327 I-0.025 J-1
G1 X121.84 Y7.327
X121.837 Y7.206 Z0.007
X121.834 Y7.088 Z0.029
X121.832 Y6.972 Z0.065
X121.829 Y6.862 Z0.115
X121.826 Y6.759 Z0.177
X121.824 Y6.664 Z0.251
X121.822 Y6.579 Z0.337
X121.82 Y6.504 Z0.432
X121.819 Y6.442 Z0.535
X121.817 Y6.392 Z0.645
X121.816 Y6.356 Z0.761
Y6.335 Z0.879
Y6.327 Z1
G0 Z3
X187.835 Y16.293
G1 Z1 F130
G19 G3 Y17.293 Z0 J1 K0
G1 Y18.293
G17 G3 X186.835 Y19.293 I-1 J0
G2 X165.585 Y40.543 I0 J21.25
G1 Y40.644
G2 X186.835 Y61.793 I21.25 J-0.101
X186.835 Y19.293 I0 J-21.25
G3 X185.835 Y18.293 I0 J-1
G1 Y17.293
G19 G2 Y16.293 Z1 J0 K1
G0 Z3
G17
M9
G28 G91 Z0
G90
G28 G91 X0 Y0
G90
M5
M30
