(airfoils 2 v2)
(T2  D=2.5 CR=0 - ZMIN=0 - flat end mill)
G90 G94
G17
G21
G28 G91 Z0
G90

(2D Contour4)
T2 M6
S5000 M3
G54
M8
G0 X15.956 Y26.622
Z5
Z3
G1 Z1.25 F170
X15.963 Y26.619 Z1.11
X15.984 Y26.608 Z0.972
X16.018 Y26.59 Z0.837
X16.066 Y26.565 Z0.708
X16.126 Y26.534 Z0.585
X16.198 Y26.496 Z0.471
X16.28 Y26.453 Z0.366
X16.373 Y26.404 Z0.273
X16.474 Y26.351 Z0.192
X16.583 Y26.294 Z0.124
X16.698 Y26.234 Z0.07
X16.817 Y26.172 Z0.031
X16.939 Y26.108 Z0.008
X17.063 Y26.043 Z0
X18.171 Y25.463
G2 X17.965 Y23.163 I-0.58 J-1.108
G3 X18.38 Y20.72 I0.373 J-1.193
G1 X20.709 Y20.798
X28.774 Y21.066
X32.001 Y21.173
X38.453 Y21.388
X41.679 Y21.495
X44.905 Y21.603
X64.259 Y22.246
X67.484 Y22.344
X67.487
X70.713 Y22.451
X73.94 Y22.558
X77.166 Y22.666
X80.392 Y22.773
X83.618 Y22.88
X86.844 Y22.987
X90.07 Y23.095
X93.296 Y23.202
X96.522 Y23.309
X99.748 Y23.417
X102.974 Y23.524
X106.2 Y23.631
X112.652 Y23.846
X119.104 Y24.06
X122.33 Y24.168
X125.556 Y24.275
X132.006 Y24.489
X135.231 Y24.587
X135.235
X141.687 Y24.802
X141.694
X144.919 Y24.929
X144.923
X148.147 Y25.066
X148.158
X151.38 Y25.232
X151.392 Y25.233
X154.612 Y25.428
X154.623 Y25.429
X157.84 Y25.654
X157.859 Y25.656
X161.074 Y25.93
X161.089 Y25.931
X164.3 Y26.245
X164.323 Y26.247
X167.531 Y26.619
X167.557 Y26.622
X170.76 Y27.063
X170.813 Y27.072
X172.409 Y27.361
X172.46 Y27.371
X174.052 Y27.729
X174.095 Y27.739
X175.682 Y28.156
X175.738 Y28.172
X177.321 Y28.667
X177.414 Y28.7
X177.504 Y28.741
X178.752 Y29.36
X178.859 Y29.42
X178.96 Y29.491
X179.577 Y29.968
X179.66 Y30.038
X179.737 Y30.115
X180.332 Y30.768
X180.398 Y30.846
X180.457 Y30.93
X180.751 Y31.385
X180.798 Y31.462
X180.838 Y31.542
X180.983 Y31.858
X181.012 Y31.926
X181.037 Y31.996
X181.102 Y32.198
G3 X181.161 Y32.539 I-1.19 J0.383
G1 X181.187 Y33.3
G3 X181.14 Y33.686 I-1.249 J0.043
G1 X181.035 Y34.053
X181.011 Y34.127
X180.983 Y34.2
X180.889 Y34.42
X180.854 Y34.494
X180.815 Y34.565
X180.625 Y34.887
X180.548 Y35.003
X180.189 Y35.48
X180.145 Y35.536
X180.097 Y35.589
X179.405 Y36.319
X179.332 Y36.391
X178.638 Y37.012
X178.594 Y37.05
X177.224 Y38.167
X177.125 Y38.24
X175.43 Y39.364
X175.314 Y39.432
X173.637 Y40.3
X173.553 Y40.34
X171.886 Y41.052
X171.828 Y41.074
X170.168 Y41.688
X170.098 Y41.712
X166.795 Y42.713
X166.739 Y42.728
X163.447 Y43.563
X163.393 Y43.575
X160.112 Y44.253
X160.066 Y44.262
X156.794 Y44.812
X156.755 Y44.817
X153.491 Y45.26
X153.454 Y45.264
X150.196 Y45.608
X150.152 Y45.612
X146.903 Y45.838
X146.869 Y45.84
X143.626 Y45.978
X143.588 Y45.979
X140.351 Y46.019
X140.329
X137.097 Y46
X137.074
X133.846 Y45.922
X133.831 Y45.921
X130.606 Y45.804
X130.594
X127.37 Y45.657
X127.363
X124.141 Y45.491
X124.125 Y45.49
X120.906 Y45.284
X120.891 Y45.283
X117.675 Y45.039
X117.66 Y45.038
X114.446 Y44.754
X114.431 Y44.752
X111.22 Y44.429
X111.205 Y44.427
X107.997 Y44.065
X107.985 Y44.064
X104.779 Y43.672
X104.764 Y43.67
X101.561 Y43.239
X101.546 Y43.237
X98.345 Y42.767
X98.338 Y42.766
X95.138 Y42.276
X95.127 Y42.274
X91.93 Y41.755
X91.919 Y41.753
X88.724 Y41.204
X88.713 Y41.202
X85.519 Y40.624
X85.508 Y40.622
X82.317 Y40.014
X82.306 Y40.012
X79.117 Y39.375
X79.106 Y39.373
X75.919 Y38.706
X75.912 Y38.705
X72.727 Y38.019
X72.716 Y38.016
X69.532 Y37.301
X69.525 Y37.299
X66.343 Y36.564
X66.339 Y36.563
X63.158 Y35.818
X63.147 Y35.815
X59.967 Y35.041
X59.964 Y35.04
X56.785 Y34.256
X56.774 Y34.253
X53.598 Y33.44
X53.594 Y33.439
X50.418 Y32.615
X50.408 Y32.612
X47.234 Y31.76
X47.23 Y31.759
X44.057 Y30.896
X44.05 Y30.894
X40.878 Y30.012
X40.875 Y30.011
X37.703 Y29.119
X37.693 Y29.116
X34.524 Y28.194
X34.52 Y28.193
X31.352 Y27.262
X31.348 Y27.261
X28.181 Y26.319
X28.17 Y26.316
X25.005 Y25.346
X23.422 Y24.86
X23.415 Y24.858
X21.836 Y24.364
X20.257 Y23.88
X20.25 Y23.878
X17.965 Y23.163
G0 Z3
X20.987 Y63.718
G1 Z1.25 F170
X20.982 Y63.724 Z1.11
X20.964 Y63.74 Z0.972
X20.936 Y63.766 Z0.837
X20.897 Y63.803 Z0.708
X20.847 Y63.849 Z0.585
X20.788 Y63.905 Z0.471
X20.72 Y63.968 Z0.366
X20.644 Y64.04 Z0.273
X20.56 Y64.118 Z0.192
X20.471 Y64.202 Z0.124
X20.376 Y64.29 Z0.07
X20.278 Y64.382 Z0.031
X20.177 Y64.477 Z0.008
X20.075 Y64.572 Z0
X19.162 Y65.426
G2 X19.974 Y67.588 I0.854 J0.913
G1 X22.304 Y67.666
X30.369 Y67.934
X33.595 Y68.041
X40.047 Y68.256
X43.273 Y68.363
X46.499 Y68.47
X65.854 Y69.114
X69.078 Y69.212
X69.082
X72.308 Y69.319
X75.534 Y69.426
X78.76 Y69.534
X81.986 Y69.641
X85.212 Y69.748
X88.438 Y69.855
X91.664 Y69.963
X94.89 Y70.07
X98.116 Y70.177
X101.343 Y70.285
X104.569 Y70.392
X107.795 Y70.499
X123.925 Y71.036
X127.151 Y71.143
X133.601 Y71.357
X136.826 Y71.455
X136.83
X143.282 Y71.669
X143.289 Y71.67
X146.513 Y71.797
X146.517
X149.741 Y71.934
X149.752
X152.974 Y72.1
X152.986 Y72.101
X156.206 Y72.296
X156.217 Y72.297
X159.435 Y72.522
X159.454 Y72.524
X162.668 Y72.798
X162.683 Y72.799
X165.895 Y73.112
X165.918 Y73.115
X169.125 Y73.487
X169.151 Y73.49
X172.354 Y73.931
X172.407 Y73.939
X174.004 Y74.229
X174.055 Y74.239
X175.646 Y74.597
X175.689 Y74.607
X177.277 Y75.024
X177.333 Y75.04
X178.915 Y75.535
X179.008 Y75.568
X179.098 Y75.608
X180.346 Y76.228
X180.453 Y76.288
X180.554 Y76.358
X181.172 Y76.835
X181.255 Y76.905
X181.332 Y76.983
X181.927 Y77.636
X181.994 Y77.715
X182.053 Y77.8
X182.346 Y78.254
X182.391 Y78.329
X182.431 Y78.407
X182.577 Y78.723
X182.606 Y78.793
X182.632 Y78.864
X182.697 Y79.066
G3 X182.756 Y79.408 I-1.19 J0.383
G1 X182.781 Y80.169
G3 X182.735 Y80.551 I-1.249 J0.041
G1 X182.631 Y80.918
X182.606 Y80.996
X182.576 Y81.073
X182.481 Y81.293
X182.447 Y81.364
X182.409 Y81.433
X182.219 Y81.755
X182.143 Y81.869
X181.785 Y82.347
X181.74 Y82.403
X181.692 Y82.457
X181 Y83.187
X180.927 Y83.259
X180.233 Y83.88
X180.189 Y83.918
X178.819 Y85.035
X178.72 Y85.108
X177.025 Y86.232
X176.909 Y86.3
X175.231 Y87.168
X175.147 Y87.208
X173.481 Y87.919
X173.423 Y87.942
X171.763 Y88.556
X171.693 Y88.58
X168.39 Y89.581
X168.334 Y89.596
X165.042 Y90.431
X164.988 Y90.443
X161.707 Y91.121
X161.661 Y91.129
X158.389 Y91.679
X158.35 Y91.685
X155.085 Y92.127
X155.048 Y92.132
X151.791 Y92.476
X151.747 Y92.48
X148.497 Y92.706
X148.463 Y92.708
X145.22 Y92.846
X145.182 Y92.847
X141.946 Y92.887
X141.924
X138.692 Y92.868
X138.669
X135.441 Y92.79
X135.426 Y92.789
X132.2 Y92.672
X132.188
X128.965 Y92.525
X128.958
X125.736 Y92.359
X125.72 Y92.358
X122.501 Y92.152
X122.486 Y92.151
X119.27 Y91.907
X119.255 Y91.905
X116.041 Y91.622
X116.026 Y91.62
X112.815 Y91.297
X112.8 Y91.295
X109.592 Y90.933
X109.58 Y90.932
X106.374 Y90.54
X106.359 Y90.538
X103.155 Y90.107
X103.14 Y90.105
X99.94 Y89.635
X99.933 Y89.633
X96.733 Y89.144
X96.722 Y89.142
X93.525 Y88.622
X93.514 Y88.621
X90.318 Y88.072
X90.307 Y88.07
X87.114 Y87.492
X87.103 Y87.49
X83.912 Y86.882
X83.901 Y86.88
X80.712 Y86.243
X80.701 Y86.241
X77.514 Y85.574
X77.507 Y85.573
X74.321 Y84.886
X74.31 Y84.884
X71.127 Y84.168
X71.12 Y84.167
X67.937 Y83.432
X67.934 Y83.431
X64.752 Y82.686
X64.741 Y82.683
X61.562 Y81.909
X61.558 Y81.908
X58.38 Y81.124
X58.369 Y81.121
X55.192 Y80.308
X55.189 Y80.307
X52.013 Y79.483
X52.002 Y79.48
X48.828 Y78.627
X48.825
X45.652 Y77.764
X45.645 Y77.762
X42.473 Y76.88
X42.469 Y76.879
X39.298 Y75.986
X39.288 Y75.983
X36.118 Y75.062
X36.115 Y75.061
X32.947 Y74.13
X32.943 Y74.129
X29.775 Y73.187
X29.765 Y73.184
X26.599 Y72.214
X25.016 Y71.728
X25.01 Y71.726
X23.431 Y71.232
X21.852 Y70.748
X21.845 Y70.746
X19.559 Y70.031
G3 X19.974 Y67.588 I0.373 J-1.193
G0 Z5
M9
G28 G91 Z0
G90
G28 G91 X0 Y0
G90
M5
M30
