(Fuselage front part 50mm)
(T1  D=2 CR=0 - ZMIN=-1 - flat end mill)
G90 G94
G17
G21
G28 G91 Z0
G90

(2D Contour22)
T1 M6
S5000 M3
G54
G0 X11.028 Y26.01
Z6
G1 Z2 F333.3
Z-0.8
G18 G2 X11.228 Z-1 I0.2 K0
G1 X11.428 F400
G17 G3 X11.628 Y26.21 I0 J0.2
G1 Y108.279
G2 X12.441 Y109.261 I1 J0
G1 X14.636 Y109.68
X16.85 Y110.112
X19.084 Y110.559
X21.338 Y111.021
X23.613 Y111.498
X25.908 Y111.991
X28.224 Y112.5
X30.56 Y113.025
X32.917 Y113.567
X35.295 Y114.126
X37.693 Y114.702
X40.111 Y115.295
X42.55 Y115.906
X45.011 Y116.536
X47.491 Y117.184
X49.993 Y117.851
X52.515 Y118.536
X55.058 Y119.241
X57.622 Y119.967
X60.207 Y120.711
X62.813 Y121.477
X65.439 Y122.262
X68.087 Y123.07
X70.757 Y123.898
X73.04 Y124.613
X73.046 Y124.615
X74.626 Y125.099
X76.206 Y125.593
X76.211 Y125.595
X77.794 Y126.08
X80.96 Y127.051
X80.968 Y127.054
X84.136 Y127.995
X84.139
X87.307 Y128.926
X87.309 Y128.927
X87.621 Y129.018
G2 X88.901 Y128.058 I0.28 J-0.96
G1 Y124.538
X91.094 Y124.61
X94.32 Y124.717
G2 X95.353 Y123.718 I0.033 J-0.999
G1 Y111.712
G2 X94.386 Y110.713 I-1 J0
G1 X91.559 Y110.619
X85.107 Y110.404
X81.881 Y110.297
X73.816 Y110.029
X73.114 Y110.005
X71.943 Y109.666
X70.653 Y109.295
X69.366 Y108.926
X69.364 Y108.925
X68.08 Y108.559
X66.798 Y108.195
X65.518 Y107.833
X65.516 Y107.832
X64.24 Y107.473
X62.964 Y107.116
X61.692 Y106.761
X61.69 Y106.76
X60.42 Y106.408
X59.153 Y106.057
X59.151
X57.886 Y105.709
X57.885 Y105.708
X56.622 Y105.363
X55.362 Y105.019
X55.36
X54.103 Y104.678
X54.102
X52.846 Y104.339
X52.845 Y104.338
X51.592 Y104.002
X50.341 Y103.667
X50.339
X49.091 Y103.335
X49.09 Y103.334
X47.844 Y103.004
X47.842
X46.599 Y102.677
X45.357 Y102.351
X45.356 Y102.35
X44.117 Y102.027
X44.116
X43.628 Y101.9
Y42.479
X326.628
Y46.479
G2 X327.628 Y47.479 I1 J0
G1 X349.628
Y77.736
G3 X329.582 Y81.908 I-27.628 J-82.497
G1 X296.66 Y84.789
G2 X261.151 Y97.713 I6.363 J72.722
G1 X232.179 Y118
X231.697 Y117.849
X231.652 Y117.836
X229.588 Y117.294
X229.553 Y117.285
X227.507 Y116.825
X227.466 Y116.817
X225.372 Y116.438
X225.33 Y116.431
X221.749 Y115.938
X221.728 Y115.936
X220.218 Y115.761
G2 X219.103 Y116.754 I-0.115 J0.993
G1 Y128.834
G2 X219.967 Y129.825 I1 J0
G1 X223.149 Y130.263
X224.703 Y130.544
X226.257 Y130.894
X227.806 Y131.3
X229.29 Y131.765
X230.379 Y132.305
X230.848 Y132.668
X231.329 Y133.195
X231.539 Y133.521
X231.629 Y133.717
X231.676 Y133.861
G2 X233.202 Y134.374 I0.952 J-0.306
G1 X269.182 Y109.181
G3 X297.88 Y98.735 I33.841 J48.329
G1 X330.802 Y95.855
G2 X356.371 Y90.211 I-8.803 J-100.616
X363.628 Y79.867 I-3.743 J-10.343
G1 Y44.867
G2 X354.98 Y34.122 I-11 J0
G1 X354.978 Y34.121
X352.011 Y33.478
X352.007 Y33.477
X349.067 Y32.85
X349.064 Y32.849
X346.149 Y32.24
X346.145 Y32.239
X343.255 Y31.646
X343.251 Y31.645
X340.385 Y31.068
X340.382 Y31.067
X337.54 Y30.506
X337.536 Y30.505
X334.717 Y29.96
X334.713 Y29.959
X331.917 Y29.43
X331.913 Y29.429
X329.138 Y28.915
X329.134 Y28.914
X326.381 Y28.415
X326.377
X323.644 Y27.93
X323.641
X320.928 Y27.46
X320.924
X318.23 Y27.005
X318.226 Y27.004
X315.551 Y26.563
X315.547 Y26.562
X312.89 Y26.135
X312.886
X310.246 Y25.721
X310.242
X307.619 Y25.321
X307.615 Y25.32
X305.008 Y24.934
X305.004 Y24.933
X302.412 Y24.56
X302.408 Y24.559
X299.832 Y24.198
X299.828
X297.265 Y23.85
X297.261 Y23.849
X294.712 Y23.513
X294.708 Y23.512
X292.172 Y23.189
X292.168 Y23.188
X289.645 Y22.876
X289.639 Y22.875
X284.625 Y22.285
X284.617
X279.646 Y21.739
X279.638 Y21.738
X274.703 Y21.236
X274.696 Y21.235
X269.792 Y20.773
X269.785 Y20.772
X264.908 Y20.348
X264.9
X260.044 Y19.961
X260.037
X255.198 Y19.609
X255.192 Y19.608
X250.363 Y19.29
X250.356 Y19.289
X245.509 Y19.001
X245.503 Y19
X240.445 Y18.733
X240.438 Y18.732
X235.125 Y18.486
X235.119 Y18.485
X229.543 Y18.262
X229.537
X223.691 Y18.064
X223.685
X217.561 Y17.894
X217.555
X211.147 Y17.755
X211.141
X204.44 Y17.648
X204.434
X197.433 Y17.576
X197.428
X190.12 Y17.541
X190.116
X186.344 Y17.538
X186.341
X182.49 Y17.546
X182.487
X178.556 Y17.563
X178.554
X174.541 Y17.592
X174.538
X170.442 Y17.631
X170.44
X166.262 Y17.682
X166.259
X161.996 Y17.745
X161.994
X157.646 Y17.819
X157.644
X153.21 Y17.905
X153.207
X148.686 Y18.004
X148.684
X144.075 Y18.116
X144.073
X139.375 Y18.24
X139.372
X134.584 Y18.378
X134.582
X129.704 Y18.53
X129.702
X124.732 Y18.695
X124.73
X119.667 Y18.874
X119.664 Y18.875
X114.52 Y19.068
X114.518
X109.336 Y19.274
X109.334 Y19.275
X104.121 Y19.494
X104.119
X98.877 Y19.726
X98.874
X93.605 Y19.971
X93.602
X88.307 Y20.229
X88.305
X82.986 Y20.5
X82.984 Y20.501
X77.643 Y20.784
X77.641 Y20.785
X72.28 Y21.081
X72.278 Y21.082
X66.9 Y21.391
X66.898 Y21.392
X61.504 Y21.714
X61.502 Y21.715
X56.094 Y22.051
X56.092
X50.672 Y22.4
X50.67
X45.24 Y22.762
X45.238
X39.8 Y23.138
X39.798
X34.354 Y23.526
X34.352 Y23.527
X28.904 Y23.928
X28.902
X23.451 Y24.343
X23.449 Y24.344
X17.999 Y24.772
X17.996
X12.547 Y25.213
G2 X11.628 Y26.21 I0.081 J0.997
G3 X11.428 Y26.41 I-0.2 J0
G1 X11.228
G18 G3 X11.028 Z-0.8 I0 K0.2
G0 Z6
G17
G28 G91 Z0
G90
G28 G91 X0 Y0
G90
M5
M30
