(Fuselage front 10 cm - r2)
(T2  D=2.5 CR=0 - ZMIN=-15 - flat end mill)
G90 G94
G17
G21
G28 G91 Z0
G90

(2D Contour9)
S5000 M3
G54
M8
G0 X11.92 Y16.076
Z3
Z2
G1 Z-14.75 F140
Y16.083 Z-14.806
X11.922 Y16.101 Z-14.858
X11.925 Y16.131 Z-14.906
X11.929 Y16.17 Z-14.945
X11.933 Y16.217 Z-14.975
X11.938 Y16.27 Z-14.994
X11.944 Y16.325 Z-15
X11.968 Y16.574
G3 X11.743 Y16.847 I-0.249 J0.024
G2 X10.614 Y18.091 I0.12 J1.244
G1 Y100.684
G2 X11.605 Y101.907 I1.25 J0
G1 X13.647 Y102.339
X15.684 Y102.78
X17.719 Y103.229
X19.751 Y103.687
X21.781 Y104.153
X23.808 Y104.628
X25.833 Y105.109
X27.855 Y105.6
X29.875 Y106.1
X31.893 Y106.607
X33.908 Y107.122
X35.921 Y107.646
X37.932 Y108.178
X39.941 Y108.718
X41.947 Y109.265
X43.952 Y109.821
X45.954 Y110.385
X47.954 Y110.956
X49.953 Y111.536
X51.949 Y112.123
X53.944 Y112.719
X55.936 Y113.322
X57.927 Y113.933
X59.917 Y114.552
X62.202 Y115.267
X62.209 Y115.269
X63.788 Y115.753
X65.367 Y116.247
X65.373 Y116.249
X66.956 Y116.735
X70.122 Y117.705
X70.132 Y117.708
X73.3 Y118.65
X73.304 Y118.651
X76.472 Y119.582
X76.475 Y119.583
X76.787 Y119.674
G2 X78.387 Y118.474 I0.35 J-1.2
G1 Y115.211
X80.321 Y115.275
X83.547 Y115.383
X86.773 Y115.49
X106.129 Y116.134
X106.133
X109.358 Y116.231
X112.582 Y116.339
X115.809 Y116.446
X119.035 Y116.553
X122.26 Y116.66
X125.486 Y116.768
X128.713 Y116.875
X131.938 Y116.982
X135.164 Y117.09
X138.391 Y117.197
X141.617 Y117.304
X144.842 Y117.411
X148.068 Y117.519
X151.295 Y117.626
X154.52 Y117.733
X157.746 Y117.841
X160.973 Y117.948
X164.199 Y118.055
X167.424 Y118.162
X173.876 Y118.377
X173.88
X177.105 Y118.474
X183.552 Y118.689
X186.77 Y118.816
X189.986 Y118.953
X193.197 Y119.118
X196.406 Y119.312
X199.608 Y119.536
X202.805 Y119.809
X205.998 Y120.121
X209.181 Y120.49
X212.344 Y120.926
X213.889 Y121.205
X215.433 Y121.553
X216.972 Y121.956
X218.431 Y122.412
X219.481 Y122.934
X219.915 Y123.269
X220.366 Y123.764
X220.555 Y124.057
X220.633 Y124.225
X220.675 Y124.355
G2 X222.581 Y124.994 I1.189 J-0.385
G1 X254.17 Y102.875
G3 X292.476 Y88.933 I45.169 J64.508
G1 X306.185 Y87.733
G2 X348.16 Y75.429 I-9.696 J-110.827
X353.114 Y67.238 I-4.295 J-8.192
G1 Y35.238
G2 X351.361 Y29.821 I-9.25 J0.001
G1 X351.343 Y29.796
X351.196 Y29.603
X351.161 Y29.559
X351.004 Y29.371
X350.956 Y29.316
X350.618 Y28.956
X350.559 Y28.896
X350.197 Y28.559
X350.145 Y28.514
X349.77 Y28.2
X349.729 Y28.167
X349.34 Y27.869
X349.299 Y27.84
X348.889 Y27.551
X348.856 Y27.528
X348.431 Y27.25
X348.4 Y27.23
X347.963 Y26.961
X347.936 Y26.945
X347.491 Y26.686
X347.467 Y26.673
X347.018 Y26.425
X346.986 Y26.408
X346.09 Y25.947
X346.055 Y25.93
X345.174 Y25.511
X345.144 Y25.497
X344.231 Y25.092
X344.206 Y25.081
X343.26 Y24.686
X343.237 Y24.677
X342.263 Y24.293
X342.242 Y24.285
X341.245 Y23.912
X341.227 Y23.905
X340.211 Y23.543
X340.195 Y23.538
X339.168 Y23.188
X339.153 Y23.183
X338.12 Y22.846
X338.106 Y22.841
X337.071 Y22.516
X337.059 Y22.512
X336.028 Y22.2
X336.012 Y22.195
X333.984 Y21.611
X333.966 Y21.606
X332.019 Y21.077
X332.003 Y21.072
X330.103 Y20.583
X330.089 Y20.579
X328.104 Y20.092
X328.091 Y20.089
X326.018 Y19.603
X326.006 Y19.6
X323.845 Y19.117
X323.833 Y19.115
X321.585 Y18.635
X321.574 Y18.632
X319.24 Y18.156
X319.229 Y18.154
X316.807 Y17.681
X316.797 Y17.68
X314.291 Y17.212
X314.282 Y17.21
X311.69 Y16.747
X311.68 Y16.745
X309.003 Y16.288
X308.995 Y16.287
X306.234 Y15.836
X306.225 Y15.834
X303.381 Y15.39
X303.373 Y15.389
X300.445 Y14.951
X300.437 Y14.95
X297.427 Y14.521
X297.419 Y14.519
X294.327 Y14.098
X294.319 Y14.097
X291.145 Y13.684
X291.138 Y13.683
X287.883 Y13.28
X287.876 Y13.279
X284.54 Y12.886
X284.533 Y12.885
X281.117 Y12.501
X281.11
X277.594 Y12.126
X277.588 Y12.125
X273.922 Y11.755
X273.915 Y11.754
X270.096 Y11.39
X270.089 Y11.389
X266.116 Y11.032
X266.109 Y11.031
X261.982 Y10.683
X261.975
X257.691 Y10.345
X257.684
X253.244 Y10.02
X253.237 Y10.019
X248.64 Y9.708
X248.634
X243.879 Y9.412
X243.872
X238.958 Y9.133
X238.951
X233.877 Y8.873
X233.87
X228.636 Y8.634
X228.629
X223.233 Y8.417
X223.226 Y8.416
X217.668 Y8.223
X217.662
X211.942 Y8.055
X211.935
X206.05 Y7.914
X206.043
X199.994 Y7.802
X199.987
X193.772 Y7.72
X193.766
X187.385 Y7.67
X187.378
X180.829 Y7.653
X180.823
X174.107 Y7.672
X174.1
X167.215 Y7.727
X167.208 Y7.728
X160.154 Y7.822
X160.148
X152.923 Y7.956
X152.916
X145.549 Y8.131
X145.543
X138.147 Y8.344
X138.141
X130.728 Y8.594
X130.722
X123.296 Y8.88
X123.29 Y8.881
X115.852 Y9.201
X115.846 Y9.202
X108.399 Y9.557
X108.394
X100.939 Y9.945
X100.934
X93.475 Y10.366
X93.47
X86.009 Y10.818
X86.004
X78.543 Y11.3
X78.538
X71.079 Y11.811
X71.074 Y11.812
X63.621 Y12.351
X63.616 Y12.352
X56.169 Y12.919
X56.165
X48.727 Y13.512
X48.723 Y13.513
X41.297 Y14.132
X41.293
X33.882 Y14.776
X33.877 Y14.777
X26.483 Y15.444
X26.478
X19.102 Y16.135
X19.098
X11.743 Y16.847
G3 X11.47 Y16.622 I-0.024 J-0.249
G1 X11.446 Y16.373
X11.441 Y16.318 Z-14.994
X11.436 Y16.265 Z-14.975
X11.431 Y16.218 Z-14.945
X11.427 Y16.179 Z-14.906
X11.424 Y16.149 Z-14.858
X11.423 Y16.131 Z-14.806
X11.422 Y16.125 Z-14.75
G0 Z3
M9
G28 G91 Z0
G90
G28 G91 X0 Y0
G90
M5
M30
