(Fuselage front part - R2 )
(T2  D=2.5 CR=0 - ZMIN=0 - flat end mill)
G90 G94
G17
G21
G28 G91 Z0
G90

(2D Contour8)
S5000 M3
G54
M8
G0 X16.595 Y20.719
Z3
Z2
G1 Z0.25 F150
X16.596 Y20.726 Z0.194
X16.598 Y20.744 Z0.142
X16.601 Y20.774 Z0.094
X16.604 Y20.813 Z0.055
X16.609 Y20.86 Z0.025
X16.614 Y20.913 Z0.006
X16.619 Y20.968 Z0
X16.644 Y21.217
G3 X16.419 Y21.49 I-0.249 J0.024
G2 X15.289 Y22.734 I0.12 J1.244
G1 Y105.327
G2 X16.28 Y106.55 I1.25 J0
G1 X18.323 Y106.982
X20.36 Y107.423
X22.395 Y107.872
X24.427 Y108.33
X26.456 Y108.796
X28.484 Y109.271
X30.509 Y109.752
X32.53 Y110.243
X34.551 Y110.743
X36.568 Y111.25
X38.583 Y111.765
X40.597 Y112.289
X42.608 Y112.821
X44.616 Y113.361
X46.623 Y113.908
X48.627 Y114.464
X50.63 Y115.028
X52.63 Y115.599
X54.628 Y116.179
X56.625 Y116.766
X58.619 Y117.362
X60.612 Y117.965
X62.603 Y118.576
X64.593 Y119.195
X66.877 Y119.91
X66.884 Y119.912
X68.463 Y120.396
X70.042 Y120.891
X70.049 Y120.893
X71.632 Y121.378
X74.798 Y122.348
X74.808 Y122.351
X77.975 Y123.293
X77.979 Y123.294
X81.148 Y124.225
X81.15 Y124.226
X81.462 Y124.317
G2 X83.062 Y123.117 I0.35 J-1.2
G1 Y119.855
X84.996 Y119.919
X88.223 Y120.026
G2 X89.514 Y118.777 I0.041 J-1.249
G1 Y106.77
G2 X88.306 Y105.521 I-1.25 J0
G1 X85.479 Y105.427
X79.027 Y105.213
X75.801 Y105.105
X67.736 Y104.837
X67.064 Y104.815
X65.956 Y104.494
X64.696 Y104.131
X64.694 Y104.13
X63.434 Y103.769
X63.433
X62.173 Y103.409
X62.171
X60.91 Y103.051
X60.909 Y103.05
X59.648 Y102.693
X59.646
X58.385 Y102.338
X57.122 Y101.983
X57.12
X55.858 Y101.631
X54.594 Y101.28
X54.592 Y101.279
X53.329 Y100.93
X53.328
X52.065 Y100.582
X52.063 Y100.581
X50.799 Y100.235
X50.798
X49.534 Y99.89
X49.532
X48.268 Y99.547
X48.267 Y99.546
X47.001 Y99.204
X47
X45.734 Y98.864
X44.467 Y98.524
X44.465
X43.199 Y98.187
X43.197 Y98.186
X41.931 Y97.851
X41.929 Y97.85
X40.662 Y97.516
X40.66
X39.392 Y97.184
X39.391 Y97.183
X38.123 Y96.853
X38.122 Y96.852
X37.789 Y96.766
Y37.787
X322.616
X335.289
Y72.082
G3 X309.597 Y77.932 I-34.124 J-90.533
G1 X295.888 Y79.131
G2 X250.529 Y95.64 I8.127 J92.895
G1 X226.048 Y112.782
X225.682 Y112.668
X225.626 Y112.652
X223.562 Y112.11
X223.519 Y112.099
X221.473 Y111.64
X221.422 Y111.63
X219.328 Y111.25
X219.275 Y111.242
X215.694 Y110.75
X215.669 Y110.746
X214.159 Y110.57
G2 X212.764 Y111.812 I-0.145 J1.242
G1 Y123.893
G2 X213.844 Y125.131 I1.25 J0
G1 X217.02 Y125.569
X218.564 Y125.848
X220.109 Y126.196
X221.648 Y126.599
X223.107 Y127.055
X224.156 Y127.576
X224.589 Y127.911
X225.042 Y128.408
X225.231 Y128.7
X225.307 Y128.866
X225.349 Y128.997
G2 X227.256 Y129.638 I1.19 J-0.383
G1 X258.846 Y107.518
G3 X297.152 Y93.576 I45.169 J64.508
G1 X310.861 Y92.377
G2 X352.836 Y80.072 I-9.696 J-110.827
X357.789 Y71.881 I-4.297 J-8.192
G1 Y39.881
G2 X356.037 Y34.464 I-9.25 J0
G1 X356.019 Y34.439
X355.872 Y34.246
X355.837 Y34.202
X355.68 Y34.014
X355.631 Y33.958
X355.292 Y33.597
X355.234 Y33.539
X354.872 Y33.202
X354.822 Y33.158
X354.448 Y32.844
X354.403 Y32.809
X354.013 Y32.511
X353.976 Y32.484
X353.566 Y32.195
X353.532 Y32.172
X353.107 Y31.893
X353.076 Y31.873
X352.639 Y31.604
X352.612 Y31.588
X352.167 Y31.329
X352.142 Y31.315
X351.692 Y31.067
X351.661 Y31.051
X350.766 Y30.59
X350.731 Y30.573
X349.85 Y30.154
X349.82 Y30.14
X348.907 Y29.735
X348.881 Y29.724
X347.935 Y29.329
X347.912 Y29.32
X346.937 Y28.936
X346.917 Y28.928
X345.92 Y28.555
X345.902 Y28.548
X344.888 Y28.187
X344.871 Y28.181
X343.844 Y27.831
X343.829 Y27.826
X342.795 Y27.488
X342.782 Y27.484
X341.748 Y27.159
X341.735 Y27.155
X340.704 Y26.843
X340.688 Y26.838
X338.66 Y26.254
X338.642 Y26.249
X336.695 Y25.72
X336.679 Y25.715
X334.779 Y25.226
X334.765 Y25.222
X332.78 Y24.735
X332.767 Y24.732
X330.694 Y24.246
X330.682 Y24.243
X328.521 Y23.76
X328.509 Y23.758
X326.261 Y23.278
X326.25 Y23.275
X323.915 Y22.799
X323.904 Y22.797
X321.483 Y22.324
X321.473 Y22.323
X318.966 Y21.855
X318.957 Y21.853
X316.365 Y21.39
X316.356 Y21.388
X313.68 Y20.931
X313.671 Y20.93
X310.91 Y20.479
X310.901 Y20.477
X308.057 Y20.033
X308.049 Y20.032
X305.121 Y19.594
X305.113 Y19.593
X302.103 Y19.164
X302.095 Y19.162
X299.002 Y18.741
X298.994 Y18.74
X295.821 Y18.327
X295.814 Y18.326
X292.559 Y17.923
X292.551 Y17.922
X289.215 Y17.529
X289.208 Y17.528
X285.793 Y17.145
X285.786 Y17.144
X282.27 Y16.769
X282.264 Y16.768
X278.598 Y16.398
X278.591 Y16.397
X274.772 Y16.033
X274.765 Y16.032
X270.792 Y15.675
X270.785
X266.657 Y15.326
X266.65
X262.367 Y14.988
X262.36
X257.92 Y14.663
X257.913 Y14.662
X253.316 Y14.351
X253.31
X248.555 Y14.055
X248.548
X243.634 Y13.776
X243.627
X238.553 Y13.516
X238.546
X233.312 Y13.277
X233.305
X227.909 Y13.06
X227.902 Y13.059
X222.344 Y12.866
X222.338
X216.617 Y12.698
X216.61
X210.725 Y12.557
X210.718
X204.669 Y12.445
X204.662
X198.447 Y12.363
X198.441
X192.06 Y12.313
X192.053
X185.505 Y12.296
X185.499
X178.783 Y12.315
X178.776
X171.891 Y12.371
X171.884
X164.829 Y12.465
X164.823
X157.599 Y12.599
X157.592
X150.225 Y12.774
X150.219
X142.823 Y12.987
X142.817
X135.404 Y13.237
X135.398
X127.972 Y13.523
X127.966 Y13.524
X120.527 Y13.845
X120.521
X113.074 Y14.2
X113.069
X105.615 Y14.588
X105.61
X98.151 Y15.009
X98.145
X90.684 Y15.461
X90.679
X83.218 Y15.943
X83.213
X75.755 Y16.454
X75.75 Y16.455
X68.296 Y16.994
X68.292 Y16.995
X60.845 Y17.562
X60.84
X53.403 Y18.156
X53.399
X45.973 Y18.775
X45.969
X38.557 Y19.419
X38.553 Y19.42
X31.158 Y20.087
X31.154
X23.778 Y20.778
X23.774
X16.419 Y21.49
G3 X16.146 Y21.265 I-0.024 J-0.249
G1 X16.122 Y21.016
X16.116 Y20.961 Z0.006
X16.111 Y20.908 Z0.025
X16.107 Y20.861 Z0.055
X16.103 Y20.822 Z0.094
X16.1 Y20.792 Z0.142
X16.098 Y20.774 Z0.194
Y20.768 Z0.25
G0 Z3
M9
G28 G91 Z0
G90
G28 G91 X0 Y0
G90
M5
M30
