(Fuselage front part 10mm)
(T1  D=2 CR=0 - ZMIN=-1 - flat end mill)
G90 G94
G17
G21
G28 G91 Z0
G90

(2D Contour18)
T1 M6
S5000 M3
G54
G0 X13.897 Y15.449
Z10
Z5
G1 Z1 F333.3
Z-0.8
X13.898 Y15.456 Z-0.852
X13.9 Y15.476 Z-0.9
X13.902 Y15.508 Z-0.941
X13.905 Y15.549 Z-0.973
X13.909 Y15.597 Z-0.993
X13.914 Y15.649 Z-1
X13.93 Y15.848 F400
G3 X13.746 Y16.063 I-0.199 J0.016
G2 X12.827 Y17.06 I0.081 J0.997
G1 Y99.139
G2 X13.64 Y100.121 I1 J0
G1 X15.835 Y100.539
X18.049 Y100.971
X20.283 Y101.418
X22.537 Y101.88
X24.812 Y102.357
X27.107 Y102.85
X29.423 Y103.359
X31.759 Y103.884
X34.116 Y104.426
X36.493 Y104.985
X38.891 Y105.561
X41.31 Y106.155
X43.749 Y106.765
X46.209 Y107.395
X48.69 Y108.043
X51.192 Y108.71
X53.714 Y109.395
X56.257 Y110.101
X58.821 Y110.826
X61.406 Y111.57
X64.011 Y112.336
X66.638 Y113.121
X69.285 Y113.929
X71.955 Y114.758
X74.24 Y115.472
X74.245 Y115.474
X75.825 Y115.958
X77.405 Y116.452
X77.41 Y116.454
X78.993 Y116.939
X82.158 Y117.91
X82.167 Y117.913
X85.335 Y118.854
X85.337
X88.506 Y119.786
X88.511 Y119.788
X88.823 Y119.878
G2 X90.1 Y118.917 I0.277 J-0.961
G1 Y115.397
X95.519 Y115.576
X98.745 Y115.684
X118.101 Y116.327
X118.104 Y116.328
X121.329 Y116.425
X127.78 Y116.639
X131.006 Y116.747
X134.232 Y116.854
X137.458 Y116.961
X140.684 Y117.069
X143.91 Y117.176
X147.136 Y117.283
X150.362 Y117.39
X153.588 Y117.498
X156.814 Y117.605
X160.04 Y117.712
X163.266 Y117.82
X166.492 Y117.927
X169.718 Y118.034
X172.944 Y118.141
X176.17 Y118.249
X179.396 Y118.356
X185.848 Y118.571
X185.851 Y118.572
X189.076 Y118.669
X195.524 Y118.883
X198.744 Y119.01
X201.962 Y119.146
X205.175 Y119.311
X208.386 Y119.507
X211.591 Y119.731
X214.792 Y120.004
X217.988 Y120.315
X221.176 Y120.686
X224.347 Y121.122
X225.902 Y121.403
X227.456 Y121.753
X229.004 Y122.159
X230.489 Y122.624
X231.578 Y123.165
X232.048 Y123.527
X232.528 Y124.054
X232.738 Y124.38
X232.828 Y124.576
X232.875 Y124.72
G2 X234.401 Y125.233 I0.952 J-0.306
G1 X270.381 Y100.04
G3 X299.079 Y89.594 I33.841 J48.33
G1 X332.001 Y86.714
G2 X357.57 Y81.07 I-8.803 J-100.616
X364.827 Y70.726 I-3.743 J-10.343
G1 Y35.726
G2 X356.179 Y24.981 I-11 J0
G1 X356.177 Y24.98
X353.21 Y24.337
X353.206 Y24.336
X350.266 Y23.709
X350.263
X347.348 Y23.099
X347.344 Y23.098
X344.454 Y22.505
X344.45 Y22.504
X341.584 Y21.927
X341.581 Y21.926
X338.739 Y21.365
X338.735 Y21.364
X335.916 Y20.819
X335.912
X333.116 Y20.289
X333.112 Y20.288
X330.337 Y19.774
X330.333 Y19.773
X327.58 Y19.274
X327.576
X324.843 Y18.79
X324.84 Y18.789
X322.127 Y18.319
X322.123
X319.429 Y17.864
X319.425 Y17.863
X316.75 Y17.422
X316.746 Y17.421
X314.089 Y16.994
X314.085
X311.445 Y16.581
X311.441 Y16.58
X308.818 Y16.18
X308.814
X306.207 Y15.793
X306.203 Y15.792
X303.611 Y15.419
X303.607 Y15.418
X301.031 Y15.057
X301.027
X298.464 Y14.709
X298.46 Y14.708
X295.911 Y14.372
X295.907
X293.371 Y14.048
X293.367 Y14.047
X290.843 Y13.735
X290.837 Y13.734
X285.824 Y13.145
X285.816 Y13.144
X280.845 Y12.598
X280.837 Y12.597
X275.902 Y12.095
X275.895 Y12.094
X270.991 Y11.632
X270.983 Y11.631
X266.106 Y11.208
X266.099 Y11.207
X261.243 Y10.82
X261.236
X256.397 Y10.468
X256.391
X251.562 Y10.149
X251.555
X246.708 Y9.86
X246.702
X241.644 Y9.592
X241.637 Y9.591
X236.324 Y9.345
X236.318 Y9.344
X230.742 Y9.121
X230.736
X224.89 Y8.923
X224.884
X218.76 Y8.753
X218.754
X212.346 Y8.614
X212.34
X205.639 Y8.507
X205.633
X198.632 Y8.435
X198.627
X191.319 Y8.4
X191.315
X187.544 Y8.397
X187.541
X183.69 Y8.405
X183.687
X179.755 Y8.422
X179.753
X175.74 Y8.451
X175.737
X171.642 Y8.49
X171.64
X167.461 Y8.541
X167.458
X163.195 Y8.604
X163.193
X158.845 Y8.678
X158.843
X154.409 Y8.764
X154.406
X149.885 Y8.863
X149.883
X145.274 Y8.975
X145.271
X140.574 Y9.099
X140.571
X135.783 Y9.237
X135.781
X130.903 Y9.389
X130.901
X125.931 Y9.554
X125.929
X120.867 Y9.733
X120.864 Y9.734
X115.719 Y9.927
X115.717
X110.536 Y10.134
X110.534
X105.321 Y10.353
X105.319
X100.076 Y10.585
X100.074
X94.804 Y10.83
X94.802
X89.506 Y11.088
X89.504
X84.185 Y11.359
X84.183
X78.842 Y11.643
X78.84
X73.48 Y11.94
X73.478
X68.1 Y12.249
X68.097
X62.704 Y12.572
X62.701
X57.294 Y12.908
X57.291
X51.872 Y13.256
X51.869 Y13.257
X46.44 Y13.618
X46.438
X41 Y13.993
X40.997
X35.554 Y14.381
X35.551
X30.103 Y14.782
X30.101
X24.651 Y15.196
X24.648
X19.198 Y15.623
X19.195
X13.746 Y16.063
G3 X13.531 Y15.88 I-0.016 J-0.199
G1 X13.515 Y15.681
X13.511 Y15.629 Z-0.993
X13.507 Y15.581 Z-0.973
X13.503 Y15.54 Z-0.941
X13.501 Y15.508 Z-0.9
X13.499 Y15.488 Z-0.852
Y15.481 Z-0.8
G0 Z10
G28 G91 Z0
G90
G28 G91 X0 Y0
G90
M5
M30
