(Fuselage back part 50mm)
(T1  D=2 CR=0 - ZMIN=1 - flat end mill)
G90 G94
G17
G21
G28 G91 Z0
G90

(2D Contour22)
T1 M6
S5000 M3
G54
G0 X13.704 Y24.632
Z7
G1 Z3 F333.3
Z1.2
Y24.639 Z1.148
X13.702 Y24.659 Z1.1
X13.7 Y24.691 Z1.059
X13.696 Y24.732 Z1.027
X13.692 Y24.78 Z1.007
X13.688 Y24.832 Z1
X13.671 Y25.031 F400
G3 X13.455 Y25.214 I-0.199 J-0.017
G2 X12.372 Y26.21 I-0.083 J0.997
G1 Y108.279
G2 X13.552 Y109.263 I1 J0
G1 X17.883 Y108.468
X22.128 Y107.729
X26.292 Y107.04
X30.375 Y106.401
X34.378 Y105.808
X38.301 Y105.259
X42.144 Y104.751
X45.908 Y104.283
X49.592 Y103.851
X53.197 Y103.452
X56.723 Y103.085
X60.17 Y102.748
X63.539 Y102.436
X66.829 Y102.148
X70.08 Y101.88
X73.387 Y101.623
X76.752 Y101.376
X80.172 Y101.14
X83.645 Y100.914
X87.168 Y100.698
X90.738 Y100.492
X94.353 Y100.296
X98.009 Y100.109
X101.705 Y99.931
X105.436 Y99.762
X109.199 Y99.603
X116.819 Y99.309
X124.539 Y99.049
X132.338 Y98.82
X140.194 Y98.622
X148.087 Y98.452
X155.991 Y98.309
X163.887 Y98.191
X171.754 Y98.097
X179.567 Y98.026
X187.305 Y97.975
X194.95 Y97.943
G2 X195.946 Y96.943 I-0.004 J-1
G1 Y87.939
X195.953
X196.119
X196.283 Y87.938
X196.447
X196.774
X196.935
X197.099 Y87.939
X197.265
X197.433
X197.603
X197.775 Y87.94
X197.945
X198.116 Y87.941
X198.286
X198.454 Y87.942
X198.621
X198.783 Y87.943
X198.942
X198.946
X263.372
G2 X264.372 Y86.943 I0 J-1
G1 Y74.944
G2 X256.253 Y64.327 I-11 J0
G1 X256.251
X252.013 Y63.188
X252.008 Y63.187
X247.742 Y62.062
X247.737 Y62.061
X243.444 Y60.951
X243.44 Y60.95
X239.117 Y59.854
X239.112 Y59.853
X234.759 Y58.771
X234.755 Y58.77
X230.373 Y57.703
X230.368 Y57.702
X225.955 Y56.648
X225.951 Y56.647
X221.507 Y55.608
X221.502 Y55.607
X217.026 Y54.582
X217.022 Y54.581
X212.514 Y53.57
X212.509 Y53.569
X207.968 Y52.572
X207.964 Y52.571
X203.389 Y51.588
X203.385 Y51.587
X198.777 Y50.618
X198.773 Y50.617
X194.13 Y49.662
X194.125 Y49.661
X189.446 Y48.719
X189.442 Y48.718
X184.729 Y47.79
X184.725
X179.975 Y46.875
X179.971 Y46.874
X175.184 Y45.974
X175.18 Y45.973
X170.356 Y45.086
X170.352 Y45.085
X165.49 Y44.212
X165.486 Y44.211
X160.586 Y43.351
X160.582 Y43.35
X155.642 Y42.503
X155.638
X150.66 Y41.669
X150.656
X145.637 Y40.849
X145.633 Y40.848
X140.573 Y40.041
X140.57
X135.469 Y39.247
X135.465
X130.323 Y38.467
X130.319 Y38.466
X125.134 Y37.699
X125.131 Y37.698
X119.903 Y36.944
X119.899
X114.627 Y36.203
X114.624 Y36.202
X109.309 Y35.474
X109.305
X103.945 Y34.759
X103.942 Y34.758
X98.537 Y34.056
X98.534
X93.083 Y33.366
X93.08
X87.583 Y32.689
X87.579
X82.036 Y32.025
X82.032
X76.443 Y31.374
X76.44 Y31.373
X70.819 Y30.737
X70.815
X65.167 Y30.117
X65.164 Y30.116
X59.49 Y29.511
X59.487
X53.79 Y28.921
X53.787 Y28.92
X48.071 Y28.346
X48.068 Y28.345
X42.333 Y27.786
X42.33 Y27.785
X36.579 Y27.241
X36.576
X30.812 Y26.711
X30.81
X25.035 Y26.197
X25.032
X19.248 Y25.698
X19.245
X13.455 Y25.214
G3 X13.273 Y24.998 I0.017 J-0.199
G1 X13.289 Y24.798
X13.294 Y24.747 Z1.007
X13.298 Y24.699 Z1.027
X13.301 Y24.657 Z1.059
X13.304 Y24.626 Z1.1
X13.305 Y24.606 Z1.148
X13.306 Y24.599 Z1.2
G0 Z7
G28 G91 Z0
G90
G28 G91 X0 Y0
G90
M5
M30
